LUTs/01_Portra_Clean.cube
TITLE "Portra Clean"
# Nikon D5500 + Sigma 17-50 - subtle creative look (apply ~20-40%)
LUT_3D_SIZE 5
DOMAIN_MIN 0.0 0.0 0.0
DOMAIN_MAX 1.0 1.0 1.0
0.060251 0.051234 0.050359
0.289695 0.056631 0.056486
0.511415 0.061896 0.062241
0.729975 0.067134 0.067756
0.904604 0.071353 0.072049
0.075589 0.287626 0.069755
0.305586 0.293208 0.075328
0.527842 0.298651 0.080548
0.746928 0.304064 0.085536
0.921978 0.308424 0.089409
0.092121 0.516501 0.086769
0.322652 0.522261 0.091807
0.545424 0.527876 0.096511
0.765019 0.533459 0.100991
0.940475 0.537954 0.104458
0.110055 0.742508 0.101879
0.341113 0.748443 0.106390
0.564394 0.754228 0.110586
0.784490 0.759978 0.114564
0.960346 0.764606 0.117631
0.127823 0.948923 0.114221
0.359362 0.955018 0.118252
0.583106 0.960958 0.121984
0.803658 0.966860 0.125506
0.979879 0.971609 0.128208
0.061656 0.052934 0.261698
0.291153 0.058348 0.267771
0.512925 0.063631 0.273475
0.731536 0.068886 0.278939
0.906206 0.073118 0.283191
0.077169 0.289384 0.280919
0.307219 0.294984 0.286438
0.529527 0.300444 0.291607
0.748664 0.305875 0.296544
0.923754 0.310247 0.300377
0.093869 0.518316 0.297764
0.324454 0.524093 0.302749
0.547278 0.529726 0.307401
0.766924 0.535326 0.311830
0.942420 0.539834 0.315256
0.111970 0.744378 0.312707
0.343082 0.750331 0.317165
0.566414 0.756133 0.321309
0.786561 0.761900 0.325237
0.962458 0.766542 0.328263
0.129890 0.950844 0.324898
0.361482 0.956957 0.328876
0.585278 0.962914 0.332556
0.805881 0.968833 0.336027
0.982143 0.973596 0.338688
0.063047 0.054603 0.468498
0.292596 0.060035 0.474519
0.514419 0.065334 0.480172
0.733079 0.070606 0.485585
0.907789 0.074851 0.489798
0.078731 0.291110 0.487547
0.308834 0.296727 0.493014
0.531192 0.302205 0.498133
0.750379 0.307652 0.503020
0.925509 0.312038 0.506812
0.095597 0.520097 0.504227
0.326234 0.525892 0.509159
0.549108 0.531541 0.513761
0.768804 0.537158 0.518140
0.944341 0.541679 0.521526
0.113860 0.746213 0.519007
0.345025 0.752184 0.523413
0.568408 0.758003 0.527506
0.788604 0.763787 0.531384
0.964541 0.768441 0.534370
0.131929 0.952729 0.531049
0.363573 0.958859 0.534975
0.587420 0.964833 0.538604
0.808073 0.970769 0.542025
0.984374 0.975545 0.544647
0.064440 0.056261 0.673264
0.294041 0.061710 0.679233
0.515914 0.067026 0.684835
0.734624 0.072314 0.690200
0.909373 0.076573 0.694374
0.080294 0.292825 0.692144
0.310449 0.298459 0.697559
0.532856 0.303953 0.702627
0.752093 0.309417 0.707465
0.927263 0.313816 0.711218
0.097323 0.521866 0.708660
0.328013 0.527678 0.713540
0.550937 0.533345 0.718092
0.770682 0.538978 0.722421
0.946258 0.543512 0.725768
0.115748 0.748036 0.723279
0.346965 0.754024 0.727632
0.570398 0.759860 0.731675
0.790644 0.765660 0.735503
0.966620 0.770328 0.738450
0.133964 0.954601 0.735173
0.365660 0.960749 0.739047
0.589557 0.966739 0.742626
0.810259 0.972691 0.745998
0.986600 0.977481 0.748580
0.065840 0.057913 0.876684
0.295492 0.063380 0.882601
0.517415 0.068712 0.888154
0.736174 0.074017 0.893470
0.910962 0.078289 0.897604
0.081862 0.294534 0.895395
0.312069 0.300185 0.900759
0.534526 0.305696 0.905777
0.753812 0.311176 0.910566
0.929021 0.315588 0.914280
0.099054 0.523629 0.911748
0.329795 0.529459 0.916577
0.552769 0.535141 0.921079
0.772564 0.540791 0.925359
0.948179 0.545338 0.928667
0.117640 0.749853 0.926207
0.348908 0.755858 0.930509
0.572390 0.761710 0.934502
0.792686 0.767527 0.938281
0.968701 0.772208 0.941189
0.136002 0.956466 0.937956
0.367749 0.962631 0.941778
0.591695 0.968638 0.945307
0.812447 0.974606 0.948630
0.988827 0.979409 0.951173
