LUTs/01_Portra_Clean.cube
TITLE "Portra Clean"
# Nikon D5500 + Sigma 17-50 - subtle creative look (apply ~20-40%)
LUT_3D_SIZE 9
DOMAIN_MIN 0.0 0.0 0.0
DOMAIN_MAX 1.0 1.0 1.0
0.060251 0.051234 0.050359
0.176734 0.053967 0.053491
0.289695 0.056631 0.056486
0.401072 0.059269 0.059397
0.511415 0.061896 0.062241
0.620996 0.064516 0.065026
0.729975 0.067134 0.067756
0.838460 0.069751 0.070435
0.904604 0.071353 0.072049
0.067813 0.171180 0.060433
0.184438 0.173960 0.063422
0.297537 0.176670 0.066278
0.409050 0.179354 0.069053
0.519529 0.182026 0.071762
0.629244 0.184691 0.074413
0.738356 0.187353 0.077009
0.846974 0.190014 0.079556
0.913199 0.191643 0.081089
0.075589 0.287626 0.069755
0.192354 0.290453 0.072606
0.305586 0.293208 0.075328
0.417232 0.295936 0.077970
0.527842 0.298651 0.080548
0.637687 0.301359 0.083069
0.746928 0.304064 0.085536
0.855674 0.306769 0.087954
0.921978 0.308424 0.089409
0.083684 0.402546 0.078514
0.200585 0.405418 0.081229
0.313950 0.408217 0.083818
0.425725 0.410989 0.086331
0.536464 0.413747 0.088779
0.646437 0.416498 0.091172
0.755806 0.419245 0.093512
0.864679 0.421992 0.095803
0.931060 0.423673 0.097181
0.092121 0.516501 0.086769
0.209156 0.519418 0.089348
0.322652 0.522261 0.091807
0.434557 0.525075 0.094190
0.545424 0.527876 0.096511
0.655524 0.530669 0.098777
0.765019 0.533459 0.100991
0.874017 0.536248 0.103156
0.940475 0.537954 0.104458
0.100909 0.629767 0.094551
0.218079 0.632729 0.096996
0.331705 0.635614 0.099325
0.443738 0.638472 0.101580
0.554732 0.641315 0.103774
0.664958 0.644150 0.105913
0.774578 0.646982 0.108002
0.883701 0.649812 0.110043
0.950235 0.651543 0.111268
0.110055 0.742508 0.101879
0.227358 0.745514 0.104191
0.341113 0.748443 0.106390
0.453274 0.751343 0.108518
0.564394 0.754228 0.110586
0.674745 0.757105 0.112600
0.784490 0.759978 0.114564
0.893737 0.762849 0.116481
0.960346 0.764606 0.117631
0.119560 0.854833 0.108767
0.236996 0.857884 0.110946
0.350880 0.860856 0.113017
0.463167 0.863798 0.115018
0.574413 0.866725 0.116960
0.684889 0.869643 0.118850
0.794757 0.872557 0.120690
0.904127 0.875470 0.122483
0.970812 0.877252 0.123558
0.127823 0.948923 0.114221
0.245370 0.952011 0.116289
0.359362 0.955018 0.118252
0.471755 0.957996 0.120147
0.583106 0.960958 0.121984
0.693686 0.963911 0.123769
0.803658 0.966860 0.125506
0.913132 0.969807 0.127196
0.979879 0.971609 0.128208
0.060958 0.052091 0.157008
0.177455 0.054829 0.160126
0.290428 0.057497 0.163107
0.401818 0.060140 0.166005
0.512175 0.062771 0.168836
0.621769 0.065395 0.171608
0.730760 0.068017 0.174325
0.839258 0.070639 0.176992
0.905410 0.072243 0.178598
0.068564 0.172052 0.167037
0.185204 0.174837 0.170012
0.298316 0.177551 0.172855
0.409842 0.180240 0.175617
0.520334 0.182916 0.178313
0.630061 0.185585 0.180950
0.739187 0.188251 0.183534
0.847817 0.190917 0.186068
0.914050 0.192548 0.187594
0.076384 0.288513 0.176315
0.193162 0.291344 0.179152
0.306408 0.294103 0.181861
0.418067 0.296836 0.184491
0.528690 0.299555 0.187055
0.638548 0.302268 0.189563
0.747802 0.304977 0.192018
0.856561 0.307686 0.194423
0.922872 0.309343 0.195870
0.084522 0.403447 0.185031
0.201436 0.406324 0.187732
0.314814 0.409127 0.190309
0.426603 0.411903 0.192808
0.537355 0.414665 0.195244
0.647341 0.417421 0.197623
0.756723 0.420173 0.199950
0.865608 0.422924 0.202229
0.931997 0.424607 0.203599
0.093001 0.517416 0.193244
0.210050 0.520338 0.195810
0.323559 0.523185 0.198255
0.435478 0.526004 0.200625
0.546357 0.528809 0.202933
0.656470 0.531606 0.205186
0.765978 0.534400 0.207387
0.874989 0.537193 0.209540
0.941455 0.538902 0.210833
0.101832 0.630696 0.200984
0.219015 0.633663 0.203415
0.332655 0.636552 0.205731
0.444701 0.639414 0.207972
0.555707 0.642262 0.210154
0.665946 0.645101 0.212280
0.775579 0.647937 0.214356
0.884715 0.650771 0.216384
0.951257 0.652505 0.217602
0.111019 0.743451 0.208270
0.228336 0.746462 0.210568
0.342105 0.749395 0.212754
0.454278 0.752299 0.214869
0.565411 0.755189 0.216924
0.675775 0.758070 0.218925
0.785533 0.760947 0.220876
0.894793 0.763823 0.222780
0.961410 0.765582 0.223922
0.120566 0.855790 0.215116
0.238016 0.858846 0.217282
0.351913 0.861821 0.219339
0.464213 0.864768 0.221327
0.575472 0.867699 0.223256
0.685960 0.870622 0.225133
0.795842 0.873541 0.226960
0.905225 0.876458 0.228741
0.971917 0.878242 0.229808
0.128864 0.949892 0.220535
0.246425 0.952984 0.222590
0.360430 0.955996 0.224539
0.472836 0.958978 0.226421
0.584200 0.961944 0.228245
0.694793 0.964902 0.230018
0.804778 0.967855 0.231742
0.914264 0.970806 0.233419
0.981019 0.972611 0.234423
0.061656 0.052934 0.261698
0.178166 0.055676 0.264803
0.291153 0.058348 0.267771
0.402556 0.060996 0.270657
0.512925 0.063631 0.273475
0.622531 0.066259 0.276234
0.731536 0.068886 0.278939
0.840046 0.071511 0.281592
0.906206 0.073118 0.283191
0.069306 0.172909 0.271683
0.185959 0.175699 0.274645
0.299084 0.178418 0.277475
0.410623 0.181110 0.280224
0.521128 0.183790 0.282907
0.630868 0.186464 0.285532
0.740006 0.189134 0.288104
0.848648 0.191804 0.290625
0.914889 0.193438 0.292143
0.077169 0.289384 0.280919
0.193960 0.292220 0.283743
0.307219 0.294984 0.286438
0.418891 0.297721 0.289055
0.529527 0.300444 0.291607
0.639397 0.303161 0.294102
0.748664 0.305875 0.296544
0.857435 0.308588 0.298937
0.923754 0.310247 0.300377
0.085348 0.404333 0.289593
0.202276 0.407214 0.292281
0.315668 0.410021 0.294844
0.427469 0.412802 0.297330
0.538234 0.415568 0.299753
0.648233 0.418328 0.302120
0.757627 0.421084 0.304435
0.866525 0.423839 0.306701
0.932921 0.425525 0.308063
0.093869 0.518316 0.297764
0.210932 0.521242 0.300316
0.324454 0.524093 0.302749
0.436385 0.526917 0.305106
0.547278 0.529726 0.307401
0.657403 0.532528 0.309641
0.766924 0.535326 0.311830
0.875947 0.538123 0.313970
0.942420 0.539834 0.315256
0.102741 0.631609 0.305462
0.219938 0.634580 0.307880
0.333591 0.637475 0.310183
0.445650 0.640341 0.312412
0.556669 0.643192 0.314580
0.666921 0.646036 0.316694
0.776566 0.648876 0.318757
0.885715 0.651715 0.320773
0.952264 0.653451 0.321983
0.111970 0.744378 0.312707
0.229300 0.747394 0.314992
0.343082 0.750331 0.317165
0.455269 0.753240 0.319267
0.566414 0.756133 0.321309
0.676791 0.759019 0.323298
0.786561 0.761900 0.325237
0.895833 0.764780 0.327128
0.962458 0.766542 0.328263
0.121558 0.856731 0.319513
0.239021 0.859791 0.321665
0.352931 0.862771 0.323709
0.465245 0.865722 0.325684
0.576516 0.868657 0.327601
0.687017 0.871584 0.329465
0.796911 0.874507 0.331280
0.906307 0.877428 0.333048
0.973006 0.879215 0.334107
0.129890 0.950844 0.324898
0.247464 0.953941 0.326939
0.361482 0.956957 0.328876
0.473901 0.959943 0.330744
0.585278 0.962914 0.332556
0.695883 0.965875 0.334316
0.805881 0.968833 0.336027
0.915380 0.971788 0.337692
0.982143 0.973596 0.338688
0.062351 0.053770 0.365424
0.178875 0.056517 0.368515
0.291874 0.059194 0.371471
0.403290 0.061845 0.374343
0.513672 0.064484 0.377149
0.623291 0.067117 0.379895
0.732308 0.069748 0.382588
0.840830 0.072378 0.385229
0.906998 0.073987 0.386820
0.070045 0.173760 0.375365
0.186711 0.176555 0.378314
0.299849 0.179277 0.381131
0.411401 0.181974 0.383867
0.521919 0.184659 0.386537
0.631672 0.187336 0.389150
0.740822 0.190011 0.391709
0.849477 0.192685 0.394218
0.915725 0.194321 0.395728
0.077950 0.290249 0.384559
0.194755 0.293090 0.387369
0.308027 0.295858 0.390052
0.419712 0.298599 0.392656
0.530360 0.301327 0.395195
0.640243 0.304047 0.397678
0.749522 0.306765 0.400107
0.858306 0.309482 0.402487
0.924632 0.311145 0.403920
0.086172 0.405212 0.393191
0.203113 0.408098 0.395865
0.316517 0.410909 0.398416
0.428332 0.413694 0.400889
0.539109 0.416465 0.403300
0.649120 0.419228 0.405654
0.758527 0.421989 0.407956
0.867437 0.424748 0.410210
0.933841 0.426436 0.411564
0.094733 0.519208 0.401321
0.211810 0.522139 0.403860
0.325345 0.524995 0.406279
0.437289 0.527822 0.408624
0.548194 0.530636 0.410906
0.658332 0.533442 0.413134
0.767865 0.536244 0.415310
0.876901 0.539045 0.417437
0.943381 0.540759 0.418716
0.103647 0.632516 0.408978
0.220857 0.635491 0.411383
0.334522 0.638390 0.413672
0.446594 0.641260 0.415889
0.557626 0.644116 0.418044
0.667890 0.646964 0.420146
0.777549 0.649808 0.422196
0.886709 0.652651 0.424200
0.953266 0.654390 0.425402
0.112916 0.745298 0.416182
0.230260 0.748318 0.418454
0.344054 0.751260 0.420614
0.456254 0.754173 0.422703
0.567412 0.757070 0.424732
0.677801 0.759960 0.426708
0.787584 0.762846 0.428635
0.896868 0.765730 0.430514
0.963501 0.767494 0.431641
0.122545 0.857664 0.422947
0.240021 0.860729 0.425086
0.353944 0.863713 0.427118
0.466270 0.866668 0.429080
0.577554 0.869608 0.430984
0.688068 0.872539 0.432835
0.797975 0.875466 0.434638
0.907382 0.878391 0.436393
0.974090 0.880181 0.437445
0.130911 0.951789 0.428298
0.248498 0.954890 0.430326
0.362529 0.957910 0.432250
0.474961 0.960901 0.434106
0.586350 0.963876 0.435905
0.696968 0.966842 0.437652
0.806979 0.969803 0.439351
0.916490 0.972763 0.441003
0.983260 0.974573 0.441992
0.063047 0.054603 0.468498
0.179583 0.057354 0.471576
0.292596 0.060035 0.474519
0.404024 0.062691 0.477378
0.514419 0.065334 0.480172
0.624050 0.067971 0.482906
0.733079 0.070606 0.485585
0.841614 0.073240 0.488214
0.907789 0.074851 0.489798
0.070784 0.174607 0.478396
0.187463 0.177406 0.481331
0.300614 0.180133 0.484135
0.412179 0.182834 0.486859
0.522709 0.185523 0.489517
0.632474 0.188205 0.492117
0.741636 0.190883 0.494663
0.850304 0.193562 0.497160
0.916560 0.195200 0.498663
0.078731 0.291110 0.487547
0.195549 0.293955 0.490345
0.308834 0.296727 0.493014
0.420531 0.299473 0.495606
0.531192 0.302205 0.498133
0.641087 0.304930 0.500603
0.750379 0.307652 0.503020
0.859175 0.310373 0.505388
0.925509 0.312038 0.506812
0.086994 0.406086 0.496139
0.203948 0.408977 0.498799
0.317365 0.411793 0.501337
0.429192 0.414582 0.503798
0.539982 0.417357 0.506196
0.650006 0.420124 0.508537
0.759425 0.422889 0.510827
0.868348 0.425652 0.513068
0.934759 0.427343 0.514416
0.095597 0.520097 0.504227
0.212686 0.523032 0.506753
0.326234 0.525892 0.509159
0.438191 0.528724 0.511491
0.549108 0.531541 0.513761
0.659259 0.534352 0.515976
0.768804 0.537158 0.518140
0.877852 0.539963 0.520255
0.944341 0.541679 0.521526
0.104551 0.633418 0.511844
0.221774 0.636398 0.514235
0.335452 0.639301 0.516512
0.447537 0.642175 0.518715
0.558581 0.645035 0.520858
0.668858 0.647887 0.522947
0.778529 0.650736 0.524986
0.887701 0.653582 0.526977
0.954266 0.655324 0.528171
0.113860 0.746213 0.519007
0.231217 0.749238 0.521266
0.345025 0.752184 0.523413
0.457237 0.755101 0.525489
0.568408 0.758003 0.527506
0.678809 0.760897 0.529470
0.788604 0.763787 0.531384
0.897901 0.766675 0.533250
0.964541 0.768441 0.534370
0.123529 0.858593 0.525732
0.241019 0.861662 0.527858
0.354955 0.864651 0.529876
0.467294 0.867610 0.531826
0.578590 0.870554 0.533717
0.689116 0.873490 0.535556
0.799035 0.876421 0.537346
0.908455 0.879350 0.539090
0.975170 0.881142 0.540134
0.131929 0.952729 0.531049
0.249530 0.955835 0.533064
0.363573 0.958859 0.534975
0.476018 0.961854 0.536818
0.587420 0.964833 0.538604
0.698050 0.967803 0.540339
0.808073 0.970769 0.542025
0.917596 0.973732 0.543666
0.984374 0.975545 0.544647
0.063743 0.055433 0.571079
0.180293 0.058188 0.574144
0.293318 0.060874 0.577074
0.404759 0.063534 0.579921
0.515166 0.066181 0.582702
0.624810 0.068822 0.585423
0.733851 0.071461 0.588091
0.842398 0.074099 0.590708
0.908581 0.075713 0.592284
0.071523 0.175452 0.580934
0.188216 0.178255 0.583856
0.301379 0.180986 0.586648
0.412957 0.183692 0.589358
0.523499 0.186384 0.592004
0.633277 0.189070 0.594592
0.742451 0.191753 0.597126
0.851131 0.194435 0.599610
0.917394 0.196077 0.601105
0.079512 0.291969 0.590044
0.196343 0.294818 0.592828
0.309641 0.297594 0.595485
0.421350 0.300344 0.598063
0.532024 0.303080 0.600578
0.641931 0.305809 0.603035
0.751236 0.308535 0.605440
0.860044 0.311261 0.607796
0.926386 0.312928 0.609213
0.087816 0.406958 0.598594
0.204783 0.409853 0.601241
0.318213 0.412673 0.603766
0.430053 0.415466 0.606214
0.540855 0.418246 0.608600
0.650891 0.421018 0.610929
0.760323 0.423786 0.613207
0.869258 0.426554 0.615435
0.935677 0.428247 0.616775
0.096460 0.520982 0.606641
0.213562 0.523922 0.609154
0.327123 0.526786 0.611548
0.439092 0.529622 0.613867
0.550022 0.532444 0.616124
0.660185 0.535258 0.618327
0.769743 0.538069 0.620478
0.878803 0.540878 0.622581
0.945299 0.542597 0.623845
0.105454 0.634317 0.614217
0.222691 0.637301 0.616596
0.336382 0.640209 0.618859
0.448479 0.643087 0.621050
0.559536 0.645951 0.623181
0.669825 0.648808 0.625258
0.779508 0.651660 0.627284
0.888693 0.654511 0.629262
0.955265 0.656255 0.630450
0.114804 0.747126 0.621341
0.232174 0.750155 0.623586
0.345995 0.753105 0.625720
0.458219 0.756026 0.627784
0.569403 0.758933 0.629788
0.679817 0.761831 0.631740
0.789624 0.764724 0.633641
0.898933 0.767617 0.635496
0.965580 0.769386 0.636608
0.124513 0.859519 0.628025
0.242016 0.862593 0.630138
0.355965 0.865586 0.632144
0.468316 0.868549 0.634080
0.579625 0.871497 0.635959
0.690164 0.874437 0.637786
0.800095 0.877372 0.639564
0.909527 0.880305 0.641295
0.976250 0.882100 0.642332
0.132946 0.953666 0.633309
0.250560 0.956776 0.635310
0.364617 0.959805 0.637208
0.477074 0.962804 0.639039
0.588488 0.965787 0.640813
0.699131 0.968761 0.642535
0.809166 0.971731 0.644209
0.918702 0.974699 0.645837
0.985487 0.976514 0.646811
0.064440 0.056261 0.673264
0.181003 0.059021 0.676316
0.294041 0.061710 0.679233
0.405494 0.064374 0.682067
0.515914 0.067026 0.684835
0.625570 0.069671 0.687545
0.734624 0.072314 0.690200
0.843183 0.074956 0.692805
0.909373 0.076573 0.694374
0.072263 0.176294 0.683076
0.188969 0.179102 0.685985
0.302145 0.181837 0.688763
0.413735 0.184547 0.691462
0.524290 0.187244 0.694095
0.634080 0.189934 0.696670
0.743267 0.192621 0.699192
0.851959 0.195307 0.701664
0.918230 0.196951 0.703152
0.080294 0.292825 0.692144
0.197138 0.295679 0.694915
0.310449 0.298459 0.697559
0.422171 0.301213 0.700125
0.532856 0.303953 0.702627
0.642777 0.306687 0.705072
0.752093 0.309417 0.707465
0.860913 0.312146 0.709808
0.927263 0.313816 0.711218
0.088639 0.407828 0.700653
0.205619 0.410728 0.703287
0.319062 0.413552 0.705799
0.430915 0.416349 0.708235
0.541729 0.419133 0.710608
0.651778 0.421909 0.712925
0.761221 0.424681 0.715190
0.870169 0.427453 0.717406
0.936595 0.429149 0.718739
0.097323 0.521866 0.708660
0.214439 0.524810 0.711159
0.328013 0.527678 0.713540
0.439994 0.530519 0.715847
0.550937 0.533345 0.718092
0.661112 0.536163 0.720282
0.770682 0.538978 0.722421
0.879755 0.541791 0.724512
0.946258 0.543512 0.725768
0.106358 0.635214 0.716195
0.223608 0.638203 0.718560
0.337312 0.641114 0.720811
0.449421 0.643997 0.722990
0.560491 0.646865 0.725108
0.670792 0.649726 0.727172
0.780487 0.652582 0.729186
0.889685 0.655437 0.731152
0.956264 0.657184 0.732332
0.115748 0.748036 0.723279
0.233132 0.751070 0.725510
0.346965 0.754024 0.727632
0.459202 0.756950 0.729683
0.570398 0.759860 0.731675
0.680824 0.762762 0.733614
0.790644 0.765660 0.735503
0.899965 0.768556 0.737346
0.966620 0.770328 0.738450
0.125497 0.860443 0.729923
0.243013 0.863521 0.732022
0.356975 0.866518 0.734015
0.469339 0.869486 0.735940
0.580660 0.872438 0.737806
0.691211 0.875382 0.739620
0.801155 0.878321 0.741386
0.910599 0.881258 0.743105
0.977329 0.883055 0.744134
0.133964 0.954601 0.735173
0.251591 0.957715 0.737161
0.365660 0.960749 0.739047
0.478130 0.963752 0.740865
0.589557 0.966739 0.742626
0.700212 0.969717 0.744336
0.810259 0.972691 0.745998
0.919807 0.975663 0.747614
0.986600 0.977481 0.748580
0.065139 0.057087 0.775117
0.181715 0.059852 0.778155
0.294766 0.062546 0.781060
0.406232 0.065214 0.783882
0.516664 0.067870 0.786637
0.626332 0.070519 0.789334
0.735398 0.073166 0.791977
0.843969 0.075812 0.794570
0.910167 0.077431 0.796131
0.073005 0.177135 0.784886
0.189724 0.179947 0.787782
0.302913 0.182687 0.790547
0.414515 0.185401 0.793233
0.525082 0.188102 0.795854
0.634885 0.190796 0.798417
0.744084 0.193487 0.800926
0.852788 0.196177 0.803386
0.919067 0.197823 0.804867
0.081077 0.293680 0.793912
0.197935 0.296538 0.796670
0.311258 0.299323 0.799301
0.422992 0.302081 0.801855
0.533691 0.304825 0.804345
0.643623 0.307563 0.806777
0.752952 0.310297 0.809158
0.861784 0.313030 0.811489
0.928141 0.314703 0.812891
0.089463 0.408697 0.802380
0.206457 0.411601 0.805001
0.319912 0.414429 0.807501
0.431777 0.417231 0.809924
0.542604 0.420018 0.812284
0.652665 0.422798 0.814589
0.762121 0.425575 0.816842
0.871080 0.428351 0.819046
0.937514 0.430049 0.820371
0.098188 0.522748 0.810347
0.215317 0.525697 0.812833
0.328903 0.528569 0.815201
0.440897 0.531413 0.817495
0.551852 0.534244 0.819728
0.662040 0.537066 0.821906
0.771622 0.539885 0.824033
0.880707 0.542702 0.826111
0.947218 0.544426 0.827360
0.107263 0.636109 0.817842
0.224526 0.639103 0.820194
0.338243 0.642018 0.822432
0.450365 0.644905 0.824598
0.561447 0.647778 0.826704
0.671760 0.650642 0.828756
0.781468 0.653503 0.830757
0.890677 0.656362 0.832711
0.957264 0.658111 0.833884
0.116694 0.748945 0.824885
0.234090 0.751983 0.827104
0.347936 0.754942 0.829213
0.460185 0.757871 0.831251
0.571393 0.760786 0.833231
0.681832 0.763692 0.835158
0.791664 0.766594 0.837035
0.900998 0.769494 0.838865
0.967660 0.771269 0.839962
0.126482 0.861365 0.831490
0.244011 0.864447 0.833576
0.357985 0.867449 0.835556
0.470362 0.870421 0.837468
0.581696 0.873377 0.839322
0.692259 0.876325 0.841124
0.802215 0.879268 0.842877
0.911672 0.882210 0.844584
0.978409 0.884009 0.845606
0.134982 0.955534 0.836707
0.252622 0.958653 0.838682
0.366704 0.961691 0.840554
0.479187 0.964698 0.842360
0.590626 0.967689 0.844109
0.701293 0.970672 0.845807
0.811353 0.973650 0.847456
0.920913 0.976625 0.849060
0.987713 0.978446 0.850019
0.065840 0.057913 0.876684
0.182429 0.060682 0.879710
0.295492 0.063380 0.882601
0.406971 0.066053 0.885411
0.517415 0.068712 0.888154
0.627096 0.071366 0.890839
0.736174 0.074017 0.893470
0.844758 0.076667 0.896050
0.910962 0.078289 0.897604
0.073748 0.177975 0.886410
0.190481 0.180791 0.889293
0.303682 0.183535 0.892046
0.415297 0.186253 0.894719
0.525877 0.188958 0.897328
0.635691 0.191657 0.899878
0.744903 0.194352 0.902376
0.853619 0.197046 0.904823
0.919905 0.198695 0.906297
0.081862 0.294534 0.895395
0.198733 0.297396 0.898140
0.312069 0.300185 0.900759
0.423816 0.302947 0.903300
0.534526 0.305696 0.905777
0.644471 0.308437 0.908198
0.753812 0.311176 0.910566
0.862656 0.313913 0.912885
0.929021 0.315588 0.914280
0.090289 0.409564 0.903822
0.207296 0.412472 0.906430
0.320764 0.415305 0.908917
0.432641 0.418111 0.911328
0.543481 0.420902 0.913676
0.653554 0.423687 0.915968
0.763022 0.426467 0.918209
0.871993 0.429247 0.920401
0.938435 0.430948 0.921719
0.099054 0.523629 0.911748
0.216196 0.526582 0.914221
0.329795 0.529459 0.916577
0.441802 0.532307 0.918859
0.552769 0.535141 0.921079
0.662969 0.537968 0.923245
0.772564 0.540791 0.925359
0.881661 0.543612 0.927426
0.948179 0.545338 0.928667
0.108170 0.637004 0.919203
0.225446 0.640001 0.921542
0.339175 0.642921 0.923768
0.451310 0.645812 0.925922
0.562404 0.648689 0.928015
0.672730 0.651558 0.930054
0.782449 0.654422 0.932044
0.891671 0.657285 0.933986
0.958265 0.659037 0.935151
0.117640 0.749853 0.926207
0.235049 0.752895 0.928412
0.348908 0.755858 0.930509
0.461170 0.758792 0.932535
0.572390 0.761710 0.934502
0.682841 0.764621 0.936416
0.792686 0.767527 0.938281
0.902031 0.770431 0.940099
0.968701 0.772208 0.941189
0.127468 0.862286 0.932772
0.245010 0.865372 0.934845
0.358997 0.868378 0.936813
0.471386 0.871354 0.938712
0.582732 0.874315 0.940554
0.693308 0.877267 0.942343
0.803276 0.880214 0.944084
0.912745 0.883159 0.945779
0.979490 0.884961 0.946793
0.136002 0.956466 0.937956
0.253655 0.959589 0.939917
0.367749 0.962631 0.941778
0.480244 0.965642 0.943571
0.591695 0.968638 0.945307
0.702375 0.971625 0.946993
0.812447 0.974606 0.948630
0.922019 0.977586 0.950221
0.988827 0.979409 0.951173
