LUTs/01_Portra_Clean.cube
TITLE "Portra Clean"
# Nikon D5500 + Sigma 17-50 - subtle creative look (apply ~20-40%)
LUT_3D_SIZE 33
DOMAIN_MIN 0.0 0.0 0.0
DOMAIN_MAX 1.0 1.0 1.0
0.060251 0.051234 0.050359
0.090040 0.051931 0.051164
0.119243 0.052616 0.051951
0.148108 0.053294 0.052726
0.176734 0.053967 0.053491
0.205177 0.054636 0.054249
0.233469 0.055303 0.055000
0.261636 0.055968 0.055746
0.289695 0.056631 0.056486
0.317658 0.057292 0.057220
0.345536 0.057952 0.057950
0.373339 0.058611 0.058676
0.401072 0.059269 0.059397
0.428741 0.059927 0.060114
0.456352 0.060584 0.060827
0.483909 0.061240 0.061536
0.511415 0.061896 0.062241
0.538874 0.062551 0.062942
0.566289 0.063206 0.063640
0.593662 0.063861 0.064335
0.620996 0.064516 0.065026
0.648292 0.065170 0.065713
0.675553 0.065825 0.066397
0.702780 0.066479 0.067078
0.729975 0.067134 0.067756
0.757139 0.067788 0.068430
0.784274 0.068442 0.069101
0.811380 0.069097 0.069770
0.838460 0.069751 0.070435
0.865513 0.070406 0.071097
0.892541 0.071060 0.071756
0.904604 0.071353 0.072049
0.904604 0.071353 0.072049
0.062140 0.081889 0.052979
0.091938 0.082590 0.053775
0.121150 0.083278 0.054553
0.150025 0.083959 0.055318
0.178660 0.084635 0.056075
0.207111 0.085307 0.056824
0.235413 0.085977 0.057566
0.263588 0.086644 0.058303
0.291656 0.087310 0.059034
0.319628 0.087974 0.059760
0.347515 0.088637 0.060481
0.375326 0.089299 0.061198
0.403067 0.089960 0.061911
0.430746 0.090621 0.062619
0.458365 0.091281 0.063323
0.485931 0.091940 0.064023
0.513446 0.092598 0.064720
0.540913 0.093257 0.065413
0.568337 0.093915 0.066102
0.595718 0.094572 0.066788
0.623061 0.095230 0.067470
0.650365 0.095887 0.068149
0.677635 0.096545 0.068825
0.704870 0.097202 0.069497
0.732074 0.097859 0.070166
0.759246 0.098516 0.070832
0.786390 0.099173 0.071495
0.813504 0.099830 0.072155
0.840592 0.100488 0.072811
0.867654 0.101145 0.073465
0.894691 0.101803 0.074116
0.906758 0.102096 0.074405
0.906758 0.102096 0.074405
0.064022 0.111958 0.055519
0.093829 0.112662 0.056306
0.123050 0.113353 0.057074
0.151933 0.114036 0.057831
0.180578 0.114715 0.058579
0.209038 0.115391 0.059319
0.237348 0.116063 0.060053
0.265532 0.116734 0.060781
0.293608 0.117402 0.061503
0.321588 0.118069 0.062221
0.349484 0.118735 0.062933
0.377304 0.119400 0.063642
0.405054 0.120064 0.064345
0.432741 0.120727 0.065045
0.460369 0.121390 0.065741
0.487943 0.122052 0.066433
0.515466 0.122713 0.067121
0.542942 0.123374 0.067805
0.570374 0.124035 0.068486
0.597764 0.124696 0.069164
0.625115 0.125356 0.069838
0.652428 0.126016 0.070508
0.679706 0.126676 0.071176
0.706950 0.127336 0.071840
0.734161 0.127996 0.072500
0.761342 0.128656 0.073158
0.788494 0.129316 0.073812
0.815617 0.129976 0.074464
0.842713 0.130636 0.075112
0.869783 0.131296 0.075757
0.896828 0.131956 0.076400
0.908899 0.132251 0.076686
0.908899 0.132251 0.076686
0.065911 0.141688 0.058000
0.095727 0.142395 0.058778
0.124957 0.143088 0.059538
0.153849 0.143775 0.060286
0.182502 0.144457 0.061025
0.210970 0.145135 0.061757
0.239289 0.145811 0.062482
0.267482 0.146484 0.063201
0.295566 0.147155 0.063915
0.323556 0.147825 0.064624
0.351460 0.148494 0.065328
0.379288 0.149161 0.066028
0.407046 0.149828 0.066723
0.434741 0.150494 0.067415
0.462378 0.151159 0.068102
0.489960 0.151824 0.068786
0.517492 0.152489 0.069465
0.544976 0.153152 0.070142
0.572417 0.153816 0.070814
0.599815 0.154479 0.071483
0.627174 0.155142 0.072149
0.654495 0.155805 0.072811
0.681781 0.156468 0.073470
0.709033 0.157131 0.074126
0.736253 0.157794 0.074779
0.763443 0.158456 0.075428
0.790602 0.159119 0.076074
0.817734 0.159782 0.076717
0.844838 0.160444 0.077357
0.871916 0.161107 0.077995
0.898970 0.161770 0.078629
0.911044 0.162066 0.078911
0.911044 0.162066 0.078911
0.067813 0.171180 0.060433
0.097637 0.171889 0.061202
0.126877 0.172586 0.061952
0.155777 0.173276 0.062692
0.184438 0.173960 0.063422
0.212916 0.174642 0.064145
0.241243 0.175320 0.064862
0.269444 0.175996 0.065573
0.297537 0.176670 0.066278
0.325535 0.177343 0.066979
0.353447 0.178014 0.067675
0.381283 0.178685 0.068366
0.409050 0.179354 0.069053
0.436754 0.180023 0.069736
0.464399 0.180691 0.070415
0.491989 0.181359 0.071091
0.519529 0.182026 0.071762
0.547022 0.182692 0.072430
0.574470 0.183359 0.073094
0.601877 0.184025 0.073755
0.629244 0.184691 0.074413
0.656574 0.185356 0.075067
0.683868 0.186022 0.075718
0.711128 0.186687 0.076365
0.738356 0.187353 0.077009
0.765554 0.188018 0.077651
0.792722 0.188684 0.078289
0.819861 0.189349 0.078924
0.846974 0.190014 0.079556
0.874060 0.190680 0.080185
0.901121 0.191346 0.080811
0.913199 0.191643 0.081089
0.913199 0.191643 0.081089
0.069730 0.200489 0.062822
0.099563 0.201202 0.063582
0.128811 0.201902 0.064324
0.157720 0.202594 0.065054
0.186390 0.203282 0.065776
0.214876 0.203966 0.066491
0.243212 0.204647 0.067199
0.271422 0.205326 0.067901
0.299523 0.206003 0.068598
0.327529 0.206678 0.069291
0.355450 0.207353 0.069978
0.383294 0.208026 0.070661
0.411069 0.208698 0.071340
0.438781 0.209370 0.072015
0.466434 0.210040 0.072686
0.494033 0.210711 0.073353
0.521581 0.211380 0.074016
0.549082 0.212050 0.074676
0.576539 0.212719 0.075332
0.603953 0.213388 0.075984
0.631329 0.214056 0.076634
0.658667 0.214725 0.077280
0.685969 0.215393 0.077922
0.713237 0.216061 0.078562
0.740474 0.216729 0.079198
0.767679 0.217397 0.079831
0.794855 0.218065 0.080461
0.822003 0.218733 0.081088
0.849123 0.219402 0.081712
0.876218 0.220070 0.082333
0.903287 0.220738 0.082951
0.915369 0.221037 0.083226
0.915369 0.221037 0.083226
0.071664 0.229652 0.065170
0.101507 0.230368 0.065921
0.130763 0.231070 0.066654
0.159681 0.231766 0.067377
0.188359 0.232456 0.068090
0.216854 0.233143 0.068796
0.245198 0.233827 0.069496
0.273416 0.234508 0.070190
0.301525 0.235188 0.070879
0.329540 0.235866 0.071563
0.357469 0.236543 0.072242
0.385322 0.237219 0.072917
0.413105 0.237894 0.073587
0.440825 0.238569 0.074254
0.468486 0.239242 0.074916
0.496093 0.239915 0.075575
0.523650 0.240588 0.076230
0.551159 0.241260 0.076882
0.578624 0.241932 0.077530
0.606047 0.242603 0.078174
0.633430 0.243274 0.078815
0.660776 0.243945 0.079453
0.688086 0.244616 0.080088
0.715363 0.245287 0.080719
0.742607 0.245958 0.081347
0.769821 0.246629 0.081972
0.797005 0.247300 0.082594
0.824160 0.247970 0.083213
0.851289 0.248641 0.083829
0.878392 0.249312 0.084442
0.905469 0.249983 0.085052
0.917554 0.250283 0.085323
0.917554 0.250283 0.085323
0.073617 0.258691 0.067481
0.103468 0.259410 0.068223
0.132734 0.260116 0.068947
0.161660 0.260814 0.069661
0.190347 0.261507 0.070366
0.218849 0.262197 0.071064
0.247202 0.262883 0.071755
0.275429 0.263568 0.072441
0.303546 0.264250 0.073121
0.331569 0.264931 0.073797
0.359506 0.265611 0.074468
0.387367 0.266290 0.075134
0.415159 0.266968 0.075797
0.442887 0.267645 0.076455
0.470557 0.268321 0.077109
0.498172 0.268997 0.077760
0.525736 0.269672 0.078407
0.553254 0.270347 0.079051
0.580726 0.271021 0.079690
0.608157 0.271695 0.080327
0.635549 0.272369 0.080960
0.662903 0.273043 0.081590
0.690221 0.273717 0.082216
0.717506 0.274390 0.082839
0.744758 0.275064 0.083460
0.771980 0.275737 0.084077
0.799172 0.276411 0.084691
0.826336 0.277084 0.085301
0.853472 0.277758 0.085909
0.880583 0.278431 0.086514
0.907668 0.279105 0.087116
0.919757 0.279406 0.087384
0.919757 0.279406 0.087384
0.075589 0.287626 0.069755
0.105450 0.288348 0.070488
0.134723 0.289056 0.071204
0.163658 0.289757 0.071909
0.192354 0.290453 0.072606
0.220865 0.291145 0.073295
0.249226 0.291835 0.073978
0.277460 0.292522 0.074656
0.305586 0.293208 0.075328
0.333617 0.293891 0.075995
0.361563 0.294574 0.076658
0.389432 0.295255 0.077316
0.417232 0.295936 0.077970
0.444968 0.296615 0.078621
0.472646 0.297294 0.079267
0.500269 0.297973 0.079909
0.527842 0.298651 0.080548
0.555367 0.299328 0.081184
0.582848 0.300006 0.081815
0.610287 0.300682 0.082444
0.637687 0.301359 0.083069
0.665049 0.302036 0.083691
0.692375 0.302712 0.084309
0.719668 0.303388 0.084924
0.746928 0.304064 0.085536
0.774158 0.304740 0.086145
0.801358 0.305416 0.086751
0.828530 0.306093 0.087354
0.855674 0.306769 0.087954
0.882793 0.307445 0.088551
0.909886 0.308121 0.089145
0.921978 0.308424 0.089409
0.921978 0.308424 0.089409
0.077582 0.316469 0.071994
0.107451 0.317194 0.072719
0.136733 0.317905 0.073426
0.165676 0.318609 0.074123
0.194380 0.319308 0.074811
0.222900 0.320003 0.075492
0.251269 0.320695 0.076167
0.279512 0.321385 0.076836
0.307646 0.322073 0.077500
0.335685 0.322760 0.078159
0.363639 0.323445 0.078813
0.391517 0.324129 0.079464
0.419325 0.324812 0.080110
0.447069 0.325495 0.080752
0.474755 0.326176 0.081390
0.502386 0.326857 0.082024
0.529967 0.327538 0.082655
0.557500 0.328218 0.083282
0.584989 0.328898 0.083906
0.612436 0.329578 0.084527
0.639844 0.330257 0.085144
0.667214 0.330936 0.085757
0.694548 0.331615 0.086368
0.721849 0.332294 0.086975
0.749117 0.332973 0.087579
0.776355 0.333652 0.088180
0.803563 0.334330 0.088778
0.830743 0.335009 0.089373
0.857895 0.335688 0.089965
0.885022 0.336367 0.090554
0.912123 0.337046 0.091140
0.924219 0.337349 0.091401
0.924219 0.337349 0.091401
0.079595 0.345231 0.074200
0.109473 0.345959 0.074916
0.138764 0.346673 0.075615
0.167715 0.347379 0.076303
0.196428 0.348081 0.076983
0.224955 0.348779 0.077655
0.253333 0.349474 0.078322
0.281584 0.350167 0.078983
0.309727 0.350858 0.079638
0.337774 0.351547 0.080289
0.365736 0.352235 0.080936
0.393621 0.352922 0.081578
0.421438 0.353608 0.082216
0.449190 0.354293 0.082850
0.476884 0.354977 0.083480
0.504523 0.355661 0.084106
0.532112 0.356344 0.084729
0.559654 0.357027 0.085348
0.587150 0.357710 0.085964
0.614606 0.358392 0.086576
0.642021 0.359074 0.087185
0.669399 0.359756 0.087791
0.696742 0.360437 0.088393
0.724050 0.361119 0.088993
0.751327 0.361800 0.089589
0.778572 0.362482 0.090182
0.805788 0.363163 0.090772
0.832976 0.363845 0.091359
0.860136 0.364526 0.091943
0.887270 0.365208 0.092524
0.914380 0.365889 0.093102
0.926479 0.366194 0.093359
0.926479 0.366194 0.093359
0.081629 0.373921 0.076373
0.111515 0.374652 0.077080
0.140815 0.375369 0.077771
0.169775 0.376078 0.078450
0.198496 0.376782 0.079122
0.227031 0.377483 0.079786
0.255417 0.378181 0.080444
0.283677 0.378876 0.081097
0.311828 0.379570 0.081744
0.339883 0.380262 0.082387
0.367853 0.380953 0.083025
0.395747 0.381642 0.083659
0.423571 0.382331 0.084289
0.451332 0.383019 0.084915
0.479033 0.383706 0.085537
0.506681 0.384392 0.086155
0.534278 0.385078 0.086770
0.561827 0.385764 0.087381
0.589332 0.386449 0.087989
0.616795 0.387134 0.088593
0.644219 0.387818 0.089194
0.671605 0.388503 0.089792
0.698955 0.389187 0.090386
0.726272 0.389871 0.090978
0.753556 0.390556 0.091566
0.780809 0.391240 0.092151
0.808033 0.391924 0.092733
0.835229 0.392608 0.093312
0.862397 0.393292 0.093889
0.889539 0.393976 0.094462
0.916657 0.394660 0.095032
0.928759 0.394966 0.095286
0.928759 0.394966 0.095286
0.083684 0.402546 0.078514
0.113579 0.403279 0.079213
0.142887 0.403999 0.079894
0.171856 0.404711 0.080566
0.200585 0.405418 0.081229
0.229129 0.406122 0.081885
0.257523 0.406822 0.082534
0.285791 0.407521 0.083179
0.313950 0.408217 0.083818
0.342013 0.408912 0.084453
0.369991 0.409605 0.085083
0.397893 0.410297 0.085709
0.425725 0.410989 0.086331
0.453494 0.411679 0.086948
0.481204 0.412369 0.087562
0.508860 0.413058 0.088173
0.536464 0.413747 0.088779
0.564022 0.414435 0.089383
0.591535 0.415123 0.089982
0.619006 0.415810 0.090579
0.646437 0.416498 0.091172
0.673831 0.417185 0.091762
0.701190 0.417872 0.092348
0.728514 0.418559 0.092932
0.755806 0.419245 0.093512
0.783068 0.419932 0.094089
0.810299 0.420619 0.094663
0.837503 0.421305 0.095235
0.864679 0.421992 0.095803
0.891829 0.422679 0.096368
0.918954 0.423366 0.096931
0.931060 0.423673 0.097181
0.931060 0.423673 0.097181
0.085761 0.431112 0.080624
0.115664 0.431848 0.081313
0.144981 0.432570 0.081987
0.173958 0.433285 0.082650
0.202695 0.433995 0.083304
0.231248 0.434702 0.083952
0.259650 0.435405 0.084594
0.287926 0.436106 0.085230
0.316093 0.436805 0.085861
0.344164 0.437502 0.086488
0.372151 0.438198 0.087110
0.400061 0.438893 0.087727
0.427901 0.439587 0.088341
0.455678 0.440281 0.088951
0.483396 0.440973 0.089557
0.511059 0.441665 0.090159
0.538672 0.442356 0.090758
0.566238 0.443047 0.091353
0.593758 0.443738 0.091945
0.621237 0.444428 0.092533
0.648677 0.445118 0.093118
0.676079 0.445807 0.093700
0.703445 0.446497 0.094279
0.730777 0.447187 0.094854
0.758078 0.447876 0.095427
0.785347 0.448565 0.095996
0.812586 0.449255 0.096563
0.839798 0.449944 0.097126
0.866982 0.450633 0.097686
0.894140 0.451323 0.098244
0.921272 0.452012 0.098798
0.933382 0.452320 0.099045
0.933382 0.452320 0.099045
0.087859 0.459623 0.082702
0.117771 0.460362 0.083383
0.147096 0.461088 0.084048
0.176081 0.461806 0.084703
0.204827 0.462518 0.085349
0.233388 0.463227 0.085989
0.261798 0.463933 0.086622
0.290082 0.464637 0.087250
0.318258 0.465339 0.087873
0.346337 0.466039 0.088492
0.374332 0.466738 0.089105
0.402250 0.467435 0.089715
0.430098 0.468132 0.090321
0.457883 0.468828 0.090923
0.485609 0.469523 0.091521
0.513280 0.470217 0.092115
0.540901 0.470911 0.092706
0.568475 0.471605 0.093293
0.596003 0.472298 0.093877
0.623490 0.472991 0.094457
0.650938 0.473683 0.095034
0.678348 0.474376 0.095608
0.705722 0.475068 0.096179
0.733062 0.475760 0.096747
0.760370 0.476452 0.097311
0.787647 0.477144 0.097873
0.814894 0.477836 0.098431
0.842114 0.478528 0.098987
0.869305 0.479220 0.099539
0.896471 0.479912 0.100089
0.923612 0.480604 0.100636
0.935725 0.480913 0.100879
0.935725 0.480913 0.100879
0.089979 0.488085 0.084751
0.119900 0.488827 0.085423
0.149233 0.489555 0.086080
0.178227 0.490276 0.086726
0.206981 0.490991 0.087364
0.235550 0.491703 0.087995
0.263968 0.492412 0.088620
0.292261 0.493118 0.089240
0.320444 0.493823 0.089855
0.348532 0.494525 0.090465
0.376534 0.495227 0.091071
0.404460 0.495927 0.091673
0.432317 0.496627 0.092270
0.460110 0.497325 0.092864
0.487843 0.498023 0.093454
0.515523 0.498720 0.094041
0.543152 0.499417 0.094623
0.570733 0.500113 0.095203
0.598270 0.500809 0.095779
0.625765 0.501504 0.096351
0.653220 0.502199 0.096920
0.680638 0.502894 0.097486
0.708020 0.503589 0.098049
0.735368 0.504284 0.098609
0.762684 0.504979 0.099166
0.789969 0.505673 0.099719
0.817224 0.506368 0.100270
0.844451 0.507062 0.100818
0.871651 0.507757 0.101362
0.898824 0.508451 0.101904
0.925973 0.509146 0.102443
0.938089 0.509456 0.102683
0.938089 0.509456 0.102683
0.092121 0.516501 0.086769
0.122050 0.517246 0.087433
0.151392 0.517977 0.088081
0.180394 0.518700 0.088719
0.209156 0.519418 0.089348
0.237733 0.520133 0.089971
0.266160 0.520844 0.090589
0.294461 0.521553 0.091200
0.322652 0.522261 0.091807
0.350748 0.522966 0.092409
0.378759 0.523670 0.093007
0.406693 0.524373 0.093601
0.434557 0.525075 0.094190
0.462358 0.525777 0.094776
0.490100 0.526477 0.095358
0.517787 0.527177 0.095937
0.545424 0.527876 0.096511
0.573013 0.528575 0.097083
0.600558 0.529273 0.097651
0.628061 0.529971 0.098215
0.655524 0.530669 0.098777
0.682949 0.531367 0.099335
0.710339 0.532064 0.099890
0.737695 0.532762 0.100442
0.765019 0.533459 0.100991
0.792312 0.534156 0.101537
0.819575 0.534853 0.102079
0.846810 0.535551 0.102619
0.874017 0.536248 0.103156
0.901199 0.536945 0.103690
0.928355 0.537642 0.104221
0.940475 0.537954 0.104458
0.940475 0.537954 0.104458
0.094284 0.544874 0.088758
0.124223 0.545622 0.089413
0.153573 0.546356 0.090053
0.182583 0.547082 0.090682
0.211354 0.547803 0.091304
0.239939 0.548520 0.091919
0.268374 0.549234 0.092528
0.296683 0.549946 0.093131
0.324882 0.550656 0.093730
0.352986 0.551364 0.094324
0.381005 0.552071 0.094914
0.408947 0.552777 0.095499
0.436819 0.553481 0.096081
0.464628 0.554185 0.096659
0.492378 0.554888 0.097233
0.520073 0.555591 0.097803
0.547718 0.556293 0.098370
0.575315 0.556994 0.098934
0.602868 0.557695 0.099494
0.630378 0.558396 0.100050
0.657849 0.559097 0.100604
0.685283 0.559797 0.101154
0.712681 0.560497 0.101702
0.740045 0.561197 0.102246
0.767376 0.561897 0.102787
0.794677 0.562597 0.103325
0.821948 0.563296 0.103860
0.849190 0.563996 0.104392
0.876405 0.564696 0.104921
0.903595 0.565396 0.105447
0.930759 0.566096 0.105970
0.942882 0.566408 0.106203
0.942882 0.566408 0.106203
0.096471 0.573208 0.090718
0.126417 0.573958 0.091364
0.155776 0.574695 0.091996
0.184795 0.575424 0.092617
0.213573 0.576148 0.093230
0.242167 0.576868 0.093837
0.270610 0.577585 0.094437
0.298927 0.578299 0.095033
0.327134 0.579012 0.095623
0.355246 0.579723 0.096210
0.383273 0.580432 0.096791
0.411223 0.581141 0.097369
0.439104 0.581848 0.097943
0.466920 0.582554 0.098512
0.494678 0.583260 0.099078
0.522381 0.583965 0.099641
0.550034 0.584670 0.100200
0.577639 0.585374 0.100756
0.605200 0.586078 0.101308
0.632718 0.586781 0.101857
0.660197 0.587484 0.102402
0.687638 0.588187 0.102945
0.715044 0.588890 0.103484
0.742416 0.589592 0.104020
0.769755 0.590295 0.104554
0.797063 0.590997 0.105084
0.824342 0.591699 0.105611
0.851592 0.592402 0.106135
0.878815 0.593104 0.106656
0.906012 0.593807 0.107175
0.933184 0.594509 0.107690
0.945311 0.594823 0.107920
0.945311 0.594823 0.107920
0.098679 0.601505 0.092649
0.128634 0.602258 0.093287
0.158001 0.602997 0.093909
0.187028 0.603729 0.094522
0.215815 0.604456 0.095127
0.244417 0.605178 0.095726
0.272868 0.605898 0.096318
0.301193 0.606615 0.096906
0.329409 0.607330 0.097488
0.357529 0.608044 0.098066
0.385563 0.608756 0.098640
0.413522 0.609467 0.099210
0.441410 0.610177 0.099775
0.469234 0.610886 0.100337
0.497000 0.611595 0.100895
0.524711 0.612302 0.101450
0.552372 0.613010 0.102001
0.579985 0.613716 0.102549
0.607553 0.614423 0.103093
0.635080 0.615129 0.103634
0.662566 0.615834 0.104172
0.690016 0.616540 0.104707
0.717429 0.617245 0.105238
0.744808 0.617950 0.105767
0.772156 0.618656 0.106292
0.799472 0.619360 0.106814
0.826758 0.620065 0.107334
0.854016 0.620770 0.107850
0.881247 0.621475 0.108364
0.908452 0.622180 0.108874
0.935632 0.622885 0.109382
0.947762 0.623200 0.109608
0.947762 0.623200 0.109608
0.100909 0.629767 0.094551
0.130873 0.630523 0.095180
0.160249 0.631265 0.095795
0.189284 0.632000 0.096399
0.218079 0.632729 0.096996
0.246689 0.633454 0.097586
0.275149 0.634177 0.098171
0.303481 0.634897 0.098750
0.331705 0.635614 0.099325
0.359833 0.636331 0.099895
0.387876 0.637046 0.100460
0.415842 0.637759 0.101022
0.443738 0.638472 0.101580
0.471571 0.639184 0.102134
0.499344 0.639895 0.102684
0.527064 0.640605 0.103231
0.554732 0.641315 0.103774
0.582353 0.642024 0.104314
0.609929 0.642733 0.104850
0.637463 0.643442 0.105383
0.664958 0.644150 0.105913
0.692415 0.644858 0.106440
0.719836 0.645566 0.106964
0.747223 0.646274 0.107484
0.774578 0.646982 0.108002
0.801902 0.647689 0.108517
0.829196 0.648397 0.109028
0.856462 0.649104 0.109537
0.883701 0.649812 0.110043
0.910914 0.650519 0.110546
0.938101 0.651227 0.111046
0.950235 0.651543 0.111268
0.950235 0.651543 0.111268
0.103162 0.657996 0.096425
0.133135 0.658755 0.097046
0.162518 0.659500 0.097652
0.191562 0.660238 0.098248
0.220365 0.660970 0.098837
0.248983 0.661698 0.099419
0.277451 0.662423 0.099995
0.305792 0.663145 0.100566
0.334024 0.663866 0.101133
0.362160 0.664585 0.101695
0.390211 0.665302 0.102253
0.418185 0.666019 0.102806
0.446089 0.666734 0.103356
0.473929 0.667448 0.103902
0.501711 0.668162 0.104444
0.529438 0.668875 0.104983
0.557114 0.669587 0.105518
0.584743 0.670299 0.106050
0.612327 0.671011 0.106579
0.639869 0.671722 0.107104
0.667371 0.672433 0.107627
0.694836 0.673144 0.108146
0.722265 0.673854 0.108661
0.749660 0.674565 0.109174
0.777023 0.675275 0.109684
0.804355 0.675985 0.110191
0.831657 0.676695 0.110695
0.858930 0.677405 0.111196
0.886177 0.678116 0.111694
0.913397 0.678826 0.112189
0.940592 0.679536 0.112681
0.952730 0.679853 0.112900
0.952730 0.679853 0.112900
0.105437 0.686195 0.098271
0.135418 0.686957 0.098883
0.164811 0.687705 0.099481
0.193862 0.688445 0.100069
0.222674 0.689179 0.100649
0.251300 0.689910 0.101223
0.279776 0.690638 0.101791
0.308125 0.691363 0.102355
0.336365 0.692087 0.102913
0.364509 0.692808 0.103467
0.392567 0.693528 0.104017
0.420549 0.694247 0.104562
0.448462 0.694965 0.105104
0.476310 0.695682 0.105642
0.504099 0.696399 0.106177
0.531834 0.697114 0.106708
0.559518 0.697829 0.107235
0.587155 0.698544 0.107759
0.614747 0.699258 0.108280
0.642297 0.699972 0.108798
0.669807 0.700686 0.109312
0.697280 0.701399 0.109823
0.724716 0.702112 0.110331
0.752119 0.702825 0.110836
0.779490 0.703538 0.111338
0.806829 0.704250 0.111837
0.834139 0.704963 0.112333
0.861421 0.705676 0.112827
0.888675 0.706389 0.113317
0.915903 0.707101 0.113804
0.943105 0.707814 0.114289
0.955246 0.708133 0.114505
0.955246 0.708133 0.114505
0.107735 0.714365 0.100089
0.137724 0.715130 0.100692
0.167125 0.715880 0.101282
0.196185 0.716623 0.101861
0.225005 0.717361 0.102434
0.253639 0.718094 0.103000
0.282123 0.718824 0.103560
0.310480 0.719552 0.104115
0.338728 0.720278 0.104665
0.366880 0.721003 0.105211
0.394947 0.721726 0.105753
0.422937 0.722447 0.106291
0.450857 0.723168 0.106825
0.478713 0.723887 0.107355
0.506510 0.724606 0.107882
0.534253 0.725325 0.108405
0.561945 0.726042 0.108924
0.589589 0.726760 0.109440
0.617189 0.727476 0.109953
0.644747 0.728193 0.110463
0.672265 0.728909 0.110970
0.699745 0.729625 0.111473
0.727190 0.730341 0.111973
0.754601 0.731056 0.112471
0.781979 0.731771 0.112965
0.809326 0.732487 0.113456
0.836644 0.733202 0.113945
0.863933 0.733917 0.114430
0.891195 0.734633 0.114913
0.918430 0.735348 0.115392
0.945641 0.736063 0.115869
0.957785 0.736383 0.116081
0.957785 0.736383 0.116081
0.110055 0.742508 0.101879
0.140053 0.743275 0.102474
0.169462 0.744029 0.103055
0.198530 0.744774 0.103627
0.227358 0.745514 0.104191
0.256001 0.746251 0.104748
0.284493 0.746984 0.105301
0.312858 0.747714 0.105848
0.341113 0.748443 0.106390
0.369273 0.749170 0.106928
0.397348 0.749895 0.107462
0.425346 0.750620 0.107992
0.453274 0.751343 0.108518
0.481138 0.752065 0.109040
0.508943 0.752787 0.109559
0.536694 0.753508 0.110074
0.564394 0.754228 0.110586
0.592046 0.754948 0.111094
0.619654 0.755667 0.111599
0.647219 0.756386 0.112101
0.674745 0.757105 0.112600
0.702233 0.757823 0.113096
0.729686 0.758542 0.113588
0.757104 0.759260 0.114078
0.784490 0.759978 0.114564
0.811845 0.760696 0.115048
0.839170 0.761414 0.115528
0.866467 0.762132 0.116006
0.893737 0.762849 0.116481
0.920980 0.763567 0.116953
0.948198 0.764285 0.117422
0.960346 0.764606 0.117631
0.960346 0.764606 0.117631
0.112398 0.770624 0.103642
0.142404 0.771395 0.104229
0.171821 0.772151 0.104801
0.200898 0.772899 0.105364
0.229734 0.773642 0.105920
0.258385 0.774381 0.106470
0.286884 0.775117 0.107014
0.315258 0.775850 0.107553
0.343521 0.776582 0.108088
0.371689 0.777311 0.108618
0.399772 0.778039 0.109143
0.427778 0.778766 0.109665
0.455714 0.779492 0.110183
0.483586 0.780217 0.110698
0.511399 0.780941 0.111209
0.539157 0.781665 0.111716
0.566865 0.782388 0.112220
0.594525 0.783110 0.112720
0.622140 0.783832 0.113218
0.649714 0.784554 0.113712
0.677247 0.785275 0.114203
0.704743 0.785996 0.114691
0.732204 0.786717 0.115175
0.759630 0.787438 0.115657
0.787023 0.788158 0.116136
0.814386 0.788879 0.116612
0.841719 0.789599 0.117085
0.869024 0.790320 0.117555
0.896301 0.791040 0.118022
0.923552 0.791761 0.118486
0.950778 0.792481 0.118948
0.962929 0.792803 0.119153
0.962929 0.792803 0.119153
0.114763 0.798717 0.105377
0.144778 0.799490 0.105956
0.174203 0.800249 0.106520
0.203288 0.801000 0.107075
0.232132 0.801746 0.107623
0.260791 0.802487 0.108164
0.289299 0.803226 0.108700
0.317680 0.803962 0.109231
0.345952 0.804696 0.109758
0.374128 0.805428 0.110280
0.402218 0.806159 0.110798
0.430232 0.806888 0.111312
0.458176 0.807617 0.111822
0.486056 0.808344 0.112328
0.513877 0.809071 0.112831
0.541643 0.809797 0.113331
0.569359 0.810523 0.113827
0.597026 0.811248 0.114320
0.624650 0.811973 0.114809
0.652231 0.812697 0.115296
0.679772 0.813421 0.115779
0.707276 0.814144 0.116259
0.734744 0.814868 0.116736
0.762178 0.815591 0.117210
0.789579 0.816314 0.117681
