LUTs/02_Portra_Warm.cube
TITLE "Portra Warm"
# Nikon D5500 + Sigma 17-50 - subtle creative look (apply ~20-40%)
LUT_3D_SIZE 33
DOMAIN_MIN 0.0 0.0 0.0
DOMAIN_MAX 1.0 1.0 1.0
0.070853 0.051747 0.031098
0.103536 0.052132 0.031736
0.135506 0.052511 0.032357
0.167034 0.052886 0.032964
0.198242 0.053260 0.033561
0.229199 0.053632 0.034150
0.259950 0.054004 0.034730
0.290528 0.054376 0.035303
0.320955 0.054747 0.035870
0.351251 0.055119 0.036430
0.381428 0.055491 0.036984
0.411500 0.055864 0.037532
0.441475 0.056237 0.038075
0.471362 0.056611 0.038613
0.501168 0.056986 0.039145
0.530898 0.057362 0.039672
0.560557 0.057738 0.040194
0.590151 0.058115 0.040712
0.619684 0.058493 0.041225
0.649158 0.058873 0.041733
0.678578 0.059253 0.042236
0.707946 0.059634 0.042735
0.737264 0.060016 0.043230
0.766536 0.060400 0.043720
0.795763 0.060784 0.044206
0.824948 0.061170 0.044688
0.854091 0.061557 0.045165
0.883196 0.061945 0.045639
0.912264 0.062334 0.046108
0.941295 0.062724 0.046573
0.941566 0.062728 0.046577
0.941566 0.062728 0.046577
0.941566 0.062728 0.046577
0.071692 0.083629 0.033113
0.104393 0.084020 0.033738
0.136381 0.084406 0.034344
0.167926 0.084788 0.034938
0.199150 0.085168 0.035522
0.230123 0.085547 0.036097
0.260891 0.085926 0.036664
0.291485 0.086304 0.037224
0.321929 0.086682 0.037778
0.352240 0.087060 0.038325
0.382434 0.087439 0.038866
0.412522 0.087818 0.039402
0.442513 0.088198 0.039932
0.472416 0.088578 0.040457
0.502237 0.088959 0.040976
0.531983 0.089341 0.041491
0.561659 0.089724 0.042000
0.591269 0.090107 0.042505
0.620817 0.090492 0.043005
0.650307 0.090877 0.043501
0.679742 0.091264 0.043992
0.709126 0.091651 0.044478
0.738460 0.092040 0.044961
0.767747 0.092429 0.045438
0.796990 0.092820 0.045912
0.826190 0.093212 0.046381
0.855349 0.093605 0.046846
0.884469 0.093999 0.047307
0.913552 0.094394 0.047764
0.942599 0.094791 0.048217
0.942871 0.094795 0.048221
0.942871 0.094795 0.048221
0.942871 0.094795 0.048221
0.072564 0.114706 0.035033
0.105282 0.115104 0.035644
0.137286 0.115497 0.036237
0.168847 0.115885 0.036818
0.200088 0.116272 0.037389
0.231077 0.116657 0.037951
0.261861 0.117042 0.038506
0.292471 0.117427 0.039053
0.322930 0.117811 0.039594
0.353258 0.118196 0.040128
0.383467 0.118581 0.040657
0.413571 0.118966 0.041180
0.443577 0.119352 0.041698
0.473496 0.119738 0.042210
0.503333 0.120126 0.042717
0.533094 0.120514 0.043219
0.562785 0.120903 0.043717
0.592410 0.121292 0.044209
0.621974 0.121683 0.044697
0.651479 0.122075 0.045181
0.680930 0.122467 0.045659
0.710328 0.122861 0.046134
0.739678 0.123255 0.046604
0.768980 0.123651 0.047069
0.798238 0.124048 0.047531
0.827453 0.124446 0.047988
0.856628 0.124845 0.048441
0.885763 0.125245 0.048890
0.914861 0.125646 0.049334
0.943923 0.126049 0.049775
0.944195 0.126053 0.049779
0.944195 0.126053 0.049779
0.944195 0.126053 0.049779
0.073474 0.145324 0.036883
0.106208 0.145730 0.037480
0.138229 0.146128 0.038060
0.169806 0.146523 0.038628
0.201063 0.146916 0.039186
0.232068 0.147308 0.039736
0.262867 0.147699 0.040278
0.293493 0.148090 0.040812
0.323968 0.148481 0.041341
0.354311 0.148872 0.041863
0.384536 0.149263 0.042379
0.414655 0.149654 0.042890
0.444677 0.150046 0.043395
0.474611 0.150439 0.043895
0.504463 0.150832 0.044390
0.534239 0.151226 0.044880
0.563945 0.151621 0.045366
0.593586 0.152017 0.045846
0.623164 0.152414 0.046322
0.652685 0.152811 0.046793
0.682150 0.153210 0.047260
0.711564 0.153610 0.047722
0.740928 0.154010 0.048180
0.770246 0.154412 0.048634
0.799519 0.154815 0.049083
0.828749 0.155219 0.049528
0.857938 0.155624 0.049969
0.887088 0.156030 0.050406
0.916201 0.156437 0.050839
0.945278 0.156845 0.051268
0.945550 0.156849 0.051272
0.945550 0.156849 0.051272
0.945550 0.156849 0.051272
0.074423 0.175624 0.038671
0.107174 0.176036 0.039256
0.139211 0.176441 0.039823
0.170805 0.176842 0.040378
0.202077 0.177242 0.040923
0.233098 0.177640 0.041460
0.263913 0.178037 0.041990
0.294554 0.178434 0.042512
0.325045 0.178831 0.043028
0.355403 0.179228 0.043538
0.385643 0.179625 0.044042
0.415777 0.180023 0.044541
0.445814 0.180421 0.045034
0.475763 0.180820 0.045522
0.505630 0.181219 0.046005
0.535422 0.181619 0.046483
0.565143 0.182020 0.046956
0.594798 0.182422 0.047424
0.624392 0.182824 0.047888
0.653927 0.183228 0.048348
0.683408 0.183633 0.048802
0.712836 0.184038 0.049253
0.742216 0.184445 0.049699
0.771548 0.184852 0.050141
0.800835 0.185261 0.050578
0.830080 0.185671 0.051012
0.859284 0.186082 0.051441
0.888449 0.186494 0.051866
0.917577 0.186907 0.052287
0.946668 0.187321 0.052705
0.946940 0.187325 0.052708
0.946940 0.187325 0.052708
0.946940 0.187325 0.052708
0.075414 0.205681 0.040405
0.108182 0.206099 0.040976
0.140235 0.206511 0.041531
0.171844 0.206919 0.042073
0.203132 0.207324 0.042606
0.234168 0.207729 0.043130
0.264999 0.208132 0.043647
0.295655 0.208535 0.044158
0.326161 0.208938 0.044661
0.356535 0.209341 0.045159
0.386790 0.209744 0.045651
0.416939 0.210148 0.046138
0.446992 0.210552 0.046619
0.476955 0.210957 0.047095
0.506837 0.211362 0.047566
0.536644 0.211768 0.048032
0.566380 0.212175 0.048493
0.596050 0.212583 0.048950
0.625658 0.212992 0.049402
0.655209 0.213401 0.049849
0.684704 0.213812 0.050292
0.714147 0.214223 0.050731
0.743541 0.214636 0.051165
0.772888 0.215049 0.051595
0.802190 0.215464 0.052021
0.831450 0.215879 0.052443
0.860668 0.216296 0.052861
0.889848 0.216714 0.053274
0.918990 0.217133 0.053684
0.948096 0.217553 0.054089
0.948368 0.217557 0.054093
0.948368 0.217557 0.054093
0.948368 0.217557 0.054093
0.076447 0.235544 0.042088
0.109231 0.235969 0.042646
0.141300 0.236387 0.043187
0.172925 0.236801 0.043717
0.204228 0.237213 0.044238
0.235280 0.237623 0.044750
0.266126 0.238033 0.045255
0.296797 0.238442 0.045752
0.327319 0.238851 0.046244
0.357707 0.239260 0.046730
0.387978 0.239669 0.047210
0.418142 0.240079 0.047684
0.448209 0.240489 0.048153
0.478187 0.240900 0.048617
0.508084 0.241311 0.049077
0.537906 0.241723 0.049531
0.567657 0.242136 0.049980
0.597341 0.242550 0.050425
0.626964 0.242964 0.050865
0.656529 0.243379 0.051301
0.686039 0.243796 0.051732
0.715497 0.244213 0.052159
0.744905 0.244631 0.052582
0.774267 0.245051 0.053001
0.803584 0.245471 0.053415
0.832858 0.245892 0.053825
0.862091 0.246315 0.054231
0.891285 0.246738 0.054633
0.920441 0.247163 0.055031
0.949562 0.247589 0.055425
0.949834 0.247593 0.055428
0.949834 0.247593 0.055428
0.949834 0.247593 0.055428
0.077521 0.265246 0.043722
0.110321 0.265677 0.044267
0.142406 0.266102 0.044796
0.174047 0.266522 0.045313
0.205365 0.266940 0.045821
0.236433 0.267357 0.046321
0.267294 0.267772 0.046814
0.297981 0.268188 0.047299
0.328517 0.268603 0.047779
0.358920 0.269018 0.048253
0.389206 0.269433 0.048721
0.419385 0.269849 0.049183
0.449467 0.270265 0.049641
0.479460 0.270681 0.050093
0.509372 0.271098 0.050540
0.539208 0.271516 0.050982
0.568973 0.271935 0.051420
0.598673 0.272355 0.051853
0.628311 0.272775 0.052282
0.657890 0.273196 0.052706
0.687414 0.273618 0.053126
0.716887 0.274041 0.053541
0.746310 0.274465 0.053952
0.775686 0.274890 0.054359
0.805017 0.275317 0.054762
0.834305 0.275744 0.055160
0.863553 0.276172 0.055555
0.892761 0.276601 0.055945
0.921932 0.277032 0.056332
0.951067 0.277463 0.056714
0.951339 0.277468 0.056718
0.951339 0.277468 0.056718
0.951339 0.277468 0.056718
0.078637 0.294811 0.045309
0.111453 0.295249 0.045842
0.143554 0.295680 0.046358
0.175210 0.296106 0.046863
0.206544 0.296531 0.047358
0.237627 0.296953 0.047846
0.268503 0.297375 0.048326
0.299205 0.297796 0.048800
0.329756 0.298217 0.049268
0.360175 0.298639 0.049730
0.390475 0.299060 0.050186
0.420669 0.299481 0.050636
0.450766 0.299903 0.051082
0.480774 0.300326 0.051522
0.510700 0.300749 0.051958
0.540551 0.301173 0.052389
0.570331 0.301597 0.052815
0.600045 0.302022 0.053236
0.629697 0.302449 0.053653
0.659291 0.302876 0.054066
0.688830 0.303303 0.054474
0.718317 0.303732 0.054878
0.747754 0.304162 0.055277
0.777144 0.304593 0.055672
0.806490 0.305025 0.056064
0.835793 0.305458 0.056451
0.865055 0.305892 0.056834
0.894277 0.306327 0.057213
0.923462 0.306763 0.057588
0.952612 0.307200 0.057959
0.952884 0.307204 0.057962
0.952884 0.307204 0.057962
0.952884 0.307204 0.057962
0.079795 0.324259 0.046852
0.112627 0.324703 0.047371
0.144743 0.325140 0.047875
0.176415 0.325573 0.048367
0.207765 0.326003 0.048851
0.238863 0.326432 0.049326
0.269754 0.326860 0.049795
0.300471 0.327287 0.050257
0.331037 0.327714 0.050712
0.361470 0.328141 0.051162
0.391785 0.328568 0.051606
0.421994 0.328996 0.052045
0.452105 0.329423 0.052479
0.482128 0.329852 0.052908
0.512069 0.330281 0.053331
0.541934 0.330710 0.053751
0.571729 0.331141 0.054165
0.601458 0.331572 0.054575
0.631124 0.332004 0.054980
0.660733 0.332436 0.055381
0.690286 0.332870 0.055778
0.719787 0.333305 0.056170
0.749239 0.333740 0.056558
0.778643 0.334177 0.056942
0.808003 0.334615 0.057322
0.837320 0.335053 0.057698
0.866596 0.335493 0.058069
0.895833 0.335934 0.058437
0.925033 0.336376 0.058800
0.954196 0.336818 0.059160
0.954468 0.336823 0.059163
0.954468 0.336823 0.059163
0.954468 0.336823 0.059163
0.080995 0.353602 0.048351
0.113843 0.354053 0.048857
0.145975 0.354496 0.049349
0.177662 0.354935 0.049829
0.209027 0.355372 0.050300
0.240140 0.355807 0.050763
0.271046 0.356241 0.051220
0.301778 0.356674 0.051669
0.332359 0.357107 0.052113
0.362807 0.357540 0.052551
0.393137 0.357973 0.052984
0.423360 0.358406 0.053411
0.453486 0.358840 0.053833
0.483524 0.359274 0.054250
0.513479 0.359709 0.054662
0.543359 0.360144 0.055070
0.573168 0.360580 0.055472
0.602911 0.361017 0.055871
0.632592 0.361455 0.056265
0.662215 0.361893 0.056654
0.691782 0.362333 0.057039
0.721298 0.362773 0.057420
0.750764 0.363214 0.057797
0.780183 0.363657 0.058169
0.809557 0.364100 0.058538
0.838888 0.364544 0.058902
0.868179 0.364990 0.059262
0.897430 0.365436 0.059618
0.926643 0.365884 0.059971
0.955821 0.366332 0.060319
0.956093 0.366337 0.060322
0.956093 0.366337 0.060322
0.956093 0.366337 0.060322
0.082236 0.382855 0.049807
0.115100 0.383312 0.050301
0.147248 0.383761 0.050780
0.178950 0.384206 0.051247
0.210330 0.384649 0.051707
0.241458 0.385090 0.052158
0.272380 0.385530 0.052602
0.303126 0.385969 0.053040
0.333722 0.386408 0.053472
0.364185 0.386846 0.053898
0.394529 0.387285 0.054319
0.424767 0.387725 0.054734
0.454908 0.388164 0.055145
0.484960 0.388604 0.055550
0.514930 0.389045 0.055951
0.544824 0.389486 0.056347
0.574648 0.389928 0.056738
0.604405 0.390370 0.057125
0.634101 0.390814 0.057507
0.663738 0.391258 0.057885
0.693320 0.391703 0.058259
0.722849 0.392149 0.058628
0.752330 0.392596 0.058994
0.781763 0.393044 0.059355
0.811151 0.393493 0.059712
0.840497 0.393943 0.060065
0.869801 0.394394 0.060414
0.899066 0.394846 0.060759
0.928294 0.395299 0.061100
0.957485 0.395754 0.061437
0.957758 0.395758 0.061440
0.957758 0.395758 0.061440
0.957758 0.395758 0.061440
0.083519 0.412025 0.051222
0.116399 0.412488 0.051703
0.148562 0.412944 0.052169
0.180280 0.413395 0.052625
0.211675 0.413844 0.053072
0.242818 0.414291 0.053511
0.273755 0.414736 0.053943
0.304516 0.415181 0.054369
0.335127 0.415626 0.054789
0.365604 0.416071 0.055204
0.395963 0.416516 0.055613
0.426216 0.416961 0.056017
0.456371 0.417406 0.056415
0.486437 0.417852 0.056809
0.516422 0.418298 0.057198
0.546331 0.418745 0.057583
0.576168 0.419193 0.057963
0.605940 0.419641 0.058338
0.635650 0.420090 0.058709
0.665301 0.420540 0.059075
0.694897 0.420991 0.059438
0.724441 0.421443 0.059796
0.753936 0.421896 0.060150
0.783383 0.422349 0.060499
0.812786 0.422804 0.060845
0.842145 0.423259 0.061187
0.871464 0.423716 0.061524
0.900743 0.424174 0.061858
0.929985 0.424633 0.062188
0.959190 0.425093 0.062514
0.959463 0.425097 0.062517
0.959463 0.425097 0.062517
0.959463 0.425097 0.062517
0.084844 0.441121 0.052595
0.117740 0.441591 0.053064
0.149918 0.442052 0.053517
0.181651 0.442510 0.053961
0.213062 0.442964 0.054396
0.244220 0.443417 0.054823
0.275171 0.443869 0.055244
0.305947 0.444320 0.055658
0.336572 0.444771 0.056066
0.367065 0.445221 0.056469
0.397438 0.445672 0.056866
0.427705 0.446123 0.057258
0.457875 0.446574 0.057645
0.487956 0.447025 0.058028
0.517955 0.447477 0.058405
0.547878 0.447930 0.058778
0.577730 0.448383 0.059147
0.607516 0.448838 0.059510
0.637240 0.449292 0.059870
0.666906 0.449748 0.060225
0.696516 0.450205 0.060576
0.726074 0.450662 0.060923
0.755583 0.451120 0.061265
0.785044 0.451580 0.061604
0.814461 0.452040 0.061938
0.843834 0.452501 0.062269
0.873167 0.452964 0.062595
0.902460 0.453427 0.062918
0.931716 0.453891 0.063236
0.960935 0.454357 0.063551
0.961208 0.454361 0.063554
0.961208 0.454361 0.063554
0.961208 0.454361 0.063554
0.086210 0.470149 0.053928
0.119122 0.470626 0.054384
0.151316 0.471094 0.054826
0.183064 0.471557 0.055257
0.214489 0.472018 0.055680
0.245662 0.472477 0.056095
0.276628 0.472934 0.056504
0.307419 0.473391 0.056906
0.338059 0.473848 0.057303
0.368566 0.474304 0.057694
0.398954 0.474761 0.058080
0.429236 0.475217 0.058460
0.459420 0.475674 0.058836
0.489515 0.476131 0.059206
0.519528 0.476589 0.059573
0.549466 0.477048 0.059934
0.579332 0.477507 0.060291
0.609132 0.477967 0.060643
0.638871 0.478427 0.060992
0.668550 0.478888 0.061335
0.698175 0.479351 0.061675
0.727747 0.479814 0.062010
0.757270 0.480278 0.062342
0.786745 0.480743 0.062669
0.816176 0.481209 0.062992
0.845564 0.481675 0.063311
0.874910 0.482143 0.063627
0.904218 0.482612 0.063938
0.933487 0.483082 0.064245
0.962721 0.483553 0.064549
0.962994 0.483558 0.064552
0.962994 0.483558 0.064552
0.962994 0.483558 0.064552
0.087618 0.499117 0.055222
0.120545 0.499600 0.055665
0.152754 0.500074 0.056094
0.184518 0.500543 0.056513
0.215958 0.501010 0.056924
0.247146 0.501475 0.057328
0.278127 0.501938 0.057724
0.308933 0.502401 0.058115
0.339587 0.502864 0.058500
0.370108 0.503326 0.058879
0.400511 0.503788 0.059253
0.430807 0.504250 0.059623
0.461006 0.504713 0.059987
0.491115 0.505176 0.060346
0.521143 0.505640 0.060700
0.551094 0.506104 0.061051
0.580975 0.506569 0.061396
0.610790 0.507034 0.061737
0.640542 0.507500 0.062074
0.670236 0.507967 0.062407
0.699875 0.508435 0.062735
0.729461 0.508904 0.063059
0.758998 0.509373 0.063379
0.788487 0.509844 0.063695
0.817932 0.510316 0.064007
0.847334 0.510788 0.064315
0.876694 0.511261 0.064619
0.906016 0.511736 0.064919
0.935299 0.512212 0.065215
0.964546 0.512688 0.065508
0.964820 0.512693 0.065510
0.964820 0.512693 0.065510
0.964820 0.512693 0.065510
0.089067 0.528029 0.056476
0.122010 0.528518 0.056907
0.154234 0.528998 0.057324
0.186013 0.529473 0.057731
0.217468 0.529946 0.058130
0.248671 0.530417 0.058521
0.279666 0.530886 0.058906
0.310487 0.531355 0.059285
0.341156 0.531823 0.059658
0.371692 0.532291 0.060026
0.402109 0.532759 0.060389
0.432419 0.533227 0.060746
0.462632 0.533696 0.061099
0.492756 0.534165 0.061446
0.522798 0.534634 0.061790
0.552764 0.535104 0.062128
0.582659 0.535574 0.062462
0.612488 0.536045 0.062792
0.642254 0.536517 0.063118
0.671962 0.536990 0.063439
0.701615 0.537463 0.063756
0.731215 0.537938 0.064069
0.760766 0.538413 0.064378
0.790270 0.538889 0.064683
0.819728 0.539366 0.064983
0.849144 0.539844 0.065280
0.878518 0.540323 0.065573
0.907854 0.540803 0.065862
0.937151 0.541284 0.066147
0.966412 0.541767 0.066428
0.966686 0.541771 0.066431
0.966686 0.541771 0.066431
0.966686 0.541771 0.066431
0.090557 0.556889 0.057692
0.123515 0.557384 0.058110
0.155755 0.557870 0.058514
0.187549 0.558352 0.058909
0.219019 0.558830 0.059296
0.250237 0.559307 0.059676
0.281247 0.559782 0.060049
0.312082 0.560257 0.060416
0.342766 0.560731 0.060778
0.373316 0.561205 0.061134
0.403748 0.561679 0.061485
0.434072 0.562153 0.061831
0.464300 0.562627 0.062172
0.494438 0.563101 0.062509
0.524494 0.563576 0.062840
0.554474 0.564052 0.063168
0.584383 0.564528 0.063491
0.614226 0.565005 0.063809
0.644007 0.565482 0.064123
0.673729 0.565960 0.064433
0.703395 0.566439 0.064739
0.733010 0.566919 0.065041
0.762575 0.567400 0.065338
0.792092 0.567882 0.065632
0.821565 0.568365 0.065922
0.850994 0.568848 0.066207
0.880383 0.569333 0.066489
0.909732 0.569819 0.066767
0.939043 0.570305 0.067041
0.968318 0.570793 0.067311
0.968592 0.570798 0.067314
0.968592 0.570798 0.067314
0.968592 0.570798 0.067314
0.092088 0.585701 0.058869
0.125062 0.586202 0.059274
0.157317 0.586695 0.059667
0.189126 0.587182 0.060050
0.220611 0.587667 0.060425
0.251843 0.588150 0.060793
0.282868 0.588631 0.061154
0.313718 0.589111 0.061510
0.344416 0.589591 0.061860
0.374981 0.590071 0.062204
0.405427 0.590550 0.062544
0.435766 0.591030 0.062878
0.466008 0.591510 0.063208
0.496160 0.591990 0.063533
0.526231 0.592471 0.063853
0.556225 0.592952 0.064169
0.586148 0.593434 0.064481
0.616005 0.593916 0.064788
0.645800 0.594399 0.065091
0.675536 0.594883 0.065390
0.705217 0.595368 0.065684
0.734845 0.595853 0.065975
0.764424 0.596340 0.066261
0.793955 0.596827 0.066544
0.823442 0.597315 0.066822
0.852885 0.597805 0.067097
0.882287 0.598295 0.067367
0.911650 0.598786 0.067634
0.940976 0.599278 0.067897
0.970265 0.599771 0.068156
0.970538 0.599776 0.068159
0.970538 0.599776 0.068159
0.970538 0.599776 0.068159
0.093660 0.614469 0.060008
0.126650 0.614977 0.060401
0.158920 0.615475 0.060782
0.190744 0.615969 0.061152
0.222244 0.616460 0.061515
0.253491 0.616948 0.061872
0.284530 0.617435 0.062221
0.315395 0.617921 0.062565
0.346107 0.618407 0.062904
0.376687 0.618892 0.063237
0.407147 0.619378 0.063565
0.437500 0.619863 0.063888
0.467756 0.620349 0.064206
0.497923 0.620835 0.064520
0.528008 0.621321 0.064829
0.558016 0.621808 0.065133
0.587953 0.622295 0.065433
0.617824 0.622783 0.065729
0.647633 0.623272 0.066021
0.677383 0.623762 0.066309
0.707078 0.624252 0.066592
0.736720 0.624743 0.066871
0.766313 0.625235 0.067147
0.795858 0.625728 0.067418
0.825359 0.626222 0.067685
0.854816 0.626716 0.067949
0.884232 0.627212 0.068208
0.913609 0.627709 0.068464
0.942948 0.628206 0.068716
0.972251 0.628705 0.068964
0.972524 0.628710 0.068966
0.972524 0.628710 0.068966
0.972524 0.628710 0.068966
0.095273 0.643197 0.061110
0.128278 0.643710 0.061491
0.160564 0.644215 0.061859
0.192402 0.644715 0.062218
0.223917 0.645211 0.062569
0.255179 0.645706 0.062913
0.286233 0.646199 0.063251
0.317112 0.646691 0.063583
0.347839 0.647182 0.063910
0.378433 0.647673 0.064232
0.408908 0.648164 0.064548
0.439275 0.648655 0.064860
0.469546 0.649147 0.065167
0.499726 0.649638 0.065469
0.529825 0.650130 0.065767
0.559847 0.650623 0.066060
0.589799 0.651116 0.066349
0.619684 0.651609 0.066634
0.649507 0.652104 0.066914
0.679271 0.652599 0.067190
0.708980 0.653095 0.067463
0.738636 0.653591 0.067731
0.768243 0.654089 0.067995
0.797802 0.654587 0.068255
0.827316 0.655087 0.068512
0.856787 0.655587 0.068764
0.886217 0.656088 0.069013
0.915608 0.656590 0.069257
0.944961 0.657094 0.069498
0.974277 0.657598 0.069735
0.974551 0.657603 0.069737
0.974551 0.657603 0.069737
0.974551 0.657603 0.069737
0.096926 0.671886 0.062174
0.129947 0.672406 0.062543
0.162248 0.672917 0.062899
0.194102 0.673422 0.063245
0.225632 0.673925 0.063585
0.256908 0.674425 0.063917
0.287977 0.674924 0.064244
0.318870 0.675422 0.064564
0.349612 0.675919 0.064880
0.380220 0.676416 0.065190
0.410709 0.676912 0.065495
0.441091 0.677409 0.065795
0.471375 0.677906 0.066090
0.501570 0.678403 0.066381
0.531683 0.678901 0.066668
0.561719 0.679399 0.066950
0.591685 0.679898 0.067228
0.621584 0.680397 0.067501
0.651421 0.680897 0.067770
0.681199 0.681398 0.068036
0.710922 0.681899 0.068297
0.740592 0.682401 0.068554
0.770212 0.682905 0.068807
0.799785 0.683409 0.069056
0.829313 0.683913 0.069301
0.858798 0.684419 0.069542
0.888242 0.684926 0.069780
0.917647 0.685434 0.070014
0.947013 0.685942 0.070244
0.976343 0.686452 0.070470
0.976617 0.686457 0.070472
0.976617 0.686457 0.070472
0.976617 0.686457 0.070472
0.098621 0.700540 0.063202
0.131657 0.701066 0.063558
0.163973 0.701583 0.063902
0.195842 0.702094 0.064237
0.227386 0.702602 0.064564
0.258677 0.703109 0.064885
0.289761 0.703613 0.065200
0.320669 0.704117 0.065509
0.351425 0.704620 0.065812
0.382047 0.705123 0.066111
0.412550 0.705625 0.066405
0.442946 0.706127 0.066693
0.473245 0.706630 0.066978
0.503454 0.707133 0.067257
0.533581 0.707636 0.067532
0.563632 0.708140 0.067803
0.593611 0.708644 0.068070
0.623524 0.709149 0.068332
0.653375 0.709655 0.068590
0.683167 0.710161 0.068844
0.712904 0.710668 0.069094
0.742588 0.711176 0.069340
0.772222 0.711684 0.069582
0.801809 0.712194 0.069820
0.831351 0.712704 0.070054
0.860850 0.713216 0.070284
0.890307 0.713728 0.070511
0.919725 0.714241 0.070734
0.949106 0.714755 0.070953
0.978449 0.715271 0.071168
0.978723 0.715275 0.071170
0.978723 0.715275 0.071170
0.978723 0.715275 0.071170
0.100356 0.729160 0.064193
0.133408 0.729693 0.064536
0.165739 0.730215 0.064868
0.197622 0.730733 0.065191
0.229182 0.731247 0.065507
0.260487 0.731759 0.065816
0.291585 0.732270 0.066119
0.322507 0.732779 0.066416
0.353278 0.733288 0.066709
0.383915 0.733796 0.066996
0.414432 0.734304 0.067278
0.444842 0.734812 0.067555
0.475155 0.735321 0.067828
0.505379 0.735829 0.068096
0.535520 0.736338 0.068360
0.565584 0.736848 0.068620
0.595578 0.737357 0.068875
0.625505 0.737868 0.069126
0.655369 0.738379 0.069373
0.685175 0.738891 0.069616
0.714926 0.739403 0.069855
0.744624 0.739917 0.070090
0.774272 0.740431 0.070321
0.803873 0.740946 0.070548
0.833428 0.741462 0.070771
0.862941 0.741979 0.070990
0.892412 0.742497 0.071206
0.921844 0.743015 0.071418
0.951238 0.743535 0.071625
0.980595 0.744056 0.071830
0.980870 0.744060 0.071832
0.980870 0.744060 0.071832
0.980870 0.744060 0.071832
0.102131 0.757750 0.065147
0.135198 0.758288 0.065478
0.167545 0.758817 0.065798
0.199443 0.759341 0.066109
0.231017 0.759861 0.066413
0.262338 0.760379 0.066710
0.293450 0.760895 0.067002
0.324387 0.761410 0.067288
0.355171 0.761925 0.067568
0.385822 0.762439 0.067844
0.416354 0.762953 0.068115
0.446779 0.763466 0.068381
0.477106 0.763980 0.068643
0.507343 0.764494 0.068900
0.537498 0.765009 0.069152
0.567577 0.765524 0.069401
0.597584 0.766039 0.069645
0.627525 0.766556 0.069885
0.657404 0.767072 0.070121
0.687224 0.767590 0.070352
0.716988 0.768108 0.070580
0.746700 0.768627 0.070804
0.776362 0.769146 0.071024
0.805976 0.769667 0.071240
0.835546 0.770188 0.071452
0.865072 0.770711 0.071660
0.894557 0.771234 0.071865
0.924002 0.771758 0.072066
0.953410 0.772283 0.072263
0.982781 0.772809 0.072456
0.983056 0.772814 0.072458
0.983056 0.772814 0.072458
0.983056 0.772814 0.072458
0.103947 0.786310 0.066065
0.137030 0.786855 0.066384
0.169391 0.787390 0.066692
0.201304 0.787919 0.066991
0.232893 0.788445 0.067283
0.264228 0.788969 0.067569
0.295355 0.789491 0.067849
0.326306 0.790012 0.068123
0.357105 0.790532 0.068392
0.387770 0.791052 0.068657
0.418317 0.791572 0.068916
0.448755 0.792091 0.069171
0.479096 0.792611 0.069421
0.509348 0.793130 0.069667
0.539517 0.793651 0.069908
0.569609 0.794171 0.070145
0.599631 0.794692 0.070378
0.629586 0.795214 0.070607
0.659478 0.795736 0.070832
0.689312 0.796259 0.071053
0.719090 0.796783 0.071269
0.748816 0.797307 0.071482
0.778491 0.797832 0.071691
0.808120 0.798358 0.071896
0.837703 0.798885 0.072097
0.867243 0.799413 0.072294
0.896741 0.799942 0.072488
0.926201 0.800471 0.072678
0.955622 0.801002 0.072864
0.985007 0.801534 0.073046
0.985281 0.801539 0.073048
0.985281 0.801539 0.073048
0.985281 0.801539 0.073048
0.105803 0.814843 0.066947
0.138901 0.815394 0.067254
0.171278 0.815935 0.067550
0.203206 0.816471 0.067837
0.234809 0.817002 0.068117
0.266159 0.817532 0.068391
0.297300 0.818060 0.068660
0.328266 0.818587 0.068923
0.359079 0.819113 0.069180
0.389759 0.819638 0.069433
0.420319 0.820163 0.069681
0.450772 0.820688 0.069925
0.481127 0.821214 0.070164
0.511392 0.821739 0.070398
0.541575 0.822265 0.070629
0.571682 0.822791 0.070855
0.601717 0.823318 0.071076
0.631686 0.823845 0.071294
0.661593 0.824373 0.071508
0.691440 0.824901 0.071717
0.721232 0.825430 0.071923
0.750971 0.825960 0.072125
0.780661 0.826491 0.072323
0.810303 0.827022 0.072517
0.839900 0.827555 0.072707
