LUTs/02_Portra_Warm.cube
TITLE "Portra Warm"
# Nikon D5500 + Sigma 17-50 - subtle creative look (apply ~20-40%)
LUT_3D_SIZE 9
DOMAIN_MIN 0.0 0.0 0.0
DOMAIN_MAX 1.0 1.0 1.0
0.070853 0.051747 0.031098
0.198242 0.053260 0.033561
0.320955 0.054747 0.035870
0.441475 0.056237 0.038075
0.560557 0.057738 0.040194
0.678578 0.059253 0.042236
0.795763 0.060784 0.044206
0.912264 0.062334 0.046108
0.941566 0.062728 0.046577
0.074423 0.175624 0.038671
0.202077 0.177242 0.040923
0.325045 0.178831 0.043028
0.445814 0.180421 0.045034
0.565143 0.182020 0.046956
0.683408 0.183633 0.048802
0.800835 0.185261 0.050578
0.917577 0.186907 0.052287
0.946940 0.187325 0.052708
0.078637 0.294811 0.045309
0.206544 0.296531 0.047358
0.329756 0.298217 0.049268
0.450766 0.299903 0.051082
0.570331 0.301597 0.052815
0.688830 0.303303 0.054474
0.806490 0.305025 0.056064
0.923462 0.306763 0.057588
0.952884 0.307204 0.057962
0.083519 0.412025 0.051222
0.211675 0.413844 0.053072
0.335127 0.415626 0.054789
0.456371 0.417406 0.056415
0.576168 0.419193 0.057963
0.694897 0.420991 0.059438
0.812786 0.422804 0.060845
0.929985 0.424633 0.062188
0.959463 0.425097 0.062517
0.089067 0.528029 0.056476
0.217468 0.529946 0.058130
0.341156 0.531823 0.059658
0.462632 0.533696 0.061099
0.582659 0.535574 0.062462
0.701615 0.537463 0.063756
0.819728 0.539366 0.064983
0.937151 0.541284 0.066147
0.966686 0.541771 0.066431
0.095273 0.643197 0.061110
0.223917 0.645211 0.062569
0.347839 0.647182 0.063910
0.469546 0.649147 0.065167
0.589799 0.651116 0.066349
0.708980 0.653095 0.067463
0.827316 0.655087 0.068512
0.944961 0.657094 0.069498
0.974551 0.657603 0.069737
0.102131 0.757750 0.065147
0.231017 0.759861 0.066413
0.355171 0.761925 0.067568
0.477106 0.763980 0.068643
0.597584 0.766039 0.069645
0.716988 0.768108 0.070580
0.835546 0.770188 0.071452
0.953410 0.772283 0.072263
0.983056 0.772814 0.072458
0.109636 0.871835 0.068605
0.238762 0.874041 0.069679
0.363147 0.876198 0.070650
0.485308 0.878344 0.071543
0.606010 0.880493 0.072366
0.725635 0.882649 0.073124
0.844413 0.884818 0.073820
0.962496 0.887000 0.074456
0.992196 0.887553 0.074607
0.116436 0.967381 0.071072
0.245762 0.969668 0.071986
0.370340 0.971901 0.072802
0.492690 0.974123 0.073544
0.613579 0.976346 0.074218
0.733390 0.978577 0.074828
0.852351 0.980819 0.075377
0.970617 0.983075 0.075866
1.000000 0.983646 0.075981
0.071138 0.052173 0.137328
0.198551 0.053695 0.139772
0.321287 0.055191 0.142062
0.441830 0.056690 0.144250
0.560934 0.058200 0.146352
0.678976 0.059724 0.148376
0.796183 0.061264 0.150329
0.912705 0.062822 0.152213
0.942013 0.063218 0.152678
0.074784 0.176079 0.144842
0.202461 0.177707 0.147075
0.325452 0.179305 0.149161
0.446244 0.180904 0.151149
0.565595 0.182512 0.153053
0.683881 0.184133 0.154882
0.801330 0.185770 0.156641
0.918093 0.187425 0.158333
0.947462 0.187845 0.158749
0.079070 0.295295 0.151422
0.207001 0.297024 0.153452
0.330235 0.298720 0.155343
0.451267 0.300415 0.157139
0.570854 0.302118 0.158855
0.689375 0.303833 0.160496
0.807057 0.305563 0.162069
0.924051 0.307310 0.163576
0.953478 0.307753 0.163946
0.084022 0.412537 0.157278
0.212202 0.414366 0.159109
0.335676 0.416157 0.160808
0.456943 0.417946 0.162416
0.576762 0.419742 0.163946
0.695513 0.421549 0.165404
0.813423 0.423370 0.166794
0.930644 0.425208 0.168119
0.960128 0.425674 0.168444
0.089639 0.528569 0.162476
0.218065 0.530496 0.164111
0.341775 0.532382 0.165622
0.463274 0.534264 0.167044
0.583322 0.536151 0.168390
0.702300 0.538049 0.169666
0.820435 0.539960 0.170876
0.937880 0.541887 0.172023
0.967420 0.542376 0.172302
0.095914 0.643765 0.167055
0.224583 0.645789 0.168495
0.348527 0.647769 0.169818
0.470256 0.649742 0.171057
0.590531 0.651720 0.172221
0.709734 0.653708 0.173318
0.828092 0.655708 0.174349
0.945758 0.657724 0.175319
0.975354 0.658235 0.175554
0.102841 0.758345 0.171037
0.231751 0.760466 0.172284
0.355928 0.762539 0.173422
0.477885 0.764603 0.174478
0.598385 0.766671 0.175463
0.717811 0.768748 0.176380
0.836390 0.770837 0.177235
0.954276 0.772941 0.178028
0.983927 0.773474 0.178219
0.110414 0.872457 0.174441
0.239564 0.874673 0.175496
0.363972 0.876839 0.176449
0.486155 0.878994 0.177324
0.606879 0.881151 0.178130
0.726526 0.883317 0.178870
0.845325 0.885494 0.179549
0.963430 0.887685 0.180167
0.993136 0.888240 0.180314
0.117271 0.968026 0.176863
0.246621 0.970323 0.177757
0.371222 0.972565 0.178556
0.493594 0.974796 0.179280
0.614505 0.977028 0.179936
0.734338 0.979268 0.180528
0.853321 0.981518 0.181060
0.971607 0.983782 0.181532
1.000000 0.984356 0.181642
0.071428 0.052597 0.242484
0.198864 0.054128 0.244910
0.321623 0.055634 0.247182
0.442187 0.057142 0.249352
0.561313 0.058660 0.251436
0.679377 0.060192 0.253443
0.796606 0.061741 0.255378
0.913149 0.063307 0.257246
0.942462 0.063706 0.257707
0.075148 0.176533 0.249938
0.202848 0.178170 0.252153
0.325861 0.179777 0.254221
0.446676 0.181385 0.256191
0.566048 0.183001 0.258078
0.684356 0.184632 0.259890
0.801827 0.186277 0.261631
0.918611 0.187940 0.263306
0.947985 0.188363 0.263718
0.079504 0.295777 0.256462
0.207459 0.297516 0.258473
0.330716 0.299221 0.260346
0.451770 0.300924 0.262125
0.571379 0.302636 0.263822
0.689922 0.304360 0.265447
0.807625 0.306098 0.267002
0.924640 0.307854 0.268492
0.954072 0.308299 0.268858
0.084527 0.413047 0.262262
0.212730 0.414885 0.264074
0.336227 0.416686 0.265756
0.457516 0.418483 0.267346
0.577357 0.420288 0.268858
0.696129 0.422103 0.270298
0.814061 0.423933 0.271671
0.931303 0.425779 0.272980
0.960792 0.426248 0.273300
0.090213 0.529107 0.267405
0.218662 0.531043 0.269021
0.342395 0.532938 0.270514
0.463916 0.534829 0.271918
0.583986 0.536724 0.273247
0.702985 0.538631 0.274506
0.821142 0.540551 0.275699
0.938608 0.542487 0.276828
0.968153 0.542978 0.277103
0.096556 0.644330 0.271929
0.225248 0.646363 0.273350
0.349215 0.648352 0.274656
0.470966 0.650334 0.275877
0.591263 0.652321 0.277024
0.710488 0.654317 0.278103
0.828867 0.656327 0.279117
0.946555 0.658351 0.280069
0.976156 0.658864 0.280300
0.103551 0.758937 0.275857
0.232484 0.761067 0.277086
0.356684 0.763149 0.278205
0.478662 0.765222 0.279244
0.599185 0.767299 0.280211
0.718632 0.769385 0.281111
0.837233 0.771483 0.281948
0.955140 0.773595 0.282725
0.984797 0.774130 0.282911
0.111191 0.873076 0.279207
0.240364 0.875302 0.280244
0.364794 0.877476 0.281178
0.487000 0.879640 0.282036
0.607746 0.881806 0.282824
0.727415 0.883981 0.283547
0.846235 0.886166 0.284208
0.964361 0.888366 0.284810
0.994072 0.888923 0.284952
0.118104 0.968667 0.281584
0.247478 0.970973 0.282460
0.372101 0.973225 0.283240
0.494495 0.975465 0.283946
0.615428 0.977706 0.284585
0.735282 0.979954 0.285160
0.854287 0.982213 0.285674
0.972595 0.984486 0.286130
1.000000 0.985061 0.286236
0.071722 0.053021 0.347133
0.199182 0.054562 0.349540
0.321963 0.056077 0.351795
0.442549 0.057593 0.353947
0.561697 0.059120 0.356014
0.679783 0.060661 0.358003
0.797032 0.062218 0.359922
0.913597 0.063793 0.361772
0.942916 0.064194 0.362228
0.075516 0.176987 0.354529
0.203240 0.178633 0.356724
0.326275 0.180249 0.358775
0.447112 0.181866 0.360727
0.566506 0.183491 0.362597
0.684836 0.185130 0.364391
0.802328 0.186784 0.366116
0.919133 0.188456 0.367773
0.948513 0.188880 0.368181
0.079944 0.296260 0.360995
0.207921 0.298008 0.362988
0.331201 0.299722 0.364843
0.452277 0.301434 0.366604
0.571908 0.303154 0.368284
0.690472 0.304886 0.369891
0.808196 0.306634 0.371430
0.925233 0.308398 0.372902
0.954671 0.308845 0.373264
0.085036 0.413557 0.366739
0.213262 0.415405 0.368533
0.336781 0.417214 0.370197
0.458092 0.419021 0.371770
0.577955 0.420834 0.373264
0.696749 0.422658 0.374687
0.814702 0.424497 0.376043
0.931965 0.426351 0.377335
0.961460 0.426822 0.377651
0.090790 0.529644 0.371828
0.219262 0.531590 0.373425
0.343018 0.533494 0.374900
0.464561 0.535393 0.376287
0.584653 0.537298 0.377598
0.703674 0.539213 0.378840
0.821852 0.541142 0.380015
0.939339 0.543086 0.381128
0.968890 0.543579 0.381399
0.097201 0.644894 0.376298
0.225917 0.646937 0.377700
0.349906 0.648935 0.378988
0.471679 0.650926 0.380191
0.591998 0.652922 0.381321
0.711244 0.654927 0.382382
0.829645 0.656944 0.383380
0.947354 0.658977 0.384315
0.976960 0.659492 0.384541
0.104264 0.759529 0.380172
0.233220 0.761668 0.381382
0.357442 0.763759 0.382483
0.479443 0.765841 0.383504
0.599987 0.767927 0.384454
0.719456 0.770021 0.385337
0.838078 0.772127 0.386157
0.956007 0.774248 0.386916
0.985668 0.774786 0.387099
0.111971 0.873695 0.383468
0.241167 0.875930 0.384486
0.365620 0.878113 0.385403
0.487847 0.880286 0.386242
0.608615 0.882461 0.387013
0.728306 0.884644 0.387719
0.847148 0.886838 0.388363
0.965295 0.889046 0.388948
0.995011 0.889605 0.389086
0.118940 0.969308 0.385800
0.248337 0.971624 0.386657
0.372982 0.973884 0.387420
0.495399 0.976133 0.388108
0.616354 0.978382 0.388729
0.736229 0.980639 0.389287
0.855255 0.982907 0.389785
0.973584 0.985188 0.390223
1.000000 0.985766 0.390325
0.072022 0.053447 0.451442
0.199505 0.054997 0.453831
0.322309 0.056521 0.456067
0.442917 0.058046 0.458202
0.562086 0.059582 0.460251
0.680194 0.061131 0.462224
0.797465 0.062697 0.464125
0.914050 0.064280 0.465958
0.943375 0.064683 0.466411
0.075890 0.177442 0.458779
0.203637 0.179097 0.460956
0.326695 0.180723 0.462988
0.447553 0.182348 0.464923
0.566969 0.183982 0.466775
0.685320 0.185629 0.468553
0.802834 0.187292 0.470260
0.919660 0.188972 0.471901
0.949045 0.189399 0.472304
0.080388 0.296743 0.465189
0.208389 0.298500 0.467163
0.331691 0.300223 0.469000
0.452789 0.301944 0.470743
0.572441 0.303673 0.472406
0.691027 0.305414 0.473996
0.808773 0.307170 0.475517
0.925831 0.308942 0.476973
0.955273 0.309392 0.477331
0.085549 0.414068 0.470878
0.213799 0.415925 0.472653
0.337340 0.417744 0.474298
0.458673 0.419559 0.475854
0.578558 0.421381 0.477331
0.697374 0.423213 0.478737
0.815348 0.425061 0.480075
0.932632 0.426923 0.481350
0.962132 0.427396 0.481662
0.091372 0.530183 0.475912
0.219867 0.532138 0.477490
0.343645 0.534051 0.478947
0.465210 0.535959 0.480316
0.585324 0.537872 0.481610
0.704367 0.539796 0.482835
0.822566 0.541733 0.483993
0.940074 0.543685 0.485089
0.969630 0.544181 0.485355
0.097851 0.645460 0.480327
0.226590 0.647512 0.481711
0.350602 0.649519 0.482980
0.472396 0.651519 0.484166
0.592737 0.653523 0.485278
0.712004 0.655536 0.486323
0.830427 0.657563 0.487303
0.948156 0.659604 0.488221
0.977768 0.660121 0.488444
0.104981 0.760121 0.484147
0.233960 0.762270 0.485338
0.358205 0.764370 0.486422
0.480227 0.766461 0.487425
0.600793 0.768555 0.488358
0.720283 0.770658 0.489224
0.838927 0.772773 0.490027
0.956877 0.774902 0.490769
0.986544 0.775441 0.490947
0.112755 0.874314 0.487390
0.241974 0.876558 0.488389
0.366449 0.878750 0.489288
0.488699 0.880932 0.490110
0.609488 0.883116 0.490864
0.729200 0.885307 0.491553
0.848063 0.887510 0.492180
0.966232 0.889726 0.492747
0.995953 0.890288 0.492881
0.119780 0.969950 0.489677
0.249199 0.972274 0.490516
0.373867 0.974544 0.491261
0.496306 0.976801 0.491931
0.617282 0.979060 0.492535
0.737179 0.981325 0.493076
0.856227 0.983601 0.493556
0.974577 0.985891 0.493978
1.000000 0.986471 0.494075
0.072328 0.053875 0.555494
0.199834 0.055434 0.557864
0.322660 0.056966 0.560082
0.443290 0.058500 0.562199
0.562481 0.060044 0.564231
0.680610 0.061603 0.566187
0.797902 0.063177 0.568071
0.914509 0.064769 0.569888
0.943839 0.065174 0.570336
0.076269 0.177899 0.562771
0.204039 0.179563 0.564930
0.327119 0.181198 0.566945
0.447999 0.182832 0.568862
0.567437 0.184474 0.570697
0.685810 0.186130 0.572457
0.803344 0.187802 0.574147
0.920192 0.189490 0.575771
0.949582 0.189919 0.576171
0.080838 0.297228 0.569125
0.208862 0.298994 0.571081
0.332186 0.300726 0.572900
0.453306 0.302456 0.574626
0.572980 0.304194 0.576272
0.691587 0.305943 0.577844
0.809354 0.307708 0.579349
0.926433 0.309488 0.580787
0.955881 0.309940 0.581141
0.086068 0.414581 0.574759
0.214341 0.416447 0.576515
0.337905 0.418274 0.578143
0.459259 0.420098 0.579681
0.579166 0.421929 0.581141
0.698003 0.423770 0.582530
0.815998 0.425626 0.583851
0.933304 0.427497 0.585109
0.962809 0.427972 0.585416
0.091959 0.530723 0.579738
0.220478 0.532687 0.581298
0.344278 0.534609 0.582737
0.465865 0.536526 0.584089
0.586000 0.538448 0.585366
0.705064 0.540380 0.586573
0.823285 0.542326 0.587714
0.940814 0.544286 0.588793
0.970375 0.544784 0.589056
0.098506 0.646027 0.584099
0.227267 0.648088 0.585465
0.351302 0.650104 0.586716
0.473118 0.652113 0.587885
0.593481 0.654125 0.588980
0.712769 0.656147 0.590007
0.831213 0.658182 0.590970
0.948964 0.660232 0.591872
0.978581 0.660752 0.592090
0.105702 0.760715 0.587866
0.234705 0.762873 0.589039
0.358972 0.764982 0.590104
0.481016 0.767081 0.591090
0.601604 0.769184 0.592005
0.721116 0.771296 0.592854
0.839780 0.773419 0.593640
0.957751 0.775557 0.594366
0.987424 0.776098 0.594539
0.113543 0.874934 0.591056
0.242786 0.877188 0.592036
0.367283 0.879389 0.592917
0.489554 0.881579 0.593722
0.610365 0.883772 0.594458
0.730099 0.885972 0.595130
0.848983 0.888183 0.595740
0.967173 0.890408 0.596291
0.996900 0.890972 0.596420
0.120623 0.970592 0.593298
0.250066 0.972926 0.594119
0.374757 0.975205 0.594845
0.497217 0.977471 0.595499
0.618215 0.979738 0.596085
0.738134 0.982012 0.596609
0.857202 0.984297 0.597072
0.975574 0.986595 0.597477
1.000000 0.987177 0.597570
0.072639 0.054304 0.659338
0.200169 0.055872 0.661689
0.323017 0.057413 0.663890
0.443669 0.058956 0.665990
0.562882 0.060509 0.668005
0.681032 0.062076 0.669943
0.798345 0.063659 0.671810
0.914973 0.065259 0.673610
0.944308 0.065666 0.674054
0.076654 0.178357 0.666557
0.204447 0.180031 0.668697
0.327550 0.181674 0.670694
0.448452 0.183317 0.672594
0.567911 0.184968 0.674411
0.686305 0.186633 0.676154
0.803861 0.188313 0.677828
0.920730 0.190009 0.679435
0.950125 0.190440 0.679830
0.081293 0.297715 0.672855
0.209340 0.299490 0.674792
0.332686 0.301231 0.676593
0.453828 0.302970 0.678301
0.573524 0.304716 0.679930
0.692152 0.306474 0.681485
0.809941 0.308247 0.682973
0.927041 0.310036 0.684395
0.956494 0.310490 0.684744
0.086592 0.415095 0.678433
0.214888 0.416970 0.680171
0.338474 0.418807 0.681781
0.459851 0.420639 0.683301
0.579779 0.422478 0.684744
0.698637 0.424328 0.686115
0.816654 0.426192 0.687420
0.933980 0.428072 0.688661
0.963491 0.428549 0.688964
0.092552 0.531264 0.683358
0.221093 0.533237 0.684899
0.344915 0.535168 0.686320
0.466524 0.537094 0.687655
0.586681 0.539024 0.688914
0.705767 0.540965 0.690104
0.824008 0.542919 0.691229
0.941559 0.544889 0.692291
0.971125 0.545388 0.692549
0.099166 0.646595 0.687665
0.227950 0.648666 0.689012
0.352007 0.650690 0.690246
0.473845 0.652708 0.691396
0.594229 0.654729 0.692474
0.713539 0.656760 0.693485
0.832004 0.658803 0.694431
0.949776 0.660861 0.695315
0.979399 0.661383 0.695529
0.106429 0.761310 0.691378
0.235455 0.763477 0.692532
0.359744 0.765595 0.693580
0.481810 0.767703 0.694549
0.602419 0.769815 0.695446
0.721953 0.771935 0.696278
0.840639 0.774067 0.697047
0.958630 0.776213 0.697756
0.988308 0.776757 0.697925
0.114336 0.875556 0.694515
0.243602 0.877819 0.695477
0.368122 0.880029 0.696340
0.490415 0.882228 0.697127
0.611247 0.884429 0.697846
0.731002 0.886637 0.698501
0.849908 0.888857 0.699094
0.968118 0.891091 0.699628
0.997851 0.891656 0.699753
0.121472 0.971236 0.696713
0.250938 0.973579 0.697515
0.375651 0.975867 0.698224
0.498133 0.978142 0.698859
0.619153 0.980417 0.699428
0.739093 0.982700 0.699935
0.858182 0.984993 0.700381
0.976575 0.987299 0.700769
1.000000 0.987884 0.700858
0.072957 0.054734 0.763008
0.200509 0.056312 0.765341
0.323380 0.057862 0.767524
0.444054 0.059414 0.769606
0.563288 0.060975 0.771604
0.681459 0.062551 0.773525
0.798794 0.064142 0.775375
0.915443 0.065751 0.777158
0.944783 0.066160 0.777598
0.077044 0.178817 0.770169
0.204861 0.180500 0.772290
0.327986 0.182152 0.774269
0.448909 0.183804 0.776152
0.568390 0.185464 0.777952
0.686806 0.187137 0.779678
0.804383 0.188825 0.781334
0.921273 0.190530 0.782925
0.950673 0.190963 0.783316
0.081754 0.298203 0.776410
0.209824 0.299988 0.778329
0.333193 0.301737 0.780112
0.454356 0.303485 0.781803
0.574074 0.305239 0.783414
0.692723 0.307006 0.784953
0.810533 0.308787 0.786423
0.927654 0.310585 0.787828
0.957113 0.311041 0.788173
0.087122 0.415611 0.781933
0.215441 0.417495 0.783653
0.339049 0.419341 0.785245
0.460448 0.421182 0.786748
0.580397 0.423030 0.788173
0.699277 0.424888 0.789528
0.817315 0.426761 0.790816
0.934662 0.428649 0.792040
0.964178 0.429128 0.792339
0.093149 0.531807 0.786804
0.221714 0.533789 0.788327
0.345559 0.535729 0.789730
0.467189 0.537664 0.791047
0.587368 0.539603 0.792289
0.706474 0.541552 0.793462
0.824737 0.543515 0.794570
0.942309 0.545493 0.795615
0.971881 0.545994 0.795869
0.099831 0.647165 0.791057
0.228638 0.649245 0.792386
0.352717 0.651278 0.793602
0.474578 0.653305 0.794735
0.594983 0.655335 0.795795
0.714315 0.657374 0.796789
0.832800 0.659426 0.797718
0.950594 0.661492 0.798586
0.980221 0.662016 0.798795
0.107161 0.761907 0.794717
0.236210 0.764083 0.795853
0.360521 0.766210 0.796883
0.482609 0.768327 0.797833
0.603240 0.770447 0.798714
0.722794 0.772576 0.799529
0.841502 0.774716 0.800281
0.959515 0.776870 0.800973
0.989198 0.777416 0.801138
0.115134 0.876179 0.797800
0.244423 0.878451 0.798744
0.368965 0.880670 0.799589
0.491280 0.882878 0.800359
0.612134 0.885088 0.801061
0.731910 0.887305 0.801698
0.850838 0.889533 0.802274
0.969069 0.891775 0.802791
0.998807 0.892343 0.802913
0.122326 0.971882 0.799954
0.251815 0.974234 0.800737
0.376550 0.976530 0.801429
0.499054 0.978814 0.802047
0.620095 0.981098 0.802599
0.740057 0.983389 0.803088
0.859167 0.985691 0.803517
0.977581 0.988006 0.803888
1.000000 0.988592 0.803973
0.073280 0.055167 0.866529
0.200856 0.056754 0.868843
0.323748 0.058313 0.871008
0.444444 0.059874 0.873073
0.563700 0.061444 0.875053
0.681893 0.063027 0.876957
0.799248 0.064627 0.878791
0.915919 0.066244 0.880557
0.945264 0.066655 0.880992
0.077441 0.179279 0.873630
0.205281 0.180972 0.875733
0.328427 0.182633 0.877695
0.449373 0.184293 0.879560
0.568875 0.185962 0.881343
0.687312 0.187643 0.883052
0.804910 0.189340 0.884691
0.921821 0.191053 0.886265
0.951227 0.191488 0.886651
0.082220 0.298693 0.879816
0.210314 0.300487 0.881716
0.333705 0.302246 0.883482
0.454890 0.304002 0.885155
0.574629 0.305765 0.886749
0.693300 0.307540 0.888270
0.811131 0.309330 0.889724
0.928273 0.311136 0.891112
0.957737 0.311594 0.891453
0.087657 0.416128 0.885284
0.216000 0.418022 0.886985
0.339630 0.419876 0.888559
0.461050 0.421726 0.890045
0.581021 0.423583 0.891453
0.699922 0.425450 0.892790
0.817981 0.427331 0.894061
0.935350 0.429227 0.895268
0.964871 0.429709 0.895563
0.093753 0.532352 0.890100
0.222340 0.534343 0.891605
0.346207 0.536292 0.892990
0.467859 0.538235 0.894290
0.588060 0.540183 0.895515
0.707188 0.542141 0.896671
0.825472 0.544112 0.897761
0.943064 0.546098 0.898789
0.972641 0.546602 0.899039
0.100501 0.647737 0.894300
0.229332 0.649826 0.895610
0.353433 0.651868 0.896808
0.475315 0.653903 0.897924
0.595742 0.655942 0.898967
0.715095 0.657989 0.899943
0.833602 0.660050 0.900856
0.951416 0.662125 0.901706
0.981049 0.662651 0.901912
0.107898 0.762505 0.897906
0.236970 0.764691 0.899023
0.361304 0.766826 0.900036
0.483414 0.768952 0.900969
0.604066 0.771081 0.901832
0.723642 0.773218 0.902630
0.842370 0.775367 0.903365
0.960404 0.777529 0.904040
0.990092 0.778078 0.904201
0.115938 0.876804 0.900936
0.245250 0.879085 0.901862
0.369814 0.881313 0.902689
0.492151 0.883530 0.903441
0.613027 0.885748 0.904126
0.732824 0.887973 0.904746
0.851772 0.890210 0.905306
0.970025 0.892460 0.905806
0.999768 0.893030 0.905923
0.123185 0.972529 0.903046
0.252697 0.974890 0.903811
0.377454 0.977195 0.904484
0.499980 0.979488 0.905085
0.621043 0.981781 0.905620
0.741025 0.984080 0.906092
0.860157 0.986390 0.906504
0.978592 0.988714 0.906859
1.000000 0.989302 0.906939
