LUTs/02_Portra_Warm.cube
TITLE "Portra Warm"
# Nikon D5500 + Sigma 17-50 - subtle creative look (apply ~20-40%)
LUT_3D_SIZE 5
DOMAIN_MIN 0.0 0.0 0.0
DOMAIN_MAX 1.0 1.0 1.0
0.070853 0.051747 0.031098
0.320955 0.054747 0.035870
0.560557 0.057738 0.040194
0.795763 0.060784 0.044206
0.941566 0.062728 0.046577
0.078637 0.294811 0.045309
0.329756 0.298217 0.049268
0.570331 0.301597 0.052815
0.806490 0.305025 0.056064
0.952884 0.307204 0.057962
0.089067 0.528029 0.056476
0.341156 0.531823 0.059658
0.582659 0.535574 0.062462
0.819728 0.539366 0.064983
0.966686 0.541771 0.066431
0.102131 0.757750 0.065147
0.355171 0.761925 0.067568
0.597584 0.766039 0.069645
0.835546 0.770188 0.071452
0.983056 0.772814 0.072458
0.116436 0.967381 0.071072
0.370340 0.971901 0.072802
0.613579 0.976346 0.074218
0.852351 0.980819 0.075377
1.000000 0.983646 0.075981
0.071428 0.052597 0.242484
0.321623 0.055634 0.247182
0.561313 0.058660 0.251436
0.796606 0.061741 0.255378
0.942462 0.063706 0.257707
0.079504 0.295777 0.256462
0.330716 0.299221 0.260346
0.571379 0.302636 0.263822
0.807625 0.306098 0.267002
0.954072 0.308299 0.268858
0.090213 0.529107 0.267405
0.342395 0.532938 0.270514
0.583986 0.536724 0.273247
0.821142 0.540551 0.275699
0.968153 0.542978 0.277103
0.103551 0.758937 0.275857
0.356684 0.763149 0.278205
0.599185 0.767299 0.280211
0.837233 0.771483 0.281948
0.984797 0.774130 0.282911
0.118104 0.968667 0.281584
0.372101 0.973225 0.283240
0.615428 0.977706 0.284585
0.854287 0.982213 0.285674
1.000000 0.985061 0.286236
0.072022 0.053447 0.451442
0.322309 0.056521 0.456067
0.562086 0.059582 0.460251
0.797465 0.062697 0.464125
0.943375 0.064683 0.466411
0.080388 0.296743 0.465189
0.331691 0.300223 0.469000
0.572441 0.303673 0.472406
0.808773 0.307170 0.475517
0.955273 0.309392 0.477331
0.091372 0.530183 0.475912
0.343645 0.534051 0.478947
0.585324 0.537872 0.481610
0.822566 0.541733 0.483993
0.969630 0.544181 0.485355
0.104981 0.760121 0.484147
0.358205 0.764370 0.486422
0.600793 0.768555 0.488358
0.838927 0.772773 0.490027
0.986544 0.775441 0.490947
0.119780 0.969950 0.489677
0.373867 0.974544 0.491261
0.617282 0.979060 0.492535
0.856227 0.983601 0.493556
1.000000 0.986471 0.494075
0.072639 0.054304 0.659338
0.323017 0.057413 0.663890
0.562882 0.060509 0.668005
0.798345 0.063659 0.671810
0.944308 0.065666 0.674054
0.081293 0.297715 0.672855
0.332686 0.301231 0.676593
0.573524 0.304716 0.679930
0.809941 0.308247 0.682973
0.956494 0.310490 0.684744
0.092552 0.531264 0.683358
0.344915 0.535168 0.686320
0.586681 0.539024 0.688914
0.824008 0.542919 0.691229
0.971125 0.545388 0.692549
0.106429 0.761310 0.691378
0.359744 0.765595 0.693580
0.602419 0.769815 0.695446
0.840639 0.774067 0.697047
0.988308 0.776757 0.697925
0.121472 0.971236 0.696713
0.375651 0.975867 0.698224
0.619153 0.980417 0.699428
0.858182 0.984993 0.700381
1.000000 0.987884 0.700858
0.073280 0.055167 0.866529
0.323748 0.058313 0.871008
0.563700 0.061444 0.875053
0.799248 0.064627 0.878791
0.945264 0.066655 0.880992
0.082220 0.298693 0.879816
0.333705 0.302246 0.883482
0.574629 0.305765 0.886749
0.811131 0.309330 0.889724
0.957737 0.311594 0.891453
0.093753 0.532352 0.890100
0.346207 0.536292 0.892990
0.588060 0.540183 0.895515
0.825472 0.544112 0.897761
0.972641 0.546602 0.899039
0.107898 0.762505 0.897906
0.361304 0.766826 0.900036
0.604066 0.771081 0.901832
0.842370 0.775367 0.903365
0.990092 0.778078 0.904201
0.123185 0.972529 0.903046
0.377454 0.977195 0.904484
0.621043 0.981781 0.905620
0.860157 0.986390 0.906504
1.000000 0.989302 0.906939
