LUTs/03_Portra_Soft.cube
TITLE "Portra Soft"
# Nikon D5500 + Sigma 17-50 - subtle creative look (apply ~20-40%)
LUT_3D_SIZE 9
DOMAIN_MIN 0.0 0.0 0.0
DOMAIN_MAX 1.0 1.0 1.0
0.132418 0.124603 0.129313
0.230942 0.129076 0.133652
0.325633 0.133384 0.137809
0.418335 0.137612 0.141866
0.509692 0.141787 0.145853
0.600035 0.145924 0.149785
0.689569 0.150033 0.153670
0.778432 0.154119 0.157515
0.818315 0.155956 0.159237
0.146141 0.232008 0.143584
0.244783 0.236520 0.147883
0.339589 0.240867 0.152002
0.432402 0.245132 0.156023
0.523869 0.249343 0.159973
0.614320 0.253517 0.163868
0.703962 0.257661 0.167718
0.792932 0.261783 0.171527
0.832863 0.263636 0.173233
0.159698 0.335351 0.157176
0.258454 0.339901 0.161437
0.353369 0.344285 0.165520
0.446290 0.348585 0.169504
0.537862 0.352832 0.173420
0.628418 0.357040 0.177280
0.718163 0.361219 0.181095
0.807236 0.365375 0.184870
0.847213 0.367243 0.186561
0.173317 0.436613 0.170362
0.272185 0.441200 0.174586
0.367207 0.445619 0.178633
0.460233 0.449954 0.182583
0.551908 0.454235 0.186464
0.642566 0.458478 0.190290
0.732412 0.462691 0.194071
0.821585 0.466880 0.197813
0.861607 0.468764 0.199488
0.187073 0.536486 0.183240
0.286050 0.541110 0.187427
0.381178 0.545564 0.191439
0.474307 0.549934 0.195354
0.566084 0.554249 0.199201
0.656843 0.558525 0.202994
0.746789 0.562771 0.206742
0.836061 0.566994 0.210450
0.876127 0.568892 0.212111
0.201002 0.635331 0.195861
0.300088 0.639992 0.200012
0.395320 0.644481 0.203989
0.488551 0.648884 0.207870
0.580429 0.653233 0.211684
0.671287 0.657542 0.215443
0.761332 0.661821 0.219158
0.850701 0.666077 0.222834
0.890812 0.667989 0.224480
0.215126 0.733368 0.208257
0.314319 0.738064 0.212372
0.409655 0.742588 0.216315
0.502988 0.747025 0.220162
0.594965 0.751407 0.223942
0.685922 0.755749 0.227669
0.776064 0.760061 0.231351
0.865530 0.764348 0.234995
0.905684 0.766275 0.236627
0.229458 0.830745 0.220450
0.328758 0.835477 0.224529
0.424196 0.840034 0.228438
0.517629 0.844505 0.232252
0.609706 0.848920 0.235999
0.700761 0.853295 0.239693
0.791000 0.857639 0.243343
0.880562 0.861958 0.246955
0.920759 0.863900 0.248572
0.238161 0.888900 0.227675
0.337525 0.893653 0.231733
0.433024 0.898231 0.235621
0.526517 0.902722 0.239415
0.618653 0.907157 0.243143
0.709766 0.911551 0.246817
0.800063 0.915914 0.250448
0.889683 0.920252 0.254041
0.929906 0.922202 0.255650
0.133723 0.126023 0.219052
0.232258 0.130500 0.223387
0.326960 0.134812 0.227541
0.419673 0.139043 0.231595
0.511040 0.143222 0.235578
0.601394 0.147362 0.239506
0.690938 0.151475 0.243388
0.779811 0.155565 0.247229
0.819699 0.157403 0.248950
0.147484 0.233441 0.233311
0.246137 0.237957 0.237606
0.340954 0.242308 0.241722
0.433778 0.246576 0.245739
0.525255 0.250791 0.249686
0.615717 0.254968 0.253577
0.705369 0.259116 0.257423
0.794349 0.263241 0.261229
0.834285 0.265096 0.262933
0.161077 0.336796 0.246891
0.259845 0.341350 0.251148
0.354770 0.345737 0.255227
0.447702 0.350041 0.259208
0.539285 0.354291 0.263120
0.629851 0.358503 0.266977
0.719607 0.362686 0.270788
0.808689 0.366845 0.274560
0.848671 0.368715 0.276249
0.174731 0.438069 0.260065
0.273610 0.442661 0.264285
0.368643 0.447083 0.268329
0.461680 0.451422 0.272275
0.553366 0.455707 0.276152
0.644035 0.459953 0.279975
0.733891 0.464169 0.283752
0.823074 0.468362 0.287491
0.863101 0.470247 0.289165
0.188522 0.537955 0.272931
0.287511 0.542583 0.277115
0.382649 0.547040 0.281123
0.475789 0.551414 0.285035
0.567577 0.555732 0.288878
0.658346 0.560012 0.292667
0.748303 0.564261 0.296412
0.837585 0.568488 0.300117
0.877656 0.570387 0.301776
0.202485 0.636811 0.285541
0.301583 0.641476 0.289688
0.396826 0.645968 0.293661
0.490068 0.650375 0.297539
0.581956 0.654728 0.301349
0.672825 0.659040 0.305105
0.762880 0.663323 0.308817
0.852260 0.667582 0.312489
0.892375 0.669496 0.314134
0.216643 0.734860 0.297925
0.315849 0.739560 0.302037
0.411195 0.744087 0.305976
0.504539 0.748528 0.309820
0.596526 0.752913 0.313596
0.687494 0.757259 0.317320
0.777647 0.761574 0.320998
0.867123 0.765865 0.324639
0.907282 0.767793 0.326269
0.231009 0.832248 0.310107
0.330322 0.836983 0.314183
0.425771 0.841545 0.318087
0.519215 0.846019 0.321898
0.611301 0.850438 0.325642
0.702367 0.854816 0.329332
0.792616 0.859163 0.332979
0.882189 0.863486 0.336587
0.922391 0.865429 0.338203
0.239733 0.890409 0.317325
0.339109 0.895166 0.321380
0.434619 0.899748 0.325264
0.528123 0.904243 0.329055
0.620269 0.908681 0.332779
0.711392 0.913078 0.336450
0.801700 0.917445 0.340077
0.891330 0.921787 0.343666
0.931557 0.923738 0.345274
0.135003 0.127414 0.306834
0.233549 0.131894 0.311165
0.328262 0.136210 0.315315
0.420986 0.140445 0.319366
0.512363 0.144626 0.323346
0.602727 0.148771 0.327270
0.692281 0.152886 0.331148
0.781165 0.156980 0.334986
0.821057 0.158819 0.336705
0.148801 0.234844 0.321080
0.247465 0.239364 0.325372
0.342292 0.243718 0.329484
0.435127 0.247989 0.333497
0.526614 0.252208 0.337440
0.617087 0.256388 0.341329
0.706749 0.260540 0.345171
0.795739 0.264669 0.348974
0.835679 0.266525 0.350677
0.162429 0.338211 0.334648
0.261208 0.342769 0.338902
0.356145 0.347159 0.342977
0.449087 0.351466 0.346955
0.540680 0.355720 0.350863
0.631256 0.359935 0.354717
0.721022 0.364121 0.358524
0.810115 0.368284 0.362293
0.850101 0.370156 0.363981
0.176118 0.439496 0.347811
0.275009 0.444091 0.352027
0.370052 0.448517 0.356067
0.463099 0.452859 0.360010
0.554795 0.457147 0.363884
0.645475 0.461397 0.367703
0.735341 0.465616 0.371477
0.824534 0.469813 0.375212
0.864566 0.471699 0.376885
0.189943 0.539392 0.360666
0.288943 0.544024 0.364846
0.384092 0.548485 0.368850
0.477243 0.552862 0.372758
0.569041 0.557184 0.376598
0.659820 0.561467 0.380384
0.749787 0.565720 0.384125
0.839079 0.569950 0.387827
0.879155 0.571851 0.389485
0.203940 0.638260 0.373264
0.303049 0.642928 0.377408
0.398303 0.647424 0.381377
0.491556 0.651835 0.385251
0.583454 0.656191 0.389058
0.674333 0.660507 0.392811
0.764398 0.664793 0.396519
0.853788 0.669055 0.400188
0.893908 0.670970 0.401831
0.218132 0.736320 0.385637
0.317348 0.741024 0.389745
0.412705 0.745554 0.393680
0.506059 0.749999 0.397521
0.598058 0.754388 0.401294
0.689035 0.758736 0.405014
0.779198 0.763055 0.408689
0.868685 0.767349 0.412326
0.908848 0.769279 0.413955
0.232531 0.833719 0.397808
0.331854 0.838458 0.401880
0.427314 0.843023 0.405781
0.520769 0.847501 0.409588
0.612866 0.851923 0.413328
0.703941 0.856304 0.417015
0.794201 0.860655 0.420659
0.883784 0.864982 0.424264
0.923990 0.866926 0.425878
0.241274 0.891887 0.405020
0.340661 0.896648 0.409070
0.436182 0.901233 0.412951
0.529697 0.905731 0.416738
0.621853 0.910173 0.420459
0.712987 0.914574 0.424126
0.803304 0.918944 0.427750
0.892944 0.923289 0.431336
0.933176 0.925242 0.432942
0.136270 0.128788 0.393532
0.234828 0.133272 0.397860
0.329551 0.137592 0.402006
0.422285 0.141830 0.406053
0.513673 0.146015 0.410030
0.604047 0.150163 0.413951
0.693611 0.154282 0.417826
0.782504 0.158378 0.421661
0.822401 0.160220 0.423378
0.150105 0.236231 0.407766
0.248780 0.240754 0.412054
0.343618 0.245112 0.416163
0.436463 0.249387 0.420173
0.527961 0.253609 0.424113
0.618443 0.257793 0.427998
0.708116 0.261947 0.431837
0.797115 0.266080 0.435636
0.837060 0.267937 0.437337
0.163768 0.339609 0.421323
0.262558 0.344171 0.425573
0.357505 0.348565 0.429644
0.450458 0.352876 0.433619
0.542061 0.357133 0.437524
0.632648 0.361351 0.441374
0.722423 0.365541 0.445178
0.811526 0.369707 0.448943
0.851517 0.371580 0.450630
0.177491 0.440906 0.434474
0.276393 0.445504 0.438687
0.371447 0.449934 0.442723
0.464505 0.454280 0.446662
0.556211 0.458571 0.450533
0.646900 0.462824 0.454349
0.736777 0.467047 0.458120
0.825980 0.471247 0.461851
0.866016 0.473135 0.463522
0.191350 0.540814 0.447318
0.290361 0.545449 0.451494
0.385521 0.549914 0.455495
0.478682 0.554294 0.459400
0.570490 0.558620 0.463236
0.661280 0.562906 0.467019
0.751256 0.567162 0.470756
0.840558 0.571395 0.474455
0.880638 0.573297 0.476111
0.205381 0.639693 0.459905
0.304501 0.644364 0.464045
0.399765 0.648864 0.468011
0.493028 0.653278 0.471882
0.584937 0.657637 0.475685
0.675826 0.661957 0.479434
0.765901 0.666246 0.483139
0.855301 0.670511 0.486805
0.895425 0.672428 0.488446
0.219605 0.737763 0.472267
0.318833 0.742470 0.476371
0.414201 0.747005 0.480303
0.507565 0.751453 0.484140
0.599573 0.755845 0.487910
0.690561 0.760197 0.491626
0.780734 0.764519 0.495298
0.870230 0.768817 0.498932
0.910398 0.770748 0.500559
0.234037 0.835173 0.484427
0.333372 0.839916 0.488495
0.428842 0.844484 0.492393
0.522307 0.848966 0.496196
0.614414 0.853391 0.499933
0.705500 0.857776 0.503617
0.795770 0.862130 0.507257
0.885362 0.866460 0.510858
0.925573 0.868406 0.512471
0.242800 0.893348 0.491632
0.342198 0.898112 0.495679
0.437730 0.902701 0.499556
0.531254 0.907202 0.503340
0.623421 0.911647 0.507057
0.714565 0.916052 0.510721
0.804892 0.920425 0.514342
0.894542 0.924774 0.517924
0.934779 0.926728 0.519529
0.137530 0.130152 0.479477
0.236099 0.134640 0.483801
0.330833 0.138963 0.487944
0.423577 0.143204 0.491987
0.514974 0.147393 0.495961
0.605359 0.151544 0.499878
0.694933 0.155666 0.503750
0.783836 0.159766 0.507581
0.823737 0.161609 0.509297
0.151401 0.237607 0.493699
0.250087 0.242134 0.497983
0.344935 0.246495 0.502088
0.437791 0.250773 0.506095
0.529299 0.254998 0.510031
0.619791 0.259186 0.513913
0.709473 0.263344 0.517748
0.798483 0.267479 0.521544
0.838432 0.269338 0.523244
0.165099 0.340997 0.507244
0.263900 0.345562 0.511490
0.358857 0.349959 0.515558
0.451820 0.354274 0.519529
0.543433 0.358534 0.523431
0.634030 0.362756 0.527277
0.723816 0.366949 0.531079
0.812928 0.371118 0.534840
0.852924 0.372992 0.536525
0.178856 0.442304 0.520384
0.277768 0.446907 0.524593
0.372833 0.451340 0.528625
0.465901 0.455689 0.532561
0.557618 0.459984 0.536428
0.648317 0.464240 0.540241
0.738203 0.468466 0.544009
0.827416 0.472670 0.547737
0.867456 0.474559 0.549407
0.192748 0.542223 0.533216
0.291770 0.546862 0.537389
0.386941 0.551331 0.541386
0.480112 0.555714 0.545287
0.571930 0.560043 0.549121
0.662730 0.564333 0.552900
0.752716 0.568593 0.556634
0.842028 0.572829 0.560329
0.882113 0.574733 0.561984
0.206812 0.641113 0.545792
0.305943 0.645789 0.549928
0.401218 0.650292 0.553891
0.494491 0.654710 0.557758
0.586410 0.659072 0.561558
0.677309 0.663395 0.565304
0.767394 0.667687 0.569005
0.856804 0.671956 0.572668
0.896932 0.673874 0.574308
0.221069 0.739195 0.558144
0.320308 0.743906 0.562244
0.415686 0.748443 0.566172
0.509061 0.752895 0.570006
0.601079 0.757291 0.573772
0.692077 0.761646 0.577485
0.782260 0.765971 0.581154
0.871766 0.770272 0.584784
0.911938 0.772205 0.586410
0.235534 0.836616 0.570292
0.334879 0.841362 0.574357
0.430360 0.845934 0.578251
0.523835 0.850419 0.582051
0.615952 0.854848 0.585785
0.707048 0.859236 0.589465
0.797328 0.863593 0.593102
0.886930 0.867926 0.596700
0.927146 0.869874 0.598311
0.244316 0.894797 0.577491
0.343725 0.899565 0.581535
0.439267 0.904157 0.585408
0.532802 0.908662 0.589188
0.624979 0.913111 0.592902
0.716133 0.917518 0.596563
0.806470 0.921895 0.600180
0.896130 0.926247 0.603760
0.936371 0.928203 0.605362
0.138785 0.131508 0.564843
0.237364 0.135999 0.569163
0.332109 0.140326 0.573303
0.424863 0.144570 0.577343
0.516271 0.148762 0.581313
0.606665 0.152917 0.585227
0.696249 0.157042 0.589096
0.785162 0.161145 0.592924
0.825068 0.162990 0.594638
0.152691 0.238974 0.579053
0.251389 0.243505 0.583334
0.346247 0.247869 0.587435
0.439113 0.252151 0.591438
0.530631 0.256380 0.595372
0.621133 0.260571 0.599250
0.710825 0.264732 0.603082
0.799845 0.268871 0.606875
0.839798 0.270731 0.608574
0.166424 0.342376 0.592586
0.265236 0.346945 0.596829
0.360204 0.351346 0.600894
0.453177 0.355663 0.604861
0.544800 0.359927 0.608760
0.635407 0.364152 0.612603
0.725202 0.368348 0.616401
0.814325 0.372521 0.620159
0.854324 0.374397 0.621843
0.180215 0.443695 0.605715
0.279138 0.448301 0.609921
0.374213 0.452737 0.613950
0.467291 0.457090 0.617882
0.559018 0.461388 0.621746
0.649727 0.465648 0.625555
0.739624 0.469877 0.629320
0.828846 0.474084 0.633045
0.868891 0.475974 0.634713
0.194140 0.543625 0.618537
0.293173 0.548268 0.622705
0.388354 0.552739 0.626699
0.481535 0.557126 0.630597
0.573364 0.561459 0.634427
0.664173 0.565752 0.638203
0.754170 0.570014 0.641934
0.843491 0.574254 0.645626
0.883580 0.576159 0.647279
0.208237 0.642526 0.631102
0.307379 0.647205 0.635234
0.402664 0.651711 0.639193
0.495947 0.656133 0.643057
0.587876 0.660498 0.646854
0.678786 0.664824 0.650596
0.768880 0.669120 0.654294
0.858300 0.673392 0.657954
0.898433 0.675312 0.659593
0.222527 0.740618 0.643442
0.321776 0.745333 0.647539
0.417165 0.749874 0.651464
0.510550 0.754329 0.655294
0.602578 0.758728 0.659057
0.693586 0.763087 0.662767
0.783779 0.767415 0.666432
0.873295 0.771719 0.670059
0.913471 0.773654 0.671684
0.237024 0.838050 0.655580
0.336380 0.842800 0.659641
0.431871 0.847375 0.663532
0.525356 0.851864 0.667329
0.617484 0.856296 0.671059
0.708589 0.860687 0.674736
0.798879 0.865048 0.678369
0.888491 0.869384 0.681964
0.928711 0.871333 0.683574
0.245825 0.896237 0.662773
0.345245 0.901009 0.666813
0.440797 0.905605 0.670683
0.534343 0.910113 0.674459
0.626529 0.914565 0.678170
0.717693 0.918976 0.681827
0.808041 0.923356 0.685441
0.897710 0.927711 0.689017
0.937956 0.929669 0.690619
0.140036 0.132857 0.649740
0.238626 0.137352 0.654057
0.333381 0.141682 0.658193
0.426146 0.145930 0.662230
0.517563 0.150126 0.666196
0.607967 0.154283 0.670108
0.697561 0.158412 0.673973
0.786484 0.162518 0.677798
0.826394 0.164364 0.679511
0.153978 0.240335 0.663938
0.252686 0.244870 0.668215
0.347555 0.249238 0.672313
0.440431 0.253523 0.676313
0.531959 0.257755 0.680243
0.622471 0.261949 0.684118
0.712173 0.266114 0.687947
0.801203 0.270256 0.691737
0.841160 0.272117 0.693434
0.167745 0.343748 0.677460
0.266568 0.348321 0.681699
0.361546 0.352725 0.685761
0.454529 0.357046 0.689725
0.546162 0.361314 0.693620
0.636779 0.365542 0.697460
0.726585 0.369741 0.701254
0.815716 0.373917 0.705010
0.855720 0.375794 0.706692
0.181570 0.445079 0.690578
0.280504 0.449688 0.694780
0.375589 0.454128 0.698806
0.468677 0.458484 0.702735
0.560414 0.462786 0.706595
0.651133 0.467049 0.710401
0.741039 0.471282 0.714162
0.830272 0.475491 0.717884
0.870321 0.477383 0.719551
0.195528 0.545020 0.703388
0.294572 0.549666 0.707554
0.389763 0.554141 0.711544
0.482954 0.558532 0.715439
0.574793 0.562867 0.719265
0.665612 0.567164 0.723038
0.755619 0.571430 0.726765
0.844950 0.575672 0.730454
0.885043 0.577579 0.732106
0.209657 0.643932 0.715943
0.308810 0.648614 0.720072
0.404105 0.653124 0.724027
0.497399 0.657549 0.727888
0.589338 0.661918 0.731681
0.680257 0.666247 0.735420
0.770362 0.670546 0.739115
0.859791 0.674822 0.742771
0.899928 0.676743 0.744408
0.223979 0.742035 0.728272
0.323240 0.746753 0.732366
0.418639 0.751298 0.736287
0.512034 0.755756 0.740114
0.604072 0.760158 0.743873
0.695090 0.764520 0.747580
0.785292 0.768852 0.751242
0.874818 0.773159 0.754866
0.914999 0.775095 0.756489
0.238508 0.839477 0.740400
0.337875 0.844231 0.744457
0.433377 0.848810 0.748344
0.526872 0.853302 0.752138
0.619010 0.857737 0.755864
0.710126 0.862132 0.759538
0.800425 0.866496 0.763168
0.890047 0.870835 0.766760
0.930271 0.872785 0.768368
0.247329 0.897671 0.747586
0.346760 0.902446 0.751622
0.442323 0.907046 0.755488
0.535878 0.911557 0.759262
0.628075 0.916012 0.762969
0.719248 0.920427 0.766623
0.809606 0.924810 0.770234
0.899285 0.929168 0.773807
0.939535 0.931127 0.775407
0.141285 0.134202 0.734243
0.239885 0.138700 0.738556
0.334651 0.143033 0.742689
0.427425 0.147285 0.746722
0.518853 0.151484 0.750686
0.609267 0.155644 0.754594
0.698871 0.159777 0.758455
0.787803 0.163886 0.762277
0.827717 0.165733 0.763989
0.155262 0.241691 0.748430
0.253981 0.246230 0.752703
0.348860 0.250601 0.756798
0.441747 0.254890 0.760794
0.533284 0.259125 0.764721
0.623807 0.263322 0.768592
0.713518 0.267490 0.772418
0.802557 0.271635 0.776204
0.842519 0.273498 0.777900
0.169063 0.345116 0.761940
0.267897 0.349692 0.766176
0.362885 0.354100 0.770234
0.455879 0.358424 0.774194
0.547522 0.362695 0.778086
0.638149 0.366927 0.781923
0.727964 0.371129 0.785714
0.817105 0.375308 0.789466
0.857113 0.377187 0.791146
0.182921 0.446457 0.775047
0.281866 0.451070 0.779245
0.376962 0.455514 0.783267
0.470060 0.459873 0.787193
0.561807 0.464178 0.791050
0.652536 0.468444 0.794853
0.742452 0.472680 0.798610
0.831694 0.476893 0.802329
0.871747 0.478787 0.803994
0.196912 0.546409 0.787846
0.295967 0.551059 0.792008
0.391168 0.555538 0.795995
0.484370 0.559932 0.799886
0.576218 0.564271 0.803709
0.667048 0.568570 0.807478
0.757064 0.572840 0.811203
0.846405 0.577085 0.814888
0.886502 0.578994 0.816539
0.211074 0.645332 0.800389
0.310237 0.650018 0.804515
0.405543 0.654532 0.808467
0.498847 0.658960 0.812324
0.590796 0.663332 0.816114
0.681725 0.667665 0.819850
0.771840 0.671967 0.823542
0.861278 0.676245 0.827194
0.901420 0.678168 0.828830
0.225429 0.743446 0.812709
0.324700 0.748168 0.816798
0.420109 0.752716 0.820716
0.513514 0.757177 0.824539
0.605563 0.761583 0.828296
0.696590 0.765948 0.831999
0.786802 0.770283 0.835658
0.876338 0.774594 0.839279
0.916523 0.776531 0.840900
0.239990 0.840899 0.824825
0.339367 0.845656 0.828879
0.434879 0.850239 0.832763
0.528385 0.854734 0.836553
0.620532 0.859172 0.840276
0.711658 0.863570 0.843947
0.801967 0.867938 0.847573
0.891599 0.872280 0.851162
0.931827 0.874232 0.852769
0.248829 0.899099 0.832005
0.348271 0.903878 0.836037
0.443844 0.908481 0.839901
0.537409 0.912996 0.843671
0.629616 0.917454 0.847374
0.720800 0.921872 0.851025
0.811167 0.926258 0.854633
0.900856 0.930620 0.858202
0.941110 0.932580 0.859801
0.142125 0.135104 0.790959
0.240732 0.139605 0.795270
0.335505 0.143941 0.799400
0.428286 0.148195 0.803431
0.519720 0.152396 0.807392
0.610141 0.156559 0.811298
0.699751 0.160693 0.815158
0.788690 0.164805 0.818977
0.828607 0.166653 0.820688
0.156126 0.242602 0.805138
0.254852 0.247143 0.809409
0.349738 0.251516 0.813501
0.442631 0.255807 0.817495
0.534175 0.260045 0.821419
0.624704 0.264244 0.825289
0.714423 0.268414 0.829113
0.803468 0.272562 0.832897
0.843433 0.274426 0.834591
0.169950 0.346034 0.818641
0.268790 0.350613 0.822874
0.363786 0.355023 0.826929
0.456786 0.359350 0.830888
0.548436 0.363622 0.834777
0.639069 0.367856 0.838612
0.728891 0.372061 0.842401
0.818039 0.376243 0.846151
0.858050 0.378122 0.847830
0.183830 0.447383 0.831740
0.282782 0.451999 0.835935
0.377885 0.456444 0.839955
0.470990 0.460806 0.843879
0.562743 0.465113 0.847734
0.653479 0.469381 0.851534
0.743402 0.473620 0.855290
0.832650 0.477835 0.859006
0.872706 0.479729 0.860670
0.197843 0.547342 0.844532
0.296905 0.551995 0.848691
0.392114 0.556476 0.852676
0.485322 0.560872 0.856565
0.577177 0.565213 0.860385
0.668013 0.569515 0.864153
0.758036 0.573786 0.867875
0.847383 0.578034 0.871558
0.887484 0.579944 0.873208
0.212027 0.646273 0.857068
0.311198 0.650961 0.861191
0.406510 0.655477 0.865141
0.499821 0.659907 0.868996
0.591777 0.664282 0.872783
0.682712 0.668617 0.876517
0.772833 0.672921 0.880206
0.862279 0.677202 0.883857
0.902423 0.679126 0.885492
0.226403 0.744393 0.869380
0.325681 0.749118 0.873467
0.421098 0.753668 0.877382
0.514509 0.758132 0.881203
0.606565 0.762540 0.884957
0.697599 0.766908 0.888659
0.787818 0.771245 0.892315
0.877360 0.775557 0.895934
0.917548 0.777496 0.897554
0.240986 0.841854 0.881489
0.340371 0.846614 0.885541
0.435889 0.851198 0.889422
0.529402 0.855695 0.893210
0.621556 0.860136 0.896931
0.712688 0.864537 0.900599
0.803004 0.868906 0.904224
0.892642 0.873251 0.907810
0.932873 0.875204 0.909416
0.249838 0.900058 0.888664
0.349287 0.904840 0.892695
0.444867 0.909445 0.896556
0.538439 0.913962 0.900323
0.630652 0.918423 0.904025
0.721843 0.922842 0.907674
0.812216 0.927231 0.911279
0.901912 0.931595 0.914846
0.942169 0.933556 0.916444
