LUTs/03_Portra_Soft.cube
TITLE "Portra Soft"
# Nikon D5500 + Sigma 17-50 - subtle creative look (apply ~20-40%)
LUT_3D_SIZE 5
DOMAIN_MIN 0.0 0.0 0.0
DOMAIN_MAX 1.0 1.0 1.0
0.132418 0.124603 0.129313
0.325633 0.133384 0.137809
0.509692 0.141787 0.145853
0.689569 0.150033 0.153670
0.818315 0.155956 0.159237
0.159698 0.335351 0.157176
0.353369 0.344285 0.165520
0.537862 0.352832 0.173420
0.718163 0.361219 0.181095
0.847213 0.367243 0.186561
0.187073 0.536486 0.183240
0.381178 0.545564 0.191439
0.566084 0.554249 0.199201
0.746789 0.562771 0.206742
0.876127 0.568892 0.212111
0.215126 0.733368 0.208257
0.409655 0.742588 0.216315
0.594965 0.751407 0.223942
0.776064 0.760061 0.231351
0.905684 0.766275 0.236627
0.238161 0.888900 0.227675
0.433024 0.898231 0.235621
0.618653 0.907157 0.243143
0.800063 0.915914 0.250448
0.929906 0.922202 0.255650
0.135003 0.127414 0.306834
0.328262 0.136210 0.315315
0.512363 0.144626 0.323346
0.692281 0.152886 0.331148
0.821057 0.158819 0.336705
0.162429 0.338211 0.334648
0.356145 0.347159 0.342977
0.540680 0.355720 0.350863
0.721022 0.364121 0.358524
0.850101 0.370156 0.363981
0.189943 0.539392 0.360666
0.384092 0.548485 0.368850
0.569041 0.557184 0.376598
0.749787 0.565720 0.384125
0.879155 0.571851 0.389485
0.218132 0.736320 0.385637
0.412705 0.745554 0.393680
0.598058 0.754388 0.401294
0.779198 0.763055 0.408689
0.908848 0.769279 0.413955
0.241274 0.891887 0.405020
0.436182 0.901233 0.412951
0.621853 0.910173 0.420459
0.803304 0.918944 0.427750
0.933176 0.925242 0.432942
0.137530 0.130152 0.479477
0.330833 0.138963 0.487944
0.514974 0.147393 0.495961
0.694933 0.155666 0.503750
0.823737 0.161609 0.509297
0.165099 0.340997 0.507244
0.358857 0.349959 0.515558
0.543433 0.358534 0.523431
0.723816 0.366949 0.531079
0.852924 0.372992 0.536525
0.192748 0.542223 0.533216
0.386941 0.551331 0.541386
0.571930 0.560043 0.549121
0.752716 0.568593 0.556634
0.882113 0.574733 0.561984
0.221069 0.739195 0.558144
0.415686 0.748443 0.566172
0.601079 0.757291 0.573772
0.782260 0.765971 0.581154
0.911938 0.772205 0.586410
0.244316 0.894797 0.577491
0.439267 0.904157 0.585408
0.624979 0.913111 0.592902
0.806470 0.921895 0.600180
0.936371 0.928203 0.605362
0.140036 0.132857 0.649740
0.333381 0.141682 0.658193
0.517563 0.150126 0.666196
0.697561 0.158412 0.673973
0.826394 0.164364 0.679511
0.167745 0.343748 0.677460
0.361546 0.352725 0.685761
0.546162 0.361314 0.693620
0.726585 0.369741 0.701254
0.855720 0.375794 0.706692
0.195528 0.545020 0.703388
0.389763 0.554141 0.711544
0.574793 0.562867 0.719265
0.755619 0.571430 0.726765
0.885043 0.577579 0.732106
0.223979 0.742035 0.728272
0.418639 0.751298 0.736287
0.604072 0.760158 0.743873
0.785292 0.768852 0.751242
0.914999 0.775095 0.756489
0.247329 0.897671 0.747586
0.442323 0.907046 0.755488
0.628075 0.916012 0.762969
0.809606 0.924810 0.770234
0.939535 0.931127 0.775407
0.142125 0.135104 0.790959
0.335505 0.143941 0.799400
0.519720 0.152396 0.807392
0.699751 0.160693 0.815158
0.828607 0.166653 0.820688
0.169950 0.346034 0.818641
0.363786 0.355023 0.826929
0.548436 0.363622 0.834777
0.728891 0.372061 0.842401
0.858050 0.378122 0.847830
0.197843 0.547342 0.844532
0.392114 0.556476 0.852676
0.577177 0.565213 0.860385
0.758036 0.573786 0.867875
0.887484 0.579944 0.873208
0.226403 0.744393 0.869380
0.421098 0.753668 0.877382
0.606565 0.762540 0.884957
0.787818 0.771245 0.892315
0.917548 0.777496 0.897554
0.249838 0.900058 0.888664
0.444867 0.909445 0.896556
0.630652 0.918423 0.904025
0.812216 0.927231 0.911279
0.942169 0.933556 0.916444
