LUTs/03_Portra_Soft.cube
TITLE "Portra Soft"
# Nikon D5500 + Sigma 17-50 - subtle creative look (apply ~20-40%)
LUT_3D_SIZE 33
DOMAIN_MIN 0.0 0.0 0.0
DOMAIN_MAX 1.0 1.0 1.0
0.132418 0.124603 0.129313
0.157662 0.125748 0.130426
0.182408 0.126871 0.131516
0.206808 0.127979 0.132590
0.230942 0.129076 0.133652
0.254861 0.130163 0.134703
0.278600 0.131243 0.135745
0.302184 0.132316 0.136780
0.325633 0.133384 0.137809
0.348961 0.134447 0.138831
0.372182 0.135506 0.139848
0.395303 0.136560 0.140859
0.418335 0.137612 0.141866
0.441284 0.138660 0.142869
0.464157 0.139705 0.143868
0.486958 0.140747 0.144862
0.509692 0.141787 0.145853
0.532363 0.142824 0.146841
0.554975 0.143859 0.147825
0.577531 0.144893 0.148807
0.600035 0.145924 0.149785
0.622488 0.146954 0.150760
0.644893 0.147981 0.151733
0.667253 0.149008 0.152703
0.689569 0.150033 0.153670
0.711843 0.151056 0.154635
0.734077 0.152078 0.155597
0.756273 0.153099 0.156557
0.778432 0.154119 0.157515
0.800555 0.155138 0.158470
0.818315 0.155956 0.159237
0.818315 0.155956 0.159237
0.818315 0.155956 0.159237
0.135897 0.152106 0.132981
0.161148 0.153254 0.134092
0.185902 0.154380 0.135179
0.210309 0.155490 0.136251
0.234450 0.156589 0.137310
0.258377 0.157679 0.138359
0.282123 0.158761 0.139399
0.305715 0.159837 0.140431
0.329171 0.160908 0.141457
0.352507 0.161973 0.142477
0.375734 0.163034 0.143492
0.398863 0.164091 0.144501
0.421902 0.165145 0.145506
0.444858 0.166195 0.146506
0.467737 0.167242 0.147502
0.490545 0.168287 0.148494
0.513286 0.169329 0.149483
0.535965 0.170369 0.150469
0.558584 0.171406 0.151451
0.581147 0.172442 0.152429
0.603657 0.173475 0.153405
0.626117 0.174507 0.154378
0.648530 0.175538 0.155349
0.670896 0.176566 0.156316
0.693219 0.177593 0.157281
0.715500 0.178619 0.158244
0.737741 0.179644 0.159204
0.759944 0.180667 0.160161
0.782109 0.181689 0.161117
0.804239 0.182710 0.162070
0.822005 0.183530 0.162835
0.822005 0.183530 0.162835
0.822005 0.183530 0.162835
0.139332 0.179080 0.136570
0.164591 0.180230 0.137678
0.189353 0.181359 0.138763
0.213767 0.182472 0.139832
0.237916 0.183573 0.140888
0.261849 0.184665 0.141935
0.285603 0.185750 0.142973
0.309202 0.186828 0.144003
0.332665 0.187901 0.145026
0.356007 0.188969 0.146044
0.379242 0.190032 0.147056
0.402378 0.191091 0.148063
0.425424 0.192147 0.149065
0.448387 0.193200 0.150063
0.471273 0.194250 0.151057
0.494088 0.195296 0.152047
0.516836 0.196341 0.153034
0.539521 0.197383 0.154017
0.562147 0.198423 0.154996
0.584717 0.199461 0.155973
0.607234 0.200497 0.156947
0.629701 0.201531 0.157917
0.652120 0.202563 0.158885
0.674493 0.203594 0.159851
0.696823 0.204624 0.160814
0.719110 0.205652 0.161774
0.741358 0.206678 0.162732
0.763567 0.207704 0.163687
0.785740 0.208728 0.164640
0.807876 0.209751 0.165591
0.825647 0.210573 0.166354
0.825647 0.210573 0.166354
0.825647 0.210573 0.166354
0.142743 0.205685 0.140100
0.168010 0.206838 0.141205
0.192779 0.207969 0.142288
0.217201 0.209084 0.143355
0.241356 0.210188 0.144409
0.265297 0.211283 0.145453
0.289058 0.212370 0.146488
0.312664 0.213450 0.147516
0.336134 0.214525 0.148537
0.359483 0.215595 0.149553
0.382725 0.216661 0.150562
0.405867 0.217723 0.151567
0.428920 0.218781 0.152567
0.451890 0.219836 0.153563
0.474783 0.220887 0.154554
0.497605 0.221937 0.155542
0.520360 0.222983 0.156526
0.543051 0.224028 0.157507
0.565684 0.225070 0.158485
0.588261 0.226110 0.159459
0.610785 0.227148 0.160430
0.633258 0.228184 0.161399
0.655684 0.229219 0.162365
0.678064 0.230252 0.163328
0.700400 0.231284 0.164288
0.722695 0.232314 0.165246
0.744949 0.233343 0.166202
0.767165 0.234371 0.167155
0.789344 0.235397 0.168106
0.811487 0.236423 0.169055
0.829263 0.237246 0.169816
0.829263 0.237246 0.169816
0.829263 0.237246 0.169816
0.146141 0.232008 0.143584
0.171416 0.233163 0.144687
0.196192 0.234296 0.145767
0.220620 0.235414 0.146831
0.244783 0.236520 0.147883
0.268731 0.237618 0.148925
0.292499 0.238707 0.149958
0.316112 0.239790 0.150983
0.339589 0.240867 0.152002
0.362945 0.241939 0.153015
0.386193 0.243007 0.154023
0.409343 0.244071 0.155025
0.432402 0.245132 0.156023
0.455379 0.246189 0.157016
0.478279 0.247243 0.158006
0.501107 0.248294 0.158991
0.523869 0.249343 0.159973
0.546567 0.250390 0.160952
0.569207 0.251434 0.161927
0.591790 0.252476 0.162899
0.614320 0.253517 0.163868
0.636801 0.254555 0.164835
0.659233 0.255592 0.165798
0.681619 0.256628 0.166759
0.703962 0.257661 0.167718
0.726263 0.258694 0.168673
0.748524 0.259725 0.169627
0.770746 0.260755 0.170578
0.792932 0.261783 0.171527
0.815081 0.262811 0.172473
0.832863 0.263636 0.173233
0.832863 0.263636 0.173233
0.832863 0.263636 0.173233
0.149532 0.258103 0.147029
0.174814 0.259261 0.148129
0.199597 0.260397 0.149207
0.224033 0.261517 0.150269
0.248203 0.262625 0.151318
0.272158 0.263725 0.152358
0.295932 0.264816 0.153389
0.319552 0.265902 0.154412
0.343036 0.266981 0.155428
0.366399 0.268056 0.156439
0.389654 0.269126 0.157444
0.412810 0.270192 0.158444
0.435877 0.271255 0.159440
0.458860 0.272314 0.160431
0.481767 0.273371 0.161418
0.504602 0.274424 0.162402
0.527370 0.275475 0.163381
0.550075 0.276524 0.164358
0.572721 0.277570 0.165331
0.595311 0.278615 0.166301
0.617848 0.279658 0.167268
0.640334 0.280698 0.168232
0.662773 0.281737 0.169193
0.685166 0.282775 0.170152
0.707516 0.283811 0.171108
0.729823 0.284846 0.172062
0.752090 0.285879 0.173013
0.774319 0.286911 0.173962
0.796511 0.287942 0.174909
0.818667 0.288971 0.175853
0.836454 0.289798 0.176611
0.836454 0.289798 0.176611
0.836454 0.289798 0.176611
0.152920 0.284009 0.150440
0.178209 0.285169 0.151538
0.202999 0.286307 0.152614
0.227442 0.287429 0.153673
0.251619 0.288540 0.154720
0.275581 0.289642 0.155757
0.299362 0.290736 0.156786
0.322989 0.291823 0.157807
0.346480 0.292905 0.158821
0.369850 0.293982 0.159829
0.393111 0.295054 0.160832
0.416274 0.296123 0.161830
0.439347 0.297188 0.162824
0.462337 0.298249 0.163813
0.485251 0.299308 0.164798
0.508092 0.300364 0.165779
0.530867 0.301417 0.166756
0.553578 0.302468 0.167730
0.576231 0.303517 0.168701
0.598828 0.304563 0.169669
0.621371 0.305608 0.170634
0.643864 0.306651 0.171596
0.666310 0.307692 0.172555
0.688709 0.308732 0.173512
0.711065 0.309770 0.174466
0.733379 0.310807 0.175417
0.755653 0.311842 0.176366
0.777888 0.312876 0.177313
0.800086 0.313909 0.178258
0.822249 0.314941 0.179200
0.840040 0.315770 0.179956
0.840040 0.315770 0.179956
0.840040 0.315770 0.179956
0.156308 0.309751 0.153822
0.181604 0.310913 0.154917
0.206402 0.312054 0.155990
0.230852 0.313179 0.157047
0.255036 0.314292 0.158092
0.279004 0.315396 0.159127
0.302793 0.316492 0.160153
0.326426 0.317582 0.161172
0.349923 0.318666 0.162184
0.373300 0.319745 0.163190
0.396568 0.320820 0.164191
0.419738 0.321890 0.165186
0.442818 0.322957 0.166177
0.465814 0.324021 0.167164
0.488734 0.325082 0.168147
0.511582 0.326140 0.169126
0.534363 0.327195 0.170101
0.557082 0.328249 0.171073
0.579741 0.329299 0.172042
0.602344 0.330348 0.173008
0.624894 0.331395 0.173970
0.647393 0.332440 0.174930
0.669845 0.333484 0.175887
0.692251 0.334525 0.176842
0.714613 0.335566 0.177794
0.736934 0.336605 0.178743
0.759214 0.337642 0.179690
0.781455 0.338678 0.180635
0.803660 0.339714 0.181577
0.825829 0.340747 0.182517
0.843626 0.341578 0.183272
0.843626 0.341578 0.183272
0.843626 0.341578 0.183272
0.159698 0.335351 0.157176
0.185002 0.336516 0.158269
0.209807 0.337659 0.159340
0.234264 0.338786 0.160394
0.258454 0.339901 0.161437
0.282430 0.341008 0.162469
0.306225 0.342106 0.163493
0.329865 0.343198 0.164510
0.353369 0.344285 0.165520
0.376753 0.345366 0.166524
0.400028 0.346443 0.167522
0.423204 0.347516 0.168516
0.446290 0.348585 0.169504
0.469293 0.349651 0.170489
0.492220 0.350714 0.171470
0.515074 0.351774 0.172446
0.537862 0.352832 0.173420
0.560587 0.353887 0.174390
0.583252 0.354940 0.175356
0.605862 0.355991 0.176320
0.628418 0.357040 0.177280
0.650924 0.358087 0.178238
0.673382 0.359133 0.179193
0.695795 0.360177 0.180145
0.718163 0.361219 0.181095
0.740490 0.362260 0.182042
0.762777 0.363300 0.182987
0.785025 0.364338 0.183930
0.807236 0.365375 0.184870
0.829411 0.366411 0.185808
0.847213 0.367243 0.186561
0.847213 0.367243 0.186561
0.847213 0.367243 0.186561
0.163093 0.360825 0.160505
0.188404 0.361993 0.161596
0.213216 0.363138 0.162664
0.237680 0.364267 0.163717
0.261877 0.365385 0.164757
0.285860 0.366494 0.165787
0.309662 0.367594 0.166809
0.333308 0.368689 0.167823
0.356819 0.369777 0.168831
0.380209 0.370861 0.169833
0.403491 0.371940 0.170829
0.426674 0.373015 0.171820
0.449767 0.374086 0.172807
0.472776 0.375154 0.173789
0.495709 0.376219 0.174768
0.518570 0.377282 0.175742
0.541364 0.378342 0.176713
0.564096 0.379399 0.177681
0.586767 0.380454 0.178646
0.609383 0.381507 0.179607
0.631946 0.382559 0.180565
0.654459 0.383608 0.181521
0.676923 0.384656 0.182474
0.699342 0.385702 0.183424
0.721717 0.386746 0.184371
0.744050 0.387789 0.185317
0.766343 0.388831 0.186259
0.788597 0.389872 0.187200
0.810814 0.390911 0.188138
0.832996 0.391949 0.189074
0.850803 0.392783 0.189825
0.850803 0.392783 0.189825
0.850803 0.392783 0.189825
0.166494 0.386187 0.163812
0.191812 0.387356 0.164900
0.216631 0.388504 0.165966
0.241102 0.389636 0.167016
0.265306 0.390756 0.168054
0.289295 0.391867 0.169082
0.313104 0.392970 0.170102
0.336757 0.394066 0.171114
0.360275 0.395157 0.172119
0.383671 0.396243 0.173119
0.406960 0.397324 0.174113
0.430149 0.398401 0.175102
0.453248 0.399475 0.176086
0.476265 0.400545 0.177067
0.499204 0.401612 0.178043
0.522071 0.402677 0.179015
0.544872 0.403739 0.179984
0.567610 0.404798 0.180950
0.590288 0.405856 0.181912
0.612910 0.406911 0.182871
0.635480 0.407964 0.183828
0.657998 0.409016 0.184781
0.680469 0.410065 0.185732
0.702894 0.411114 0.186680
0.725275 0.412160 0.187625
0.747615 0.413206 0.188568
0.769914 0.414249 0.189509
0.792175 0.415292 0.190448
0.814398 0.416333 0.191384
0.836586 0.417374 0.192318
0.854398 0.418209 0.193067
0.854398 0.418209 0.193067
0.854398 0.418209 0.193067
0.169902 0.411446 0.167097
0.195227 0.412618 0.168183
0.220052 0.413768 0.169247
0.244530 0.414902 0.170295
0.268742 0.416024 0.171330
0.292737 0.417138 0.172356
0.316553 0.418243 0.173373
0.340213 0.419342 0.174383
0.363737 0.420434 0.175386
0.387140 0.421522 0.176383
0.410435 0.422606 0.177375
0.433631 0.423685 0.178362
0.456737 0.424761 0.179345
0.479759 0.425833 0.180323
0.502705 0.426903 0.181297
0.525579 0.427970 0.182267
0.548386 0.429034 0.183234
0.571130 0.430095 0.184197
0.593815 0.431155 0.185158
0.616444 0.432212 0.186115
0.639019 0.433268 0.187069
0.661544 0.434321 0.188020
0.684021 0.435373 0.188969
0.706453 0.436423 0.189915
0.728840 0.437472 0.190858
0.751186 0.438519 0.191799
0.773491 0.439565 0.192738
0.795758 0.440610 0.193674
0.817988 0.441654 0.194608
0.840182 0.442696 0.195540
0.857999 0.443533 0.196288
0.857999 0.443533 0.196288
0.857999 0.443533 0.196288
0.173317 0.436613 0.170362
0.198649 0.437787 0.171446
0.223482 0.438939 0.172507
0.247967 0.440075 0.173553
0.272185 0.441200 0.174586
0.296187 0.442315 0.175609
0.320009 0.443423 0.176624
0.343676 0.444524 0.177632
0.367207 0.445619 0.178633
0.390617 0.446709 0.179628
0.413918 0.447795 0.180618
0.437120 0.448876 0.181603
0.460233 0.449954 0.182583
0.483262 0.451029 0.183559
0.506214 0.452100 0.184531
0.529094 0.453169 0.185499
0.551908 0.454235 0.186464
0.574658 0.455299 0.187425
0.597349 0.456361 0.188383
0.619984 0.457420 0.189338
0.642566 0.458478 0.190290
0.665098 0.459534 0.191239
0.687581 0.460588 0.192186
0.710019 0.461640 0.193130
0.732412 0.462691 0.194071
0.754764 0.463740 0.195010
0.777076 0.464788 0.195946
0.799349 0.465835 0.196881
0.821585 0.466880 0.197813
0.843785 0.467925 0.198742
0.861607 0.468764 0.199488
0.861607 0.468764 0.199488
0.861607 0.468764 0.199488
0.176741 0.461694 0.173608
0.202081 0.462870 0.174689
0.226920 0.464025 0.175748
0.251412 0.465163 0.176792
0.275637 0.466290 0.177823
0.299646 0.467408 0.178844
0.323475 0.468518 0.179857
0.347148 0.469621 0.180862
0.370685 0.470718 0.181861
0.394102 0.471810 0.182854
0.417409 0.472898 0.183841
0.440618 0.473982 0.184824
0.463737 0.475062 0.185802
0.486773 0.476139 0.186776
0.509731 0.477212 0.187746
0.532618 0.478283 0.188712
0.555438 0.479352 0.189674
0.578194 0.480418 0.190633
0.600892 0.481481 0.191589
0.623533 0.482543 0.192542
0.646121 0.483603 0.193492
0.668659 0.484660 0.194439
0.691149 0.485716 0.195384
0.713593 0.486771 0.196326
0.735993 0.487824 0.197265
0.758351 0.488875 0.198202
0.780669 0.489925 0.199136
0.802948 0.490974 0.200068
0.825190 0.492022 0.200998
0.847397 0.493068 0.201926
0.865224 0.493909 0.202670
0.865224 0.493909 0.202670
0.865224 0.493909 0.202670
0.180175 0.486696 0.176836
0.205521 0.487875 0.177915
0.230368 0.489032 0.178971
0.254866 0.490173 0.180012
0.279098 0.491302 0.181041
0.303114 0.492422 0.182060
0.326949 0.493534 0.183071
0.350629 0.494639 0.184074
0.374173 0.495738 0.185071
0.397596 0.496833 0.186061
0.420910 0.497923 0.187047
0.444125 0.499009 0.188027
0.467250 0.500091 0.189003
0.490292 0.501170 0.189975
0.513257 0.502246 0.190943
0.536151 0.503319 0.191906
0.558977 0.504389 0.192867
0.581740 0.505457 0.193824
0.604443 0.506523 0.194778
0.627091 0.507587 0.195729
0.649685 0.508648 0.196676
0.672229 0.509708 0.197621
0.694725 0.510766 0.198564
0.717176 0.511823 0.199504
0.739582 0.512878 0.200441
0.761946 0.513931 0.201375
0.784270 0.514984 0.202308
0.806556 0.516035 0.203238
0.828804 0.517084 0.204166
0.851017 0.518133 0.205091
0.868849 0.518975 0.205834
0.868849 0.518975 0.205834
0.868849 0.518975 0.205834
0.183619 0.511625 0.180046
0.208972 0.512807 0.181123
0.233825 0.513965 0.182177
0.258330 0.515109 0.183216
0.282569 0.516240 0.184243
0.306591 0.517362 0.185259
0.330433 0.518476 0.186268
0.354120 0.519584 0.187269
0.377670 0.520685 0.188263
0.401099 0.521782 0.189252
0.424420 0.522874 0.190235
0.447642 0.523962 0.191213
0.470774 0.525047 0.192187
0.493822 0.526128 0.193157
0.516793 0.527206 0.194122
0.539693 0.528281 0.195084
0.562525 0.529353 0.196042
0.585295 0.530423 0.196997
0.608005 0.531491 0.197949
0.630658 0.532557 0.198898
0.653259 0.533621 0.199843
0.675809 0.534683 0.200786
0.698312 0.535743 0.201727
0.720768 0.536802 0.202664
0.743180 0.537859 0.203599
0.765551 0.538914 0.204532
0.787881 0.539969 0.205462
0.810173 0.541022 0.206391
0.832427 0.542073 0.207316
0.854646 0.543124 0.208240
0.872483 0.543968 0.208981
0.872483 0.543968 0.208981
0.872483 0.543968 0.208981
0.187073 0.536486 0.183240
0.212433 0.537670 0.184314
0.237293 0.538831 0.185366
0.261805 0.539977 0.186403
0.286050 0.541110 0.187427
0.310080 0.542235 0.188442
0.333928 0.543351 0.189448
0.357621 0.544461 0.190447
0.381178 0.545564 0.191439
0.404614 0.546663 0.192425
0.427941 0.547758 0.193407
0.451169 0.548848 0.194383
0.474307 0.549934 0.195354
0.497362 0.551017 0.196322
0.520339 0.552097 0.197285
0.543245 0.553175 0.198245
0.566084 0.554249 0.199201
0.588860 0.555322 0.200154
0.611576 0.556392 0.201104
0.634236 0.557459 0.202050
0.656843 0.558525 0.202994
0.679399 0.559589 0.203935
0.701908 0.560652 0.204873
0.724370 0.561712 0.205809
0.746789 0.562771 0.206742
0.769166 0.563829 0.207672
0.791502 0.564885 0.208601
0.813800 0.565940 0.209527
0.836061 0.566994 0.210450
0.858285 0.568047 0.211372
0.876127 0.568892 0.212111
0.876127 0.568892 0.212111
0.876127 0.568892 0.212111
0.190538 0.561284 0.186418
0.215905 0.562470 0.187490
0.240772 0.563633 0.188540
0.265291 0.564781 0.189574
0.289543 0.565917 0.190596
0.313578 0.567043 0.191608
0.337433 0.568162 0.192612
0.361133 0.569274 0.193609
0.384696 0.570380 0.194599
0.408139 0.571481 0.195583
0.431472 0.572577 0.196562
0.454707 0.573669 0.197536
0.477851 0.574758 0.198506
0.500912 0.575843 0.199471
0.523896 0.576925 0.200433
0.546808 0.578005 0.201390
0.569653 0.579082 0.202344
0.592435 0.580156 0.203295
0.615158 0.581228 0.204243
0.637824 0.582298 0.205187
0.660437 0.583366 0.206129
0.683000 0.584432 0.207068
0.705515 0.585496 0.208004
0.727983 0.586559 0.208937
0.750408 0.587620 0.209868
0.772791 0.588680 0.210797
0.795134 0.589738 0.211723
0.817437 0.590795 0.212647
0.839704 0.591851 0.213569
0.861935 0.592906 0.214488
0.879782 0.593753 0.215226
0.879782 0.593753 0.215226
0.879782 0.593753 0.215226
0.194014 0.586021 0.189580
0.219388 0.587210 0.190650
0.244262 0.588376 0.191697
0.268788 0.589526 0.192729
0.293046 0.590664 0.193749
0.317088 0.591792 0.194760
0.340950 0.592913 0.195761
0.364656 0.594027 0.196756
0.388226 0.595135 0.197744
0.411675 0.596238 0.198726
0.435015 0.597337 0.199703
0.458256 0.598431 0.200675
0.481406 0.599522 0.201642
0.504474 0.600609 0.202605
0.527464 0.601694 0.203564
0.550382 0.602775 0.204520
0.573234 0.603854 0.205472
0.596022 0.604930 0.206421
0.618751 0.606005 0.207366
0.641423 0.607077 0.208309
0.664043 0.608147 0.209248
0.686611 0.609215 0.210185
0.709132 0.610281 0.211119
0.731607 0.611346 0.212051
0.754038 0.612409 0.212979
0.776427 0.613471 0.213906
0.798776 0.614531 0.214830
0.821086 0.615590 0.215752
0.843359 0.616648 0.216672
0.865596 0.617705 0.217589
0.883447 0.618553 0.218325
0.883447 0.618553 0.218325
0.883447 0.618553 0.218325
0.197502 0.610703 0.192728
0.222883 0.611894 0.193795
0.247764 0.613062 0.194840
0.272296 0.614214 0.195870
0.296561 0.615354 0.196888
0.320610 0.616485 0.197896
0.344478 0.617608 0.198895
0.368191 0.618724 0.199888
0.391767 0.619835 0.200874
0.415222 0.620940 0.201854
0.438568 0.622040 0.202828
0.461816 0.623137 0.203798
0.484973 0.624230 0.204763
0.508047 0.625319 0.205724
0.531043 0.626406 0.206682
0.553968 0.627489 0.207635
0.576825 0.628570 0.208585
0.599620 0.629649 0.209532
0.622355 0.630725 0.210475
0.645034 0.631799 0.211415
0.667659 0.632871 0.212353
0.690234 0.633941 0.213288
0.712761 0.635010 0.214220
0.735242 0.636077 0.215149
0.757679 0.637142 0.216076
0.780074 0.638206 0.217000
0.802429 0.639268 0.217923
0.824745 0.640329 0.218842
0.847024 0.641389 0.219760
0.869267 0.642448 0.220676
0.887124 0.643298 0.221410
0.887124 0.643298 0.221410
0.887124 0.643298 0.221410
0.201002 0.635331 0.195861
0.226390 0.636525 0.196926
0.251277 0.637695 0.197969
0.275816 0.638849 0.198996
0.300088 0.639992 0.200012
0.324144 0.641125 0.201018
0.348018 0.642250 0.202015
0.371737 0.643368 0.203005
0.395320 0.644481 0.203989
0.418782 0.645588 0.204967
0.442134 0.646691 0.205939
0.465388 0.647789 0.206907
0.488551 0.648884 0.207870
0.511631 0.649976 0.208829
0.534634 0.651064 0.209784
0.557565 0.652150 0.210736
0.580429 0.653233 0.211684
0.603230 0.654314 0.212628
0.625971 0.655392 0.213570
0.648656 0.656468 0.214508
0.671287 0.657542 0.215443
0.693869 0.658615 0.216376
0.716402 0.659685 0.217306
0.738889 0.660754 0.218233
0.761332 0.661821 0.219158
0.783733 0.662887 0.220081
0.806094 0.663952 0.221001
0.828416 0.665015 0.221919
0.850701 0.666077 0.222834
0.872951 0.667137 0.223748
0.890812 0.667989 0.224480
0.890812 0.667989 0.224480
0.890812 0.667989 0.224480
0.204514 0.659910 0.198980
0.229909 0.661105 0.200043
0.254803 0.662278 0.201083
0.279349 0.663434 0.202109
0.303627 0.664579 0.203122
0.327689 0.665714 0.204126
0.351570 0.666841 0.205121
0.375296 0.667962 0.206109
0.398885 0.669077 0.207090
0.422353 0.670186 0.208066
0.445712 0.671291 0.209037
0.468972 0.672392 0.210002
0.492142 0.673489 0.210963
0.515228 0.674582 0.211920
0.538237 0.675673 0.212873
0.561174 0.676761 0.213822
0.584044 0.677846 0.214768
0.606851 0.678928 0.215711
0.629598 0.680009 0.216650
0.652290 0.681087 0.217586
0.674928 0.682163 0.218520
0.697515 0.683237 0.219450
0.720054 0.684310 0.220378
0.742547 0.685381 0.221304
0.764997 0.686450 0.222226
0.787404 0.687518 0.223147
0.809771 0.688585 0.224065
0.832099 0.689650 0.224981
0.854390 0.690714 0.225894
0.876645 0.691776 0.226806
0.894512 0.692630 0.227537
0.894512 0.692630 0.227537
0.894512 0.692630 0.227537
0.208038 0.684440 0.202086
0.233440 0.685638 0.203146
0.258341 0.686813 0.204184
0.282894 0.687972 0.205207
0.307179 0.689119 0.206219
0.331247 0.690256 0.207220
0.355135 0.691385 0.208213
0.378867 0.692508 0.209199
0.402462 0.693625 0.210178
0.425937 0.694736 0.211152
0.449302 0.695843 0.212120
0.472568 0.696946 0.213084
0.495744 0.698045 0.214043
0.518837 0.699141 0.214998
0.541852 0.700234 0.215948
0.564796 0.701324 0.216896
0.587672 0.702411 0.217839
0.610485 0.703496 0.218780
0.633238 0.704578 0.219717
0.655936 0.705658 0.220651
0.678580 0.706736 0.221583
0.701173 0.707813 0.222511
0.723719 0.708887 0.223437
0.746218 0.709960 0.224360
0.768673 0.711032 0.225281
0.791087 0.712102 0.226199
0.813460 0.713170 0.227116
0.835794 0.714237 0.228029
0.858091 0.715303 0.228941
0.880353 0.716368 0.229850
0.898224 0.717223 0.230580
0.898224 0.717223 0.230580
0.898224 0.717223 0.230580
0.211575 0.708926 0.205178
0.236984 0.710126 0.206236
0.261892 0.711303 0.207272
0.286451 0.712464 0.208293
0.310743 0.713613 0.209302
0.334818 0.714753 0.210301
0.358712 0.715884 0.211292
0.382450 0.717009 0.212276
0.406052 0.718128 0.213253
0.429533 0.719242 0.214224
0.452905 0.720351 0.215191
0.476177 0.721456 0.216152
0.499360 0.722557 0.217109
0.522458 0.723655 0.218062
0.545480 0.724749 0.219010
0.568430 0.725841 0.219956
0.591312 0.726931 0.220897
0.614131 0.728017 0.221836
0.636891 0.729102 0.222771
0.659594 0.730184 0.223703
0.682245 0.731264 0.224632
0.704844 0.732343 0.225559
0.727396 0.733419 0.226483
0.749901 0.734494 0.227404
0.772363 0.735568 0.228323
0.794782 0.736640 0.229239
0.817161 0.737710 0.230153
0.839501 0.738779 0.231065
0.861805 0.739847 0.231974
0.884072 0.740914 0.232882
0.901948 0.741771 0.233610
0.901948 0.741771 0.233610
0.901948 0.741771 0.233610
0.215126 0.733368 0.208257
0.240541 0.734570 0.209313
0.265456 0.735750 0.210347
0.290021 0.736913 0.211365
0.314319 0.738064 0.212372
0.338401 0.739206 0.213369
0.362302 0.740340 0.214358
0.386047 0.741467 0.215339
0.409655 0.742588 0.216315
0.433142 0.743704 0.217284
0.456520 0.744815 0.218248
0.479799 0.745922 0.219207
0.502988 0.747025 0.220162
0.526093 0.748125 0.221113
0.549120 0.749222 0.222060
0.572076 0.750316 0.223003
0.594965 0.751407 0.223942
0.617790 0.752496 0.224879
0.640556 0.753582 0.225812
0.663266 0.754667 0.226742
0.685922 0.755749 0.227669
0.708528 0.756830 0.228594
0.731085 0.757908 0.229515
0.753597 0.758985 0.230435
0.776064 0.760061 0.231351
0.798490 0.761135 0.232266
0.820875 0.762207 0.233178
0.843221 0.763278 0.234087
0.865530 0.764348 0.234995
0.887804 0.765417 0.235901
0.905684 0.766275 0.236627
0.905684 0.766275 0.236627
0.905684 0.766275 0.236627
0.218689 0.757769 0.211323
0.244111 0.758974 0.212377
0.269033 0.760156 0.213409
0.293605 0.761321 0.214425
0.317909 0.762475 0.215430
0.341998 0.763619 0.216425
0.365905 0.764754 0.217411
0.389656 0.765883 0.218391
0.413270 0.767007 0.219364
0.436764 0.768125 0.220331
0.460148 0.769238 0.221293
0.483434 0.770347 0.222250
0.506628 0.771452 0.223203
0.529740 0.772554 0.224151
0.552774 0.773653 0.225096
0.575736 0.774749 0.226037
0.598630 0.775843 0.226975
0.621462 0.776934 0.227909
0.644234 0.778022 0.228840
0.666950 0.779108 0.229768
0.689612 0.780193 0.230693
0.712224 0.781275 0.231616
0.734787 0.782356 0.232536
0.757305 0.783435 0.233453
0.779779 0.784512 0.234367
0.802210 0.785588 0.235280
0.824601 0.786663 0.236190
0.846954 0.787736 0.237098
0.869269 0.788808 0.238003
0.891548 0.789879 0.238907
0.909434 0.790739 0.239631
0.909434 0.790739 0.239631
0.909434 0.790739 0.239631
0.222265 0.782132 0.214378
0.247694 0.783338 0.215429
0.272622 0.784522 0.216458
0.297201 0.785690 0.217473
0.321512 0.786846 0.218475
0.345607 0.787992 0.219468
0.369521 0.789130 0.220452
0.393278 0.790261 0.221429
0.416899 0.791386 0.222400
0.440399 0.792506 0.223365
0.463789 0.793622 0.224325
0.487081 0.794733 0.225281
0.510282 0.795840 0.226231
0.533400 0.796945 0.227178
0.556440 0.798045 0.228120
0.579408 0.799144 0.229059
0.602309 0.800239 0.229995
0.625147 0.801332 0.230927
0.647925 0.802422 0.231856
0.670646 0.803511 0.232782
0.693315 0.804597 0.233705
0.715933 0.805682 0.234626
0.738502 0.806764 0.235543
0.761026 0.807845 0.236459
0.783506 0.808925 0.237371
