LUTs/04_Fuji_400H_Clean.cube
TITLE "Fuji 400H Clean"
# Nikon D5500 + Sigma 17-50 - subtle creative look (apply ~20-40%)
LUT_3D_SIZE 33
DOMAIN_MIN 0.0 0.0 0.0
DOMAIN_MAX 1.0 1.0 1.0
0.017338 0.046003 0.051475
0.047886 0.046280 0.051684
0.077666 0.046550 0.051888
0.107053 0.046818 0.052091
0.136171 0.047084 0.052292
0.165087 0.047350 0.052493
0.193840 0.047614 0.052694
0.222456 0.047878 0.052895
0.250955 0.048142 0.053095
0.279351 0.048406 0.053296
0.307656 0.048669 0.053496
0.335879 0.048933 0.053697
0.364027 0.049196 0.053898
0.392106 0.049460 0.054100
0.420123 0.049724 0.054302
0.448080 0.049989 0.054504
0.475983 0.050253 0.054706
0.503835 0.050518 0.054909
0.531639 0.050783 0.055112
0.559397 0.051048 0.055316
0.587111 0.051314 0.055520
0.614786 0.051580 0.055725
0.642421 0.051847 0.055930
0.670019 0.052113 0.056136
0.697581 0.052381 0.056342
0.725110 0.052648 0.056548
0.752606 0.052917 0.056755
0.780071 0.053185 0.056963
0.807505 0.053454 0.057171
0.834911 0.053724 0.057380
0.862288 0.053994 0.057589
0.889638 0.054264 0.057798
0.916963 0.054535 0.058009
0.019199 0.077535 0.052195
0.049747 0.077814 0.052407
0.079527 0.078088 0.052614
0.108914 0.078359 0.052820
0.138033 0.078628 0.053024
0.166949 0.078896 0.053228
0.195701 0.079164 0.053432
0.224318 0.079431 0.053635
0.252817 0.079698 0.053839
0.281213 0.079964 0.054042
0.309518 0.080231 0.054246
0.337740 0.080497 0.054450
0.365888 0.080764 0.054654
0.393968 0.081030 0.054858
0.421984 0.081297 0.055063
0.449942 0.081564 0.055268
0.477845 0.081832 0.055473
0.505696 0.082099 0.055679
0.533500 0.082367 0.055885
0.561258 0.082636 0.056092
0.588973 0.082904 0.056299
0.616647 0.083173 0.056506
0.644282 0.083443 0.056714
0.671880 0.083712 0.056923
0.699443 0.083983 0.057131
0.726971 0.084253 0.057341
0.754467 0.084524 0.057551
0.781932 0.084795 0.057761
0.809366 0.085067 0.057972
0.836772 0.085340 0.058184
0.864149 0.085612 0.058395
0.891500 0.085886 0.058608
0.918824 0.086159 0.058821
0.021024 0.108463 0.052911
0.051572 0.108745 0.053126
0.081352 0.109022 0.053336
0.110739 0.109296 0.053545
0.139858 0.109568 0.053752
0.168774 0.109839 0.053959
0.197527 0.110110 0.054166
0.226143 0.110380 0.054372
0.254642 0.110649 0.054578
0.283038 0.110919 0.054785
0.311343 0.111188 0.054991
0.339565 0.111457 0.055198
0.367713 0.111727 0.055405
0.395793 0.111996 0.055612
0.423809 0.112266 0.055820
0.451767 0.112536 0.056027
0.479670 0.112806 0.056236
0.507521 0.113077 0.056444
0.535325 0.113348 0.056653
0.563083 0.113619 0.056863
0.590798 0.113890 0.057072
0.618472 0.114162 0.057283
0.646107 0.114434 0.057494
0.673705 0.114707 0.057705
0.701268 0.114979 0.057916
0.728796 0.115253 0.058129
0.756292 0.115527 0.058341
0.783757 0.115801 0.058555
0.811191 0.116075 0.058768
0.838597 0.116351 0.058982
0.865974 0.116626 0.059197
0.893325 0.116902 0.059412
0.920649 0.117179 0.059628
0.022828 0.139042 0.053629
0.053376 0.139328 0.053847
0.083156 0.139608 0.054060
0.112543 0.139885 0.054272
0.141662 0.140160 0.054482
0.170578 0.140434 0.054692
0.199330 0.140707 0.054901
0.227947 0.140980 0.055111
0.256446 0.141252 0.055320
0.284842 0.141525 0.055529
0.313147 0.141797 0.055738
0.341369 0.142069 0.055948
0.369517 0.142341 0.056158
0.397597 0.142614 0.056368
0.425613 0.142886 0.056578
0.453571 0.143159 0.056788
0.481474 0.143432 0.056999
0.509325 0.143705 0.057211
0.537129 0.143979 0.057423
0.564887 0.144253 0.057635
0.592602 0.144527 0.057847
0.620276 0.144802 0.058061
0.647911 0.145076 0.058274
0.675509 0.145352 0.058488
0.703072 0.145627 0.058703
0.730600 0.145904 0.058917
0.758096 0.146180 0.059133
0.785561 0.146457 0.059349
0.812995 0.146734 0.059565
0.840401 0.147012 0.059782
0.867778 0.147291 0.060000
0.895129 0.147569 0.060218
0.922453 0.147849 0.060436
0.024617 0.169378 0.054351
0.055165 0.169667 0.054572
0.084945 0.169949 0.054788
0.114332 0.170229 0.055003
0.143451 0.170507 0.055216
0.172367 0.170784 0.055429
0.201119 0.171060 0.055641
0.229736 0.171336 0.055853
0.258234 0.171611 0.056065
0.286631 0.171886 0.056277
0.314936 0.172161 0.056489
0.343158 0.172436 0.056701
0.371306 0.172711 0.056914
0.399386 0.172987 0.057127
0.427402 0.173262 0.057340
0.455360 0.173537 0.057553
0.483263 0.173813 0.057767
0.511114 0.174089 0.057981
0.538918 0.174366 0.058196
0.566676 0.174642 0.058411
0.594391 0.174919 0.058626
0.622065 0.175196 0.058842
0.649700 0.175474 0.059058
0.677298 0.175752 0.059275
0.704860 0.176031 0.059492
0.732389 0.176309 0.059710
0.759885 0.176589 0.059928
0.787350 0.176868 0.060147
0.814784 0.177148 0.060366
0.842190 0.177429 0.060585
0.869567 0.177710 0.060806
0.896918 0.177992 0.061026
0.924242 0.178273 0.061248
0.026394 0.199526 0.055078
0.056942 0.199818 0.055302
0.086722 0.200104 0.055521
0.116109 0.200386 0.055739
0.145228 0.200667 0.055955
0.174144 0.200947 0.056170
0.202897 0.201226 0.056385
0.231513 0.201504 0.056600
0.260012 0.201783 0.056815
0.288408 0.202061 0.057030
0.316713 0.202338 0.057245
0.344936 0.202616 0.057460
0.373083 0.202894 0.057675
0.401163 0.203172 0.057891
0.429179 0.203450 0.058107
0.457137 0.203728 0.058323
0.485040 0.204007 0.058540
0.512892 0.204286 0.058756
0.540695 0.204565 0.058974
0.568453 0.204844 0.059191
0.596168 0.205124 0.059410
0.623842 0.205404 0.059628
0.651477 0.205684 0.059847
0.679075 0.205965 0.060067
0.706638 0.206246 0.060286
0.734166 0.206528 0.060507
0.761662 0.206810 0.060728
0.789127 0.207092 0.060949
0.816562 0.207375 0.061171
0.843967 0.207658 0.061393
0.871344 0.207942 0.061616
0.898695 0.208226 0.061840
0.926019 0.208511 0.062064
0.028162 0.229524 0.055811
0.058710 0.229819 0.056038
0.088490 0.230107 0.056260
0.117877 0.230393 0.056481
0.146996 0.230676 0.056700
0.175912 0.230959 0.056918
0.204664 0.231241 0.057136
0.233281 0.231522 0.057354
0.261780 0.231803 0.057571
0.290176 0.232084 0.057789
0.318481 0.232364 0.058007
0.346703 0.232645 0.058224
0.374851 0.232925 0.058443
0.402931 0.233206 0.058661
0.430947 0.233487 0.058880
0.458905 0.233768 0.059098
0.486808 0.234049 0.059318
0.514659 0.234331 0.059537
0.542463 0.234613 0.059757
0.570221 0.234895 0.059978
0.597936 0.235177 0.060199
0.625610 0.235460 0.060420
0.653245 0.235743 0.060642
0.680843 0.236026 0.060864
0.708406 0.236310 0.061086
0.735934 0.236595 0.061310
0.763430 0.236879 0.061533
0.790895 0.237164 0.061757
0.818329 0.237450 0.061982
0.845735 0.237736 0.062207
0.873112 0.238022 0.062432
0.900463 0.238309 0.062659
0.927787 0.238596 0.062885
0.029922 0.259395 0.056551
0.060470 0.259693 0.056781
0.090250 0.259984 0.057006
0.119637 0.260273 0.057229
0.148756 0.260559 0.057451
0.177672 0.260845 0.057672
0.206424 0.261129 0.057893
0.235040 0.261413 0.058113
0.263539 0.261697 0.058334
0.291936 0.261981 0.058554
0.320240 0.262264 0.058775
0.348463 0.262547 0.058995
0.376611 0.262831 0.059216
0.404691 0.263114 0.059437
0.432707 0.263398 0.059658
0.460664 0.263682 0.059880
0.488567 0.263965 0.060102
0.516419 0.264250 0.060324
0.544223 0.264534 0.060547
0.571981 0.264819 0.060770
0.599696 0.265104 0.060994
0.627370 0.265390 0.061218
0.655005 0.265675 0.061442
0.682603 0.265962 0.061667
0.710165 0.266248 0.061892
0.737694 0.266535 0.062118
0.765190 0.266822 0.062344
0.792655 0.267110 0.062571
0.820089 0.267398 0.062799
0.847495 0.267687 0.063026
0.874872 0.267976 0.063255
0.902222 0.268266 0.063483
0.929547 0.268556 0.063713
0.031675 0.289159 0.057297
0.062223 0.289460 0.057530
0.092003 0.289754 0.057758
0.121390 0.290045 0.057984
0.150508 0.290334 0.058209
0.179424 0.290623 0.058433
0.208177 0.290910 0.058656
0.236793 0.291197 0.058879
0.265292 0.291483 0.059103
0.293688 0.291770 0.059326
0.321993 0.292056 0.059549
0.350216 0.292342 0.059772
0.378364 0.292628 0.059996
0.406443 0.292914 0.060220
0.434460 0.293201 0.060444
0.462417 0.293487 0.060668
0.490320 0.293774 0.060893
0.518172 0.294061 0.061118
0.545976 0.294348 0.061343
0.573734 0.294635 0.061569
0.601448 0.294923 0.061796
0.629123 0.295211 0.062022
0.656758 0.295500 0.062249
0.684356 0.295789 0.062477
0.711918 0.296078 0.062705
0.739447 0.296368 0.062933
0.766943 0.296658 0.063162
0.794407 0.296948 0.063392
0.821842 0.297239 0.063622
0.849247 0.297530 0.063852
0.876625 0.297822 0.064083
0.903975 0.298114 0.064314
0.931300 0.298407 0.064546
0.033421 0.318828 0.058050
0.063969 0.319132 0.058286
0.093750 0.319429 0.058517
0.123136 0.319723 0.058746
0.152255 0.320016 0.058973
0.181171 0.320307 0.059200
0.209924 0.320597 0.059426
0.238540 0.320887 0.059653
0.267039 0.321176 0.059878
0.295435 0.321465 0.060104
0.323740 0.321754 0.060330
0.351963 0.322043 0.060556
0.380111 0.322331 0.060783
0.408190 0.322620 0.061009
0.436207 0.322909 0.061236
0.464164 0.323199 0.061463
0.492067 0.323488 0.061691
0.519919 0.323778 0.061918
0.547722 0.324067 0.062147
0.575480 0.324358 0.062375
0.603195 0.324648 0.062604
0.630869 0.324939 0.062833
0.658504 0.325230 0.063063
0.686102 0.325522 0.063293
0.713665 0.325814 0.063524
0.741194 0.326106 0.063755
0.768690 0.326399 0.063987
0.796154 0.326692 0.064219
0.823589 0.326985 0.064452
0.850994 0.327279 0.064685
0.878372 0.327574 0.064918
0.905722 0.327868 0.065152
0.933046 0.328164 0.065387
0.035163 0.348415 0.058810
0.065711 0.348722 0.059049
0.095491 0.349022 0.059283
0.124878 0.349319 0.059515
0.153997 0.349614 0.059745
0.182913 0.349908 0.059975
0.211665 0.350201 0.060204
0.240281 0.350493 0.060433
0.268780 0.350785 0.060661
0.297177 0.351077 0.060890
0.325482 0.351369 0.061119
0.353704 0.351660 0.061348
0.381852 0.351952 0.061577
0.409932 0.352243 0.061806
0.437948 0.352535 0.062035
0.465906 0.352827 0.062265
0.493808 0.353119 0.062495
0.521660 0.353411 0.062726
0.549464 0.353704 0.062957
0.577222 0.353997 0.063188
0.604937 0.354290 0.063419
0.632611 0.354584 0.063651
0.660246 0.354877 0.063884
0.687844 0.355172 0.064117
0.715406 0.355466 0.064350
0.742935 0.355761 0.064584
0.770431 0.356057 0.064818
0.797896 0.356352 0.065053
0.825330 0.356649 0.065288
0.852736 0.356945 0.065524
0.880113 0.357242 0.065760
0.907464 0.357540 0.065997
0.934788 0.357838 0.066234
0.036899 0.377928 0.059578
0.067447 0.378238 0.059820
0.097228 0.378541 0.060057
0.126614 0.378840 0.060291
0.155733 0.379138 0.060524
0.184649 0.379435 0.060757
0.213402 0.379731 0.060989
0.242018 0.380026 0.061220
0.270517 0.380321 0.061452
0.298913 0.380615 0.061683
0.327218 0.380909 0.061914
0.355441 0.381204 0.062146
0.383589 0.381498 0.062378
0.411668 0.381792 0.062610
0.439684 0.382087 0.062842
0.467642 0.382381 0.063074
0.495545 0.382676 0.063307
0.523397 0.382971 0.063540
0.551200 0.383266 0.063774
0.578958 0.383562 0.064008
0.606673 0.383858 0.064242
0.634347 0.384154 0.064477
0.661982 0.384451 0.064712
0.689580 0.384747 0.064947
0.717143 0.385045 0.065183
0.744671 0.385342 0.065420
0.772167 0.385640 0.065657
0.799632 0.385939 0.065894
0.827067 0.386238 0.066132
0.854472 0.386537 0.066370
0.881850 0.386837 0.066609
0.909200 0.387137 0.066849
0.936524 0.387437 0.067089
0.038631 0.407374 0.060353
0.069179 0.407687 0.060598
0.098960 0.407993 0.060837
0.128346 0.408295 0.061075
0.157465 0.408596 0.061311
0.186381 0.408895 0.061546
0.215134 0.409194 0.061781
0.243750 0.409492 0.062015
0.272249 0.409789 0.062249
0.300645 0.410087 0.062483
0.328950 0.410384 0.062717
0.357173 0.410681 0.062952
0.385321 0.410978 0.063186
0.413400 0.411275 0.063421
0.441416 0.411572 0.063656
0.469374 0.411869 0.063891
0.497277 0.412166 0.064126
0.525129 0.412464 0.064362
0.552932 0.412762 0.064598
0.580690 0.413060 0.064835
0.608405 0.413359 0.065072
0.636079 0.413658 0.065309
0.663714 0.413957 0.065547
0.691312 0.414256 0.065785
0.718875 0.414556 0.066024
0.746403 0.414857 0.066263
0.773899 0.415157 0.066503
0.801364 0.415458 0.066743
0.828799 0.415760 0.066983
0.856204 0.416062 0.067224
0.883582 0.416364 0.067466
0.910932 0.416667 0.067708
0.938256 0.416970 0.067950
0.040359 0.436760 0.061136
0.070907 0.437076 0.061383
0.100687 0.437384 0.061626
0.130074 0.437690 0.061866
0.159193 0.437993 0.062105
0.188109 0.438295 0.062343
0.216862 0.438596 0.062580
0.245478 0.438897 0.062817
0.273977 0.439197 0.063054
0.302373 0.439497 0.063291
0.330678 0.439797 0.063528
0.358901 0.440097 0.063765
0.387048 0.440396 0.064002
0.415128 0.440696 0.064239
0.443144 0.440996 0.064477
0.471102 0.441296 0.064715
0.499005 0.441596 0.064953
0.526856 0.441897 0.065191
0.554660 0.442197 0.065430
0.582418 0.442498 0.065670
0.610133 0.442799 0.065909
0.637807 0.443101 0.066149
0.665442 0.443403 0.066390
0.693040 0.443705 0.066630
0.720603 0.444007 0.066872
0.748131 0.444310 0.067113
0.775627 0.444613 0.067356
0.803092 0.444917 0.067598
0.830526 0.445221 0.067842
0.857932 0.445526 0.068085
0.885309 0.445831 0.068329
0.912660 0.446136 0.068574
0.939984 0.446442 0.068819
0.042083 0.466090 0.061926
0.072631 0.466409 0.062176
0.102411 0.466720 0.062422
0.131798 0.467028 0.062665
0.160917 0.467335 0.062906
0.189833 0.467640 0.063147
0.218586 0.467944 0.063387
0.247202 0.468247 0.063627
0.275701 0.468550 0.063867
0.304097 0.468853 0.064106
0.332402 0.469155 0.064346
0.360625 0.469458 0.064585
0.388773 0.469760 0.064825
0.416852 0.470062 0.065065
0.444868 0.470365 0.065306
0.472826 0.470668 0.065546
0.500729 0.470970 0.065787
0.528581 0.471273 0.066028
0.556384 0.471577 0.066270
0.584142 0.471880 0.066512
0.611857 0.472184 0.066754
0.639531 0.472488 0.066996
0.667166 0.472793 0.067240
0.694764 0.473097 0.067483
0.722327 0.473403 0.067727
0.749855 0.473708 0.067971
0.777351 0.474014 0.068216
0.804816 0.474320 0.068462
0.832251 0.474627 0.068707
0.859656 0.474934 0.068954
0.887034 0.475242 0.069200
0.914384 0.475550 0.069448
0.941708 0.475858 0.069695
0.043804 0.495370 0.062723
0.074352 0.495691 0.062977
0.104132 0.496005 0.063225
0.133519 0.496317 0.063471
0.162638 0.496626 0.063715
0.191553 0.496933 0.063959
0.220306 0.497240 0.064202
0.248922 0.497546 0.064444
0.277421 0.497852 0.064687
0.305818 0.498157 0.064929
0.334122 0.498462 0.065171
0.362345 0.498768 0.065414
0.390493 0.499073 0.065656
0.418573 0.499378 0.065899
0.446589 0.499683 0.066142
0.474546 0.499988 0.066385
0.502449 0.500294 0.066629
0.530301 0.500599 0.066872
0.558105 0.500905 0.067117
0.585863 0.501212 0.067361
0.613578 0.501518 0.067606
0.641252 0.501825 0.067851
0.668887 0.502132 0.068097
0.696485 0.502439 0.068343
0.724047 0.502747 0.068590
0.751576 0.503055 0.068837
0.779072 0.503364 0.069084
0.806537 0.503673 0.069332
0.833971 0.503982 0.069581
0.861377 0.504292 0.069829
0.888754 0.504602 0.070079
0.916104 0.504913 0.070329
0.943429 0.505224 0.070579
0.045521 0.524602 0.063529
0.076069 0.524927 0.063785
0.105849 0.525244 0.064036
0.135236 0.525558 0.064285
0.164355 0.525869 0.064532
0.193271 0.526180 0.064778
0.222023 0.526489 0.065024
0.250640 0.526798 0.065269
0.279139 0.527107 0.065514
0.307535 0.527415 0.065759
0.335840 0.527723 0.066004
0.364062 0.528030 0.066249
0.392210 0.528338 0.066495
0.420290 0.528646 0.066740
0.448306 0.528954 0.066986
0.476264 0.529262 0.067232
0.504167 0.529570 0.067478
0.532018 0.529878 0.067724
0.559822 0.530187 0.067971
0.587580 0.530496 0.068218
0.615295 0.530805 0.068466
0.642969 0.531114 0.068714
0.670604 0.531424 0.068962
0.698202 0.531734 0.069211
0.725765 0.532045 0.069460
0.753293 0.532355 0.069710
0.780789 0.532667 0.069960
0.808254 0.532978 0.070210
0.835688 0.533290 0.070461
0.863094 0.533602 0.070713
0.890471 0.533915 0.070965
0.917822 0.534229 0.071217
0.945146 0.534542 0.071470
0.047235 0.553791 0.064342
0.077783 0.554119 0.064602
0.107563 0.554439 0.064855
0.136950 0.554755 0.065107
0.166069 0.555070 0.065357
0.194985 0.555383 0.065606
0.223738 0.555695 0.065854
0.252354 0.556007 0.066102
0.280853 0.556318 0.066350
0.309249 0.556629 0.066597
0.337554 0.556939 0.066845
0.365777 0.557250 0.067093
0.393924 0.557560 0.067341
0.422004 0.557871 0.067589
0.450020 0.558181 0.067837
0.477978 0.558492 0.068086
0.505881 0.558803 0.068335
0.533732 0.559114 0.068584
0.561536 0.559425 0.068833
0.589294 0.559736 0.069083
0.617009 0.560048 0.069333
0.644683 0.560360 0.069584
0.672318 0.560673 0.069835
0.699916 0.560985 0.070086
0.727479 0.561298 0.070338
0.755007 0.561612 0.070590
0.782503 0.561926 0.070843
0.809968 0.562240 0.071096
0.837402 0.562554 0.071350
0.864808 0.562869 0.071604
0.892185 0.563185 0.071858
0.919536 0.563501 0.072114
0.946860 0.563817 0.072369
0.048946 0.582940 0.065163
0.079494 0.583270 0.065425
0.109275 0.583593 0.065682
0.138661 0.583912 0.065936
0.167780 0.584230 0.066189
0.196696 0.584546 0.066441
0.225449 0.584861 0.066692
0.254065 0.585175 0.066942
0.282564 0.585489 0.067193
0.310960 0.585802 0.067443
0.339265 0.586116 0.067694
0.367488 0.586429 0.067944
0.395636 0.586742 0.068195
0.423715 0.587055 0.068446
0.451731 0.587368 0.068696
0.479689 0.587681 0.068948
0.507592 0.587995 0.069199
0.535444 0.588309 0.069451
0.563247 0.588622 0.069703
0.591005 0.588937 0.069956
0.618720 0.589251 0.070208
0.646394 0.589566 0.070462
0.674029 0.589881 0.070715
0.701627 0.590196 0.070969
0.729190 0.590512 0.071224
0.756719 0.590828 0.071479
0.784215 0.591144 0.071734
0.811679 0.591461 0.071990
0.839114 0.591778 0.072246
0.866519 0.592096 0.072503
0.893897 0.592414 0.072760
0.921247 0.592732 0.073017
0.948571 0.593051 0.073276
0.050655 0.612051 0.065992
0.081203 0.612384 0.066257
0.110983 0.612710 0.066517
0.140370 0.613032 0.066773
0.169489 0.613352 0.067029
0.198405 0.613671 0.067283
0.227157 0.613988 0.067537
0.255773 0.614305 0.067791
0.284272 0.614622 0.068044
0.312669 0.614938 0.068297
0.340974 0.615254 0.068550
0.369196 0.615570 0.068803
0.397344 0.615886 0.069056
0.425424 0.616201 0.069310
0.453440 0.616517 0.069563
0.481398 0.616833 0.069817
0.509300 0.617149 0.070071
0.537152 0.617466 0.070326
0.564956 0.617782 0.070581
0.592714 0.618099 0.070836
0.620429 0.618416 0.071091
0.648103 0.618733 0.071347
0.675738 0.619051 0.071603
0.703336 0.619369 0.071860
0.730898 0.619687 0.072117
0.758427 0.620006 0.072374
0.785923 0.620325 0.072632
0.813388 0.620644 0.072891
0.840822 0.620964 0.073150
0.868228 0.621284 0.073409
0.895605 0.621605 0.073669
0.922956 0.621926 0.073929
0.950280 0.622247 0.074190
0.052361 0.641126 0.066828
0.082909 0.641462 0.067097
0.112689 0.641791 0.067359
0.142076 0.642116 0.067619
0.171194 0.642439 0.067877
0.200110 0.642760 0.068134
0.228863 0.643080 0.068391
0.257479 0.643400 0.068647
0.285978 0.643719 0.068903
0.314375 0.644038 0.069158
0.342679 0.644357 0.069414
0.370902 0.644675 0.069670
0.399050 0.644994 0.069926
0.427129 0.645312 0.070182
0.455146 0.645631 0.070438
0.483103 0.645949 0.070695
0.511006 0.646268 0.070952
0.538858 0.646587 0.071209
0.566662 0.646906 0.071466
0.594420 0.647226 0.071724
0.622134 0.647545 0.071982
0.649809 0.647865 0.072240
0.677444 0.648186 0.072499
0.705042 0.648506 0.072758
0.732604 0.648827 0.073018
0.760133 0.649148 0.073278
0.787629 0.649470 0.073539
0.815094 0.649792 0.073800
0.842528 0.650114 0.074061
0.869934 0.650437 0.074323
0.897311 0.650760 0.074585
0.924661 0.651084 0.074848
0.951986 0.651408 0.075112
0.054064 0.670169 0.067673
0.084612 0.670507 0.067944
0.114392 0.670839 0.068209
0.143779 0.671166 0.068472
0.172898 0.671492 0.068732
0.201814 0.671816 0.068992
0.230567 0.672139 0.069252
0.259183 0.672462 0.069511
0.287682 0.672784 0.069769
0.316078 0.673105 0.070028
0.344383 0.673427 0.070286
0.372605 0.673748 0.070545
0.400753 0.674069 0.070803
0.428833 0.674390 0.071062
0.456849 0.674711 0.071321
0.484807 0.675033 0.071580
0.512710 0.675354 0.071839
0.540561 0.675675 0.072099
0.568365 0.675997 0.072359
0.596123 0.676319 0.072619
0.623838 0.676642 0.072880
0.651512 0.676964 0.073141
0.679147 0.677287 0.073403
0.706745 0.677610 0.073665
0.734308 0.677934 0.073927
0.761836 0.678258 0.074190
0.789332 0.678582 0.074453
0.816797 0.678906 0.074716
0.844231 0.679231 0.074980
0.871637 0.679557 0.075245
0.899014 0.679882 0.075510
0.926365 0.680209 0.075775
0.953689 0.680535 0.076041
0.055765 0.699180 0.068525
0.086313 0.699521 0.068799
0.116093 0.699856 0.069067
0.145480 0.700186 0.069332
0.174599 0.700514 0.069596
0.203515 0.700841 0.069859
0.232268 0.701167 0.070121
0.260884 0.701492 0.070382
0.289383 0.701817 0.070644
0.317779 0.702141 0.070905
0.346084 0.702465 0.071166
0.374306 0.702789 0.071427
0.402454 0.703113 0.071688
0.430534 0.703437 0.071950
0.458550 0.703760 0.072211
0.486508 0.704084 0.072473
0.514411 0.704408 0.072735
0.542262 0.704733 0.072997
0.570066 0.705057 0.073260
0.597824 0.705382 0.073523
0.625539 0.705706 0.073786
0.653213 0.706032 0.074050
0.680848 0.706357 0.074314
0.708446 0.706683 0.074579
0.736009 0.707009 0.074843
0.763537 0.707335 0.075109
0.791033 0.707662 0.075375
0.818498 0.707989 0.075641
0.845932 0.708317 0.075907
0.873338 0.708645 0.076174
0.900715 0.708973 0.076442
0.928066 0.709302 0.076710
0.955390 0.709631 0.076979
0.057464 0.728161 0.069385
0.088012 0.728506 0.069662
0.117792 0.728843 0.069933
0.147179 0.729176 0.070201
0.176298 0.729507 0.070468
0.205214 0.729837 0.070733
0.233966 0.730166 0.070998
0.262583 0.730493 0.071262
0.291081 0.730821 0.071526
0.319478 0.731148 0.071790
0.347783 0.731474 0.072054
0.376005 0.731801 0.072317
0.404153 0.732127 0.072581
0.432233 0.732454 0.072845
0.460249 0.732780 0.073109
0.488207 0.733107 0.073374
0.516110 0.733433 0.073639
0.543961 0.733760 0.073904
0.571765 0.734087 0.074169
0.599523 0.734414 0.074434
0.627238 0.734742 0.074700
0.654912 0.735070 0.074967
0.682547 0.735398 0.075233
0.710145 0.735726 0.075500
0.737707 0.736055 0.075768
0.765236 0.736384 0.076036
0.792732 0.736713 0.076304
0.820197 0.737043 0.076573
0.847631 0.737373 0.076842
0.875037 0.737704 0.077112
0.902414 0.738035 0.077382
0.929765 0.738366 0.077653
0.957089 0.738698 0.077924
0.059160 0.757115 0.070254
0.089708 0.757463 0.070533
0.119489 0.757803 0.070807
0.148875 0.758139 0.071078
0.177994 0.758472 0.071347
0.206910 0.758805 0.071615
0.235663 0.759136 0.071882
0.264279 0.759467 0.072149
0.292778 0.759797 0.072416
0.321174 0.760126 0.072683
0.349479 0.760456 0.072949
0.377702 0.760785 0.073216
0.405850 0.761114 0.073482
0.433929 0.761443 0.073749
0.461946 0.761772 0.074016
0.489903 0.762101 0.074283
0.517806 0.762430 0.074550
0.545658 0.762760 0.074818
0.573461 0.763090 0.075085
0.601219 0.763419 0.075354
0.628934 0.763750 0.075622
0.656608 0.764080 0.075891
0.684244 0.764411 0.076160
0.711842 0.764742 0.076430
0.739404 0.765073 0.076700
0.766933 0.765405 0.076971
0.794429 0.765737 0.077242
0.821893 0.766069 0.077513
0.849328 0.766402 0.077785
0.876733 0.766735 0.078057
0.904111 0.767068 0.078330
0.931461 0.767402 0.078603
0.958785 0.767737 0.078877
0.060855 0.786043 0.071130
0.091403 0.786393 0.071412
0.121183 0.786736 0.071689
0.150570 0.787075 0.071962
0.179689 0.787411 0.072234
0.208605 0.787746 0.072505
0.237358 0.788080 0.072775
0.265974 0.788414 0.073045
0.294473 0.788746 0.073314
0.322869 0.789079 0.073583
0.351174 0.789411 0.073852
0.379396 0.789742 0.074122
0.407544 0.790074 0.074391
0.435624 0.790406 0.074660
0.463640 0.790738 0.074930
0.491598 0.791069 0.075199
0.519501 0.791401 0.075469
0.547352 0.791733 0.075739
0.575156 0.792066 0.076010
0.602914 0.792398 0.076281
0.630629 0.792731 0.076552
0.658303 0.793064 0.076823
0.685938 0.793397 0.077095
0.713536 0.793731 0.077368
0.741099 0.794065 0.077640
0.768627 0.794399 0.077913
0.796123 0.794733 0.078187
0.823588 0.795068 0.078461
0.851022 0.795404 0.078735
0.878428 0.795739 0.079010
0.905805 0.796076 0.079285
0.933156 0.796412 0.079561
0.960480 0.796749 0.079837
0.062547 0.814946 0.072014
0.093096 0.815299 0.072299
0.122876 0.815644 0.072578
0.152263 0.815986 0.072855
0.181381 0.816325 0.073129
0.210297 0.816663 0.073403
0.239050 0.817000 0.073676
0.267666 0.817336 0.073948
0.296165 0.817671 0.074220
0.324561 0.818006 0.074492
0.352866 0.818341 0.074764
0.381089 0.818675 0.075036
0.409237 0.819010 0.075307
0.437316 0.819344 0.075579
0.465333 0.819678 0.075851
0.493290 0.820013 0.076124
0.521193 0.820347 0.076396
0.549045 0.820682 0.076669
0.576848 0.821017 0.076942
0.604606 0.821352 0.077216
0.632321 0.821687 0.077489
0.659995 0.822023 0.077764
0.687631 0.822359 0.078038
0.715229 0.822695 0.078313
0.742791 0.823031 0.078588
