LUTs/04_Fuji_400H_Clean.cube
TITLE "Fuji 400H Clean"
# Nikon D5500 + Sigma 17-50 - subtle creative look (apply ~20-40%)
LUT_3D_SIZE 9
DOMAIN_MIN 0.0 0.0 0.0
DOMAIN_MAX 1.0 1.0 1.0
0.017338 0.046003 0.051475
0.136171 0.047084 0.052292
0.250955 0.048142 0.053095
0.364027 0.049196 0.053898
0.475983 0.050253 0.054706
0.587111 0.051314 0.055520
0.697581 0.052381 0.056342
0.807505 0.053454 0.057171
0.916963 0.054535 0.058009
0.024617 0.169378 0.054351
0.143451 0.170507 0.055216
0.258234 0.171611 0.056065
0.371306 0.172711 0.056914
0.483263 0.173813 0.057767
0.594391 0.174919 0.058626
0.704860 0.176031 0.059492
0.814784 0.177148 0.060366
0.924242 0.178273 0.061248
0.031675 0.289159 0.057297
0.150508 0.290334 0.058209
0.265292 0.291483 0.059103
0.378364 0.292628 0.059996
0.490320 0.293774 0.060893
0.601448 0.294923 0.061796
0.711918 0.296078 0.062705
0.821842 0.297239 0.063622
0.931300 0.298407 0.064546
0.038631 0.407374 0.060353
0.157465 0.408596 0.061311
0.272249 0.409789 0.062249
0.385321 0.410978 0.063186
0.497277 0.412166 0.064126
0.608405 0.413359 0.065072
0.718875 0.414556 0.066024
0.828799 0.415760 0.066983
0.938256 0.416970 0.067950
0.045521 0.524602 0.063529
0.164355 0.525869 0.064532
0.279139 0.527107 0.065514
0.392210 0.528338 0.066495
0.504167 0.529570 0.067478
0.615295 0.530805 0.068466
0.725765 0.532045 0.069460
0.835688 0.533290 0.070461
0.945146 0.534542 0.071470
0.052361 0.641126 0.066828
0.171194 0.642439 0.067877
0.285978 0.643719 0.068903
0.399050 0.644994 0.069926
0.511006 0.646268 0.070952
0.622134 0.647545 0.071982
0.732604 0.648827 0.073018
0.842528 0.650114 0.074061
0.951986 0.651408 0.075112
0.059160 0.757115 0.070254
0.177994 0.758472 0.071347
0.292778 0.759797 0.072416
0.405850 0.761114 0.073482
0.517806 0.762430 0.074550
0.628934 0.763750 0.075622
0.739404 0.765073 0.076700
0.849328 0.766402 0.077785
0.958785 0.767737 0.078877
0.065927 0.872682 0.073806
0.184761 0.874084 0.074943
0.299545 0.875451 0.076056
0.412616 0.876811 0.077164
0.524573 0.878169 0.078274
0.635701 0.879530 0.079388
0.746171 0.880895 0.080508
0.856094 0.882265 0.081634
0.965552 0.883641 0.082767
0.071589 0.969490 0.076888
0.190423 0.970929 0.078063
0.305207 0.972333 0.079211
0.418278 0.973728 0.080355
0.530235 0.975122 0.081500
0.641363 0.976518 0.082649
0.751833 0.977917 0.083804
0.861756 0.979322 0.084964
0.971214 0.980733 0.086131
0.018106 0.046395 0.176818
0.136940 0.047481 0.177640
0.251724 0.048544 0.178448
0.364795 0.049603 0.179256
0.476752 0.050664 0.180069
0.587880 0.051730 0.180887
0.698350 0.052802 0.181714
0.808273 0.053880 0.182547
0.917731 0.054965 0.183390
0.025385 0.169787 0.179711
0.144219 0.170921 0.180581
0.259003 0.172030 0.181435
0.372075 0.173135 0.182289
0.484031 0.174242 0.183147
0.595159 0.175353 0.184011
0.705629 0.176469 0.184881
0.815553 0.177591 0.185760
0.925010 0.178721 0.186646
0.032443 0.289585 0.182674
0.151277 0.290766 0.183591
0.266061 0.291920 0.184490
0.379132 0.293069 0.185388
0.491089 0.294219 0.186290
0.602217 0.295374 0.187197
0.712687 0.296533 0.188111
0.822610 0.297699 0.189033
0.932068 0.298871 0.189962
0.039399 0.407817 0.185747
0.158233 0.409044 0.186710
0.273017 0.410242 0.187653
0.386089 0.411435 0.188595
0.498045 0.412629 0.189540
0.609173 0.413826 0.190490
0.719643 0.415028 0.191447
0.829567 0.416236 0.192411
0.939025 0.417451 0.193383
0.046289 0.525062 0.188939
0.165123 0.526334 0.189948
0.279907 0.527576 0.190935
0.392979 0.528812 0.191920
0.504935 0.530049 0.192908
0.616063 0.531289 0.193901
0.726533 0.532533 0.194900
0.836457 0.533783 0.195906
0.945914 0.535040 0.196919
0.053129 0.641602 0.192255
0.171963 0.642919 0.193309
0.286747 0.644205 0.194340
0.399818 0.645485 0.195368
0.511775 0.646764 0.196398
0.622903 0.648046 0.197433
0.733373 0.649332 0.198474
0.843296 0.650624 0.199522
0.952754 0.651922 0.200577
0.059929 0.757607 0.195697
0.178763 0.758970 0.196795
0.293546 0.760299 0.197869
0.406618 0.761621 0.198940
0.518575 0.762942 0.200013
0.629703 0.764266 0.201090
0.740172 0.765594 0.202172
0.850096 0.766928 0.203262
0.959554 0.768267 0.204358
0.066695 0.873190 0.199265
0.185529 0.874597 0.200408
0.300313 0.875969 0.201525
0.413385 0.877334 0.202639
0.525341 0.878697 0.203753
0.636469 0.880063 0.204872
0.746939 0.881432 0.205996
0.856863 0.882807 0.207127
0.966320 0.884188 0.208264
0.072357 0.970012 0.202361
0.191191 0.971456 0.203541
0.305975 0.972865 0.204694
0.419047 0.974265 0.205843
0.531003 0.975663 0.206993
0.642131 0.977064 0.208147
0.752601 0.978468 0.209306
0.862525 0.979878 0.210471
0.971982 0.981293 0.211643
0.018843 0.046772 0.297069
0.137677 0.047864 0.297896
0.252461 0.048931 0.298708
0.365533 0.049995 0.299521
0.477489 0.051061 0.300338
0.588617 0.052131 0.301161
0.699087 0.053207 0.301992
0.809011 0.054290 0.302830
0.918468 0.055380 0.303677
0.026122 0.170182 0.299978
0.144956 0.171321 0.300854
0.259740 0.172434 0.301712
0.372812 0.173544 0.302571
0.484768 0.174655 0.303433
0.595896 0.175770 0.304301
0.706366 0.176891 0.305177
0.816290 0.178018 0.306060
0.925747 0.179152 0.306951
0.033180 0.289995 0.302958
0.152014 0.291181 0.303880
0.266798 0.292340 0.304783
0.379870 0.293494 0.305686
0.491826 0.294649 0.306592
0.602954 0.295808 0.307504
0.713424 0.296972 0.308423
0.823348 0.298142 0.309349
0.932805 0.299319 0.310283
0.040137 0.408244 0.306047
0.158971 0.409475 0.307014
0.273754 0.410678 0.307962
0.386826 0.411876 0.308909
0.498782 0.413074 0.309858
0.609911 0.414276 0.310813
0.720380 0.415483 0.311774
0.830304 0.416695 0.312743
0.939762 0.417915 0.313719
0.047026 0.525504 0.309255
0.165860 0.526781 0.310268
0.280644 0.528028 0.311260
0.393716 0.529269 0.312250
0.505672 0.530510 0.313242
0.616800 0.531754 0.314240
0.727270 0.533003 0.315243
0.837194 0.534258 0.316254
0.946651 0.535519 0.317272
0.053866 0.642060 0.312587
0.172700 0.643383 0.313645
0.287484 0.644673 0.314680
0.400556 0.645957 0.315713
0.512512 0.647241 0.316748
0.623640 0.648527 0.317788
0.734110 0.649818 0.318833
0.844034 0.651114 0.319885
0.953491 0.652417 0.320945
0.060666 0.758081 0.316044
0.179500 0.759449 0.317147
0.294284 0.760782 0.318226
0.407355 0.762109 0.319301
0.519312 0.763435 0.320379
0.630440 0.764763 0.321460
0.740910 0.766096 0.322547
0.850833 0.767434 0.323641
0.960291 0.768778 0.324742
0.067432 0.873680 0.319628
0.186266 0.875091 0.320776
0.301050 0.876468 0.321897
0.414122 0.877838 0.323015
0.526078 0.879206 0.324135
0.637206 0.880576 0.325258
0.747676 0.881950 0.326387
0.857600 0.883329 0.327522
0.967058 0.884714 0.328664
0.073094 0.970515 0.322736
0.191928 0.971964 0.323922
0.306712 0.973377 0.325080
0.419784 0.974782 0.326233
0.531740 0.976185 0.327388
0.642868 0.977590 0.328546
0.753338 0.978999 0.329709
0.863262 0.980413 0.330879
0.972719 0.981832 0.332055
0.019566 0.047144 0.415022
0.138400 0.048240 0.415854
0.253184 0.049312 0.416671
0.366256 0.050381 0.417488
0.478212 0.051451 0.418310
0.589340 0.052526 0.419137
0.699810 0.053606 0.419972
0.809734 0.054693 0.420815
0.919191 0.055788 0.421666
0.026845 0.170570 0.417948
0.145679 0.171714 0.418828
0.260463 0.172832 0.419691
0.373535 0.173946 0.420554
0.485491 0.175062 0.421421
0.596619 0.176182 0.422294
0.707089 0.177307 0.423174
0.817013 0.178438 0.424061
0.926470 0.179577 0.424956
0.033903 0.290400 0.420943
0.152737 0.291590 0.421870
0.267521 0.292754 0.422778
0.380593 0.293912 0.423685
0.492549 0.295072 0.424596
0.603677 0.296235 0.425513
0.714147 0.297403 0.426436
0.824071 0.298578 0.427366
0.933528 0.299759 0.428304
0.040860 0.408664 0.424048
0.159694 0.409900 0.425020
0.274477 0.411108 0.425973
0.387549 0.412310 0.426924
0.499505 0.413513 0.427878
0.610634 0.414719 0.428837
0.721103 0.415930 0.429803
0.831027 0.417147 0.430776
0.940485 0.418371 0.431756
0.047749 0.525940 0.427272
0.166583 0.527222 0.428290
0.281367 0.528473 0.429286
0.394439 0.529719 0.430280
0.506395 0.530964 0.431277
0.617523 0.532213 0.432279
0.727993 0.533466 0.433287
0.837917 0.534726 0.434302
0.947374 0.535991 0.435325
0.054589 0.642511 0.430619
0.173423 0.643839 0.431682
0.288207 0.645134 0.432722
0.401279 0.646422 0.433759
0.513235 0.647710 0.434799
0.624363 0.649001 0.435843
0.734833 0.650296 0.436893
0.844757 0.651597 0.437949
0.954214 0.652904 0.439013
0.061389 0.758548 0.434092
0.180223 0.759920 0.435199
0.295007 0.761258 0.436283
0.408078 0.762589 0.437363
0.520035 0.763920 0.438445
0.631163 0.765253 0.439531
0.741633 0.766590 0.440622
0.851556 0.767932 0.441720
0.961014 0.769281 0.442826
0.068156 0.874161 0.437691
0.186989 0.875578 0.438843
0.301773 0.876960 0.439970
0.414845 0.878333 0.441092
0.526801 0.879706 0.442216
0.637930 0.881080 0.443344
0.748399 0.882459 0.444477
0.858323 0.883843 0.445616
0.967781 0.885232 0.446763
0.073817 0.971009 0.440812
0.192651 0.972463 0.442002
0.307435 0.973881 0.443165
0.420507 0.975290 0.444323
0.532463 0.976698 0.445482
0.643591 0.978107 0.446644
0.754061 0.979521 0.447812
0.863985 0.980939 0.448986
0.973442 0.982363 0.450167
0.020280 0.047513 0.531464
0.139114 0.048614 0.532301
0.253898 0.049690 0.533122
0.366969 0.050763 0.533944
0.478926 0.051838 0.534770
0.590054 0.052917 0.535603
0.700524 0.054002 0.536442
0.810447 0.055094 0.537289
0.919905 0.056192 0.538145
0.027559 0.170955 0.534407
0.146393 0.172104 0.535291
0.261177 0.173226 0.536159
0.374249 0.174345 0.537027
0.486205 0.175465 0.537898
0.597333 0.176589 0.538775
0.707803 0.177719 0.539659
0.817727 0.178855 0.540551
0.927184 0.179998 0.541451
0.034617 0.290801 0.537418
0.153451 0.291996 0.538349
0.268235 0.293164 0.539262
0.381306 0.294327 0.540174
0.493263 0.295491 0.541089
0.604391 0.296658 0.542010
0.714861 0.297831 0.542937
0.824784 0.299010 0.543872
0.934242 0.300196 0.544814
0.041573 0.409080 0.540538
0.160407 0.410321 0.541515
0.275191 0.411533 0.542472
0.388263 0.412740 0.543428
0.500219 0.413947 0.544386
0.611347 0.415158 0.545350
0.721817 0.416373 0.546320
0.831741 0.417595 0.547297
0.941199 0.418823 0.548282
0.048463 0.526372 0.543777
0.167297 0.527658 0.544800
0.282081 0.528914 0.545801
0.395153 0.530164 0.546800
0.507109 0.531414 0.547801
0.618237 0.532667 0.548807
0.728707 0.533925 0.549820
0.838631 0.535189 0.550839
0.948088 0.536459 0.551866
0.055303 0.642958 0.547140
0.174137 0.644290 0.548207
0.288921 0.645590 0.549252
0.401992 0.646883 0.550294
0.513949 0.648175 0.551338
0.625077 0.649471 0.552386
0.735547 0.650770 0.553440
0.845470 0.652076 0.554501
0.954928 0.653387 0.555570
0.062103 0.759010 0.550627
0.180937 0.760387 0.551740
0.295720 0.761730 0.552828
0.408792 0.763065 0.553912
0.520749 0.764400 0.554999
0.631877 0.765737 0.556089
0.742346 0.767079 0.557185
0.852270 0.768426 0.558288
0.961728 0.769778 0.559397
0.068869 0.874639 0.554242
0.187703 0.876060 0.555399
0.302487 0.877446 0.556530
0.415559 0.878824 0.557657
0.527515 0.880201 0.558785
0.638643 0.881580 0.559917
0.749113 0.882963 0.561055
0.859037 0.884351 0.562199
0.968494 0.885745 0.563350
0.074531 0.971499 0.557376
0.193365 0.972958 0.558570
0.308149 0.974380 0.559738
0.421221 0.975794 0.560900
0.533177 0.977206 0.562063
0.644305 0.978620 0.563231
0.754775 0.980037 0.564403
0.864699 0.981460 0.565581
0.974156 0.982889 0.566767
0.020987 0.047880 0.646782
0.139821 0.048985 0.647623
0.254605 0.050066 0.648449
0.367676 0.051144 0.649275
0.479633 0.052223 0.650106
0.590761 0.053306 0.650942
0.701231 0.054396 0.651786
0.811154 0.055491 0.652638
0.920612 0.056594 0.653497
0.028266 0.171338 0.649740
0.147100 0.172491 0.650630
0.261884 0.173619 0.651502
0.374955 0.174742 0.652374
0.486912 0.175866 0.653250
0.598040 0.176995 0.654131
0.708510 0.178128 0.655020
0.818433 0.179269 0.655916
0.927891 0.180416 0.656820
0.035324 0.291199 0.652767
0.154158 0.292399 0.653703
0.268941 0.293571 0.654620
0.382013 0.294739 0.655536
0.493970 0.295907 0.656456
0.605098 0.297079 0.657381
0.715567 0.298256 0.658313
0.825491 0.299440 0.659252
0.934949 0.300630 0.660199
0.042280 0.409494 0.655902
0.161114 0.410740 0.656884
0.275898 0.411956 0.657846
0.388970 0.413168 0.658806
0.500926 0.414379 0.659769
0.612054 0.415594 0.660737
0.722524 0.416814 0.661711
0.832448 0.418040 0.662693
0.941905 0.419272 0.663682
0.049170 0.526801 0.659157
0.168004 0.528092 0.660184
0.282788 0.529352 0.661190
0.395860 0.530607 0.662193
0.507816 0.531861 0.663199
0.618944 0.533119 0.664209
0.729414 0.534381 0.665226
0.839338 0.535649 0.666250
0.948795 0.536923 0.667281
0.056010 0.643403 0.662534
0.174844 0.644739 0.663607
0.289628 0.646043 0.664656
0.402699 0.647341 0.665702
0.514656 0.648638 0.666751
0.625784 0.649937 0.667803
0.736254 0.651241 0.668862
0.846177 0.652551 0.669927
0.955635 0.653867 0.671000
0.062810 0.759469 0.666037
0.181644 0.760851 0.667155
0.296427 0.762198 0.668247
0.409499 0.763538 0.669336
0.521455 0.764877 0.670427
0.632584 0.766219 0.671521
0.743053 0.767565 0.672622
0.852977 0.768916 0.673728
0.962435 0.770273 0.674842
0.069576 0.875113 0.669666
0.188410 0.876539 0.670828
0.303194 0.877929 0.671964
0.416266 0.879312 0.673095
0.528222 0.880693 0.674228
0.639350 0.882077 0.675364
0.749820 0.883464 0.676506
0.859744 0.884856 0.677655
0.969201 0.886255 0.678810
0.075238 0.971986 0.672813
0.194072 0.973449 0.674012
0.308856 0.974876 0.675184
0.421928 0.976294 0.676351
0.533884 0.977711 0.677519
0.645012 0.979129 0.678690
0.755482 0.980551 0.679867
0.865406 0.981978 0.681050
0.974863 0.983411 0.682239
0.021688 0.048246 0.761204
0.140522 0.049356 0.762050
0.255306 0.050441 0.762880
0.368378 0.051523 0.763711
0.480334 0.052606 0.764546
0.591462 0.053694 0.765387
0.701932 0.054788 0.766235
0.811856 0.055888 0.767090
0.921313 0.056995 0.767954
0.028967 0.171719 0.764178
0.147801 0.172877 0.765072
0.262585 0.174009 0.765949
0.375657 0.175137 0.766825
0.487613 0.176266 0.767705
0.598741 0.177398 0.768591
0.709211 0.178536 0.769484
0.819135 0.179681 0.770384
0.928592 0.180832 0.771293
0.036025 0.291596 0.767220
0.154859 0.292801 0.768161
0.269643 0.293977 0.769083
0.382715 0.295149 0.770003
0.494671 0.296322 0.770927
0.605799 0.297498 0.771857
0.716269 0.298680 0.772793
0.826193 0.299867 0.773736
0.935650 0.301062 0.774687
0.042982 0.409906 0.770371
0.161816 0.411157 0.771358
0.276599 0.412378 0.772324
0.389671 0.413593 0.773288
0.501628 0.414809 0.774255
0.612756 0.416029 0.775228
0.723225 0.417253 0.776206
0.833149 0.418483 0.777192
0.942607 0.419719 0.778186
0.049871 0.527228 0.773641
0.168705 0.528524 0.774673
0.283489 0.529789 0.775683
0.396561 0.531048 0.776690
0.508517 0.532307 0.777700
0.619645 0.533568 0.778715
0.730115 0.534835 0.779736
0.840039 0.536107 0.780764
0.949497 0.537385 0.781799
0.056711 0.643845 0.777033
0.175545 0.645186 0.778110
0.290329 0.646495 0.779164
0.403401 0.647796 0.780214
0.515357 0.649098 0.781267
0.626485 0.650402 0.782324
0.736955 0.651710 0.783387
0.846879 0.653024 0.784457
0.956336 0.654344 0.785534
0.063511 0.759926 0.780551
0.182345 0.761312 0.781673
0.297129 0.762664 0.782770
0.410200 0.764009 0.783863
0.522157 0.765352 0.784958
0.633285 0.766698 0.786057
0.743755 0.768048 0.787162
0.853678 0.769404 0.788273
0.963136 0.770765 0.789391
0.070278 0.875585 0.784195
0.189112 0.877015 0.785361
0.303895 0.878411 0.786501
0.416967 0.879797 0.787637
0.528923 0.881183 0.788774
0.640052 0.882571 0.789915
0.750521 0.883963 0.791061
0.860445 0.885359 0.792214
0.969903 0.886762 0.793373
0.075939 0.972470 0.787354
0.194773 0.973938 0.788558
0.309557 0.975369 0.789734
0.422629 0.976792 0.790905
0.534585 0.978213 0.792077
0.645713 0.979635 0.793253
0.756183 0.981062 0.794434
0.866107 0.982493 0.795621
0.975565 0.983930 0.796815
0.022385 0.048610 0.874883
0.141219 0.049725 0.875733
0.256003 0.050815 0.876568
0.369074 0.051901 0.877403
0.481031 0.052989 0.878242
0.592159 0.054081 0.879088
0.702629 0.055179 0.879940
0.812552 0.056283 0.880800
0.922010 0.057394 0.881668
0.029664 0.172100 0.877873
0.148498 0.173263 0.878772
0.263282 0.174399 0.879653
0.376354 0.175531 0.880534
0.488310 0.176664 0.881418
0.599438 0.177801 0.882308
0.709908 0.178943 0.883205
0.819832 0.180092 0.884110
0.929289 0.181248 0.885022
0.036722 0.291992 0.880930
0.155556 0.293201 0.881876
0.270340 0.294382 0.882802
0.383411 0.295559 0.883727
0.495368 0.296736 0.884655
0.606496 0.297916 0.885589
0.716966 0.299102 0.886529
0.826889 0.300294 0.887477
0.936347 0.301492 0.888432
0.043679 0.410317 0.884096
0.162512 0.411572 0.885087
0.277296 0.412798 0.886058
0.390368 0.414018 0.887027
0.502324 0.415238 0.887998
0.613452 0.416462 0.888975
0.723922 0.417690 0.889958
0.833846 0.418924 0.890948
0.943304 0.420165 0.891946
0.050568 0.527654 0.887381
0.169402 0.528954 0.888417
0.284186 0.530224 0.889432
0.397258 0.531487 0.890444
0.509214 0.532750 0.891458
0.620342 0.534016 0.892478
0.730812 0.535287 0.893503
0.840736 0.536563 0.894535
0.950193 0.537846 0.895575
0.057408 0.644286 0.890788
0.176242 0.645631 0.891870
0.291026 0.646945 0.892928
0.404097 0.648251 0.893983
0.516054 0.649556 0.895040
0.627182 0.650865 0.896101
0.737652 0.652177 0.897169
0.847575 0.653495 0.898243
0.957033 0.654820 0.899324
0.064208 0.760382 0.894321
0.183042 0.761773 0.895447
0.297826 0.763129 0.896549
0.410897 0.764478 0.897646
0.522854 0.765826 0.898746
0.633982 0.767176 0.899849
0.744452 0.768530 0.900958
0.854375 0.769890 0.902073
0.963833 0.771256 0.903196
0.070974 0.876055 0.897980
0.189808 0.877491 0.899151
0.304592 0.878890 0.900295
0.417664 0.880281 0.901435
0.529620 0.881671 0.902577
0.640748 0.883063 0.903722
0.751218 0.884459 0.904872
0.861142 0.885860 0.906029
0.970599 0.887267 0.907193
0.076636 0.972953 0.901151
0.195470 0.974426 0.902359
0.310254 0.975861 0.903540
0.423326 0.977288 0.904716
0.535282 0.978713 0.905892
0.646410 0.980140 0.907072
0.756880 0.981571 0.908258
0.866804 0.983006 0.909449
0.976261 0.984448 0.910647
0.022809 0.048833 0.944096
0.141643 0.049950 0.944950
0.256427 0.051043 0.945787
0.369499 0.052132 0.946625
0.481455 0.053222 0.947467
0.592583 0.054317 0.948314
0.703053 0.055417 0.949169
0.812977 0.056524 0.950032
0.922434 0.057638 0.950903
0.030088 0.172332 0.947096
0.148922 0.173498 0.947998
0.263706 0.174637 0.948881
0.376778 0.175771 0.949765
0.488734 0.176907 0.950652
0.599862 0.178047 0.951545
0.710332 0.179192 0.952444
0.820256 0.180343 0.953351
0.929713 0.181501 0.954267
0.037146 0.292234 0.950163
0.155980 0.293446 0.951111
0.270764 0.294630 0.952040
0.383836 0.295808 0.952968
0.495792 0.296988 0.953899
0.606920 0.298171 0.954835
0.717390 0.299360 0.955778
0.827314 0.300554 0.956728
0.936771 0.301755 0.957686
0.044103 0.410568 0.953338
0.162937 0.411826 0.954332
0.277721 0.413054 0.955305
0.390792 0.414277 0.956277
0.502749 0.415500 0.957251
0.613877 0.416726 0.958230
0.724347 0.417957 0.959216
0.834270 0.419194 0.960208
0.943728 0.420437 0.961209
0.050993 0.527914 0.956632
0.169826 0.529217 0.957671
0.284610 0.530490 0.958688
0.397682 0.531755 0.959703
0.509638 0.533021 0.960720
0.620766 0.534290 0.961742
0.731236 0.535563 0.962770
0.841160 0.536842 0.963804
0.950618 0.538127 0.964847
0.057832 0.644555 0.960048
0.176666 0.645903 0.961133
0.291450 0.647219 0.962194
0.404522 0.648528 0.963251
0.516478 0.649836 0.964311
0.627606 0.651147 0.965375
0.738076 0.652463 0.966445
0.848000 0.653783 0.967521
0.957457 0.655110 0.968605
0.064632 0.760660 0.963590
0.183466 0.762054 0.964719
0.298250 0.763413 0.965823
0.411322 0.764764 0.966924
0.523278 0.766115 0.968025
0.634406 0.767468 0.969131
0.744876 0.768825 0.970243
0.854800 0.770187 0.971361
0.964257 0.771555 0.972486
0.071399 0.876343 0.967257
0.190233 0.877781 0.968431
0.305016 0.879183 0.969579
0.418088 0.880577 0.970722
0.530044 0.881969 0.971866
0.641173 0.883364 0.973013
0.751642 0.884763 0.974166
0.861566 0.886166 0.975326
0.971024 0.887575 0.976492
0.077061 0.973248 0.970436
0.195894 0.974723 0.971648
0.310678 0.976161 0.972831
0.423750 0.977591 0.974009
0.535706 0.979019 0.975189
0.646834 0.980448 0.976371
0.757304 0.981882 0.977559
0.867228 0.983320 0.978753
0.976686 0.984763 0.979954
