LUTs/04_Fuji_400H_Clean.cube
TITLE "Fuji 400H Clean"
# Nikon D5500 + Sigma 17-50 - subtle creative look (apply ~20-40%)
LUT_3D_SIZE 5
DOMAIN_MIN 0.0 0.0 0.0
DOMAIN_MAX 1.0 1.0 1.0
0.017338 0.046003 0.051475
0.250955 0.048142 0.053095
0.475983 0.050253 0.054706
0.697581 0.052381 0.056342
0.916963 0.054535 0.058009
0.031675 0.289159 0.057297
0.265292 0.291483 0.059103
0.490320 0.293774 0.060893
0.711918 0.296078 0.062705
0.931300 0.298407 0.064546
0.045521 0.524602 0.063529
0.279139 0.527107 0.065514
0.504167 0.529570 0.067478
0.725765 0.532045 0.069460
0.945146 0.534542 0.071470
0.059160 0.757115 0.070254
0.292778 0.759797 0.072416
0.517806 0.762430 0.074550
0.739404 0.765073 0.076700
0.958785 0.767737 0.078877
0.071589 0.969490 0.076888
0.305207 0.972333 0.079211
0.530235 0.975122 0.081500
0.751833 0.977917 0.083804
0.971214 0.980733 0.086131
0.018843 0.046772 0.297069
0.252461 0.048931 0.298708
0.477489 0.051061 0.300338
0.699087 0.053207 0.301992
0.918468 0.055380 0.303677
0.033180 0.289995 0.302958
0.266798 0.292340 0.304783
0.491826 0.294649 0.306592
0.713424 0.296972 0.308423
0.932805 0.299319 0.310283
0.047026 0.525504 0.309255
0.280644 0.528028 0.311260
0.505672 0.530510 0.313242
0.727270 0.533003 0.315243
0.946651 0.535519 0.317272
0.060666 0.758081 0.316044
0.294284 0.760782 0.318226
0.519312 0.763435 0.320379
0.740910 0.766096 0.322547
0.960291 0.768778 0.324742
0.073094 0.970515 0.322736
0.306712 0.973377 0.325080
0.531740 0.976185 0.327388
0.753338 0.978999 0.329709
0.972719 0.981832 0.332055
0.020280 0.047513 0.531464
0.253898 0.049690 0.533122
0.478926 0.051838 0.534770
0.700524 0.054002 0.536442
0.919905 0.056192 0.538145
0.034617 0.290801 0.537418
0.268235 0.293164 0.539262
0.493263 0.295491 0.541089
0.714861 0.297831 0.542937
0.934242 0.300196 0.544814
0.048463 0.526372 0.543777
0.282081 0.528914 0.545801
0.507109 0.531414 0.547801
0.728707 0.533925 0.549820
0.948088 0.536459 0.551866
0.062103 0.759010 0.550627
0.295720 0.761730 0.552828
0.520749 0.764400 0.554999
0.742346 0.767079 0.557185
0.961728 0.769778 0.559397
0.074531 0.971499 0.557376
0.308149 0.974380 0.559738
0.533177 0.977206 0.562063
0.754775 0.980037 0.564403
0.974156 0.982889 0.566767
0.021688 0.048246 0.761204
0.255306 0.050441 0.762880
0.480334 0.052606 0.764546
0.701932 0.054788 0.766235
0.921313 0.056995 0.767954
0.036025 0.291596 0.767220
0.269643 0.293977 0.769083
0.494671 0.296322 0.770927
0.716269 0.298680 0.772793
0.935650 0.301062 0.774687
0.049871 0.527228 0.773641
0.283489 0.529789 0.775683
0.508517 0.532307 0.777700
0.730115 0.534835 0.779736
0.949497 0.537385 0.781799
0.063511 0.759926 0.780551
0.297129 0.762664 0.782770
0.522157 0.765352 0.784958
0.743755 0.768048 0.787162
0.963136 0.770765 0.789391
0.075939 0.972470 0.787354
0.309557 0.975369 0.789734
0.534585 0.978213 0.792077
0.756183 0.981062 0.794434
0.975565 0.983930 0.796815
0.022809 0.048833 0.944096
0.256427 0.051043 0.945787
0.481455 0.053222 0.947467
0.703053 0.055417 0.949169
0.922434 0.057638 0.950903
0.037146 0.292234 0.950163
0.270764 0.294630 0.952040
0.495792 0.296988 0.953899
0.717390 0.299360 0.955778
0.936771 0.301755 0.957686
0.050993 0.527914 0.956632
0.284610 0.530490 0.958688
0.509638 0.533021 0.960720
0.731236 0.535563 0.962770
0.950618 0.538127 0.964847
0.064632 0.760660 0.963590
0.298250 0.763413 0.965823
0.523278 0.766115 0.968025
0.744876 0.768825 0.970243
0.964257 0.771555 0.972486
0.077061 0.973248 0.970436
0.310678 0.976161 0.972831
0.535706 0.979019 0.975189
0.757304 0.981882 0.977559
0.976686 0.984763 0.979954
