LUTs/05_Fuji_400H_Pastel.cube
TITLE "Fuji 400H Pastel"
# Nikon D5500 + Sigma 17-50 - subtle creative look (apply ~20-40%)
LUT_3D_SIZE 9
DOMAIN_MIN 0.0 0.0 0.0
DOMAIN_MAX 1.0 1.0 1.0
0.101471 0.117200 0.124491
0.193847 0.121984 0.129275
0.283128 0.126618 0.133909
0.370836 0.131181 0.138472
0.457479 0.135698 0.142989
0.543317 0.140183 0.147474
0.628510 0.144644 0.151935
0.713163 0.149086 0.156377
0.783637 0.152791 0.160082
0.120933 0.222096 0.140952
0.213308 0.226918 0.145774
0.302589 0.231590 0.150446
0.390297 0.236189 0.155045
0.476940 0.240742 0.159598
0.562778 0.245263 0.164119
0.647971 0.249759 0.168615
0.732624 0.254236 0.173092
0.803098 0.257970 0.176826
0.139737 0.323580 0.156983
0.232113 0.328440 0.161843
0.321394 0.333147 0.166550
0.409102 0.337781 0.171184
0.495745 0.342369 0.175772
0.581583 0.346924 0.180327
0.666776 0.351454 0.184858
0.751429 0.355966 0.189369
0.821903 0.359728 0.193131
0.158210 0.423391 0.172851
0.250586 0.428286 0.177747
0.339867 0.433029 0.182489
0.427575 0.437698 0.187158
0.514218 0.442320 0.191780
0.600056 0.446909 0.196369
0.685248 0.451472 0.200933
0.769901 0.456017 0.205477
0.840375 0.459807 0.209267
0.176458 0.522103 0.188642
0.268833 0.527035 0.193573
0.358115 0.531812 0.198350
0.445823 0.536515 0.203053
0.532466 0.541170 0.207709
0.618304 0.545793 0.212331
0.703496 0.550390 0.216928
0.788149 0.554967 0.221506
0.858623 0.558785 0.225324
0.194536 0.620011 0.204400
0.286912 0.624978 0.209367
0.376193 0.629790 0.214178
0.463901 0.634527 0.218915
0.550544 0.639216 0.223604
0.636382 0.643871 0.228260
0.721574 0.648501 0.232890
0.806227 0.653111 0.237499
0.876701 0.656956 0.241344
0.212478 0.717294 0.220151
0.304853 0.722296 0.225154
0.394135 0.727142 0.229999
0.481843 0.731912 0.234770
0.568485 0.736634 0.239492
0.654324 0.741323 0.244180
0.739516 0.745985 0.248843
0.824169 0.750627 0.253485
0.894643 0.754499 0.257357
0.230306 0.814070 0.235913
0.322682 0.819108 0.240951
0.411963 0.823988 0.245831
0.499671 0.828791 0.250634
0.586314 0.833547 0.255390
0.672152 0.838267 0.260110
0.757344 0.842962 0.264805
0.841997 0.847637 0.269480
0.912471 0.851535 0.273378
0.242373 0.879635 0.246644
0.334748 0.884696 0.251706
0.424029 0.889599 0.256608
0.511737 0.894425 0.261435
0.598380 0.899202 0.266212
0.684219 0.903945 0.270955
0.769411 0.908662 0.275672
0.854064 0.913358 0.280368
0.924538 0.917275 0.284285
0.103485 0.118897 0.216833
0.195861 0.123685 0.221621
0.285142 0.128323 0.226259
0.372850 0.132890 0.230825
0.459493 0.137411 0.235346
0.545331 0.141900 0.239835
0.630523 0.146364 0.244299
0.715176 0.150810 0.248745
0.785650 0.154518 0.252453
0.122946 0.223807 0.233308
0.215322 0.228633 0.238134
0.304603 0.233308 0.242809
0.392311 0.237911 0.247412
0.478954 0.242468 0.251969
0.564792 0.246992 0.256493
0.649984 0.251492 0.260993
0.734637 0.255973 0.265474
0.805111 0.259710 0.269211
0.141751 0.325304 0.249352
0.234127 0.330168 0.254215
0.323408 0.334879 0.258926
0.411116 0.339517 0.263564
0.497759 0.344108 0.268156
0.583597 0.348667 0.272715
0.668789 0.353201 0.277249
0.753442 0.357716 0.281764
0.823916 0.361481 0.285529
0.160224 0.425128 0.265233
0.252599 0.430027 0.270132
0.341880 0.434773 0.274878
0.429588 0.439446 0.279551
0.516231 0.444072 0.284177
0.602070 0.448664 0.288769
0.687262 0.453232 0.293337
0.771915 0.457780 0.297885
0.842389 0.461573 0.301678
0.178472 0.523853 0.281036
0.270847 0.528788 0.285972
0.360128 0.533569 0.290753
0.447836 0.538276 0.295459
0.534479 0.542935 0.300119
0.620318 0.547561 0.304745
0.705510 0.552162 0.309345
0.790163 0.556743 0.313926
0.860637 0.560564 0.317747
0.196550 0.621773 0.296807
0.288925 0.626745 0.301778
0.378206 0.631560 0.306593
0.465914 0.636300 0.311334
0.552557 0.640993 0.316027
0.638396 0.645652 0.320686
0.723588 0.650286 0.325319
0.808241 0.654899 0.329933
0.878715 0.658747 0.333781
0.214492 0.719068 0.312571
0.306867 0.724075 0.317577
0.396148 0.728924 0.322427
0.483856 0.733699 0.327201
0.570499 0.738425 0.331927
0.656337 0.743116 0.336619
0.741530 0.747783 0.341285
0.826183 0.752428 0.345931
0.896657 0.756303 0.349806
0.232320 0.815858 0.328345
0.324695 0.820899 0.333387
0.413976 0.825783 0.338270
0.501684 0.830590 0.343078
0.588327 0.835349 0.347837
0.674166 0.840074 0.352561
0.759358 0.844772 0.357260
0.844011 0.849450 0.361938
0.914485 0.853352 0.365840
0.244386 0.881430 0.339085
0.336762 0.886496 0.344150
0.426043 0.891402 0.349057
0.513751 0.896232 0.353887
0.600394 0.901013 0.358668
0.686232 0.905760 0.363414
0.771424 0.910480 0.368135
0.856077 0.915180 0.372835
0.926552 0.919100 0.376755
0.105435 0.120542 0.306257
0.197811 0.125334 0.311049
0.287092 0.129976 0.315691
0.374800 0.134546 0.320261
0.461443 0.139071 0.324786
0.547281 0.143563 0.329278
0.632473 0.148031 0.333746
0.717126 0.152480 0.338195
0.787600 0.156191 0.341906
0.124896 0.225465 0.322745
0.217272 0.230295 0.327575
0.306553 0.234974 0.332254
0.394261 0.239580 0.336861
0.480904 0.244141 0.341422
0.566742 0.248669 0.345949
0.651934 0.253172 0.350453
0.736587 0.257657 0.354937
0.807061 0.261397 0.358677
0.143701 0.326975 0.338803
0.236077 0.331842 0.343670
0.325358 0.336557 0.348384
0.413066 0.341199 0.353026
0.499709 0.345794 0.357621
0.585547 0.350356 0.362184
0.670739 0.354894 0.366721
0.755392 0.359412 0.371240
0.825866 0.363181 0.375008
0.162174 0.426811 0.354696
0.254549 0.431714 0.359599
0.343831 0.436464 0.364349
0.431538 0.441141 0.369025
0.518181 0.445770 0.373655
0.604020 0.450366 0.378251
0.689212 0.454937 0.382822
0.773865 0.459489 0.387373
0.844339 0.463285 0.391170
0.180422 0.525548 0.370511
0.272797 0.530488 0.375451
0.362078 0.535272 0.380236
0.449786 0.539983 0.384946
0.536429 0.544646 0.389609
0.622268 0.549275 0.394239
0.707460 0.553880 0.398843
0.792113 0.558464 0.403427
0.862587 0.562288 0.407251
0.198500 0.623481 0.386294
0.290875 0.628456 0.391269
0.380156 0.633275 0.396088
0.467864 0.638020 0.400833
0.554507 0.642716 0.405529
0.640346 0.647379 0.410192
0.725538 0.652016 0.414829
0.810191 0.656633 0.419446
0.880665 0.660484 0.423297
0.216442 0.720788 0.402070
0.308817 0.725799 0.407081
0.398098 0.730652 0.411934
0.485806 0.735430 0.416712
0.572449 0.740159 0.421441
0.658288 0.744855 0.426137
0.743480 0.749524 0.430806
0.828133 0.754174 0.435456
0.898607 0.758052 0.439334
0.234270 0.817590 0.417857
0.326645 0.822635 0.422903
0.415927 0.827522 0.427790
0.503634 0.832333 0.432601
0.590277 0.837096 0.437363
0.676116 0.841824 0.442092
0.761308 0.846526 0.446794
0.845961 0.851208 0.451475
0.916435 0.855112 0.455380
0.246336 0.883171 0.428605
0.338712 0.888240 0.433674
0.427993 0.893150 0.438584
0.515701 0.897984 0.443418
0.602344 0.902769 0.448203
0.688182 0.907519 0.452953
0.773375 0.912243 0.457677
0.858027 0.916946 0.462380
0.928502 0.920869 0.466303
0.107352 0.122160 0.394151
0.199727 0.126956 0.398946
0.289009 0.131601 0.403592
0.376717 0.136175 0.408165
0.463360 0.140703 0.412694
0.549198 0.145199 0.417189
0.634390 0.149670 0.421661
0.719043 0.154123 0.426113
0.789517 0.157837 0.429827
0.126813 0.227096 0.410652
0.219189 0.231930 0.415486
0.308470 0.236612 0.420168
0.396178 0.241222 0.424778
0.482821 0.245787 0.429342
0.568659 0.250318 0.433874
0.653851 0.254825 0.438381
0.738504 0.259312 0.442868
0.808978 0.263056 0.446612
0.145618 0.328619 0.426721
0.237993 0.333489 0.431592
0.327275 0.338208 0.436311
0.414983 0.342853 0.440956
0.501626 0.347452 0.445555
0.587464 0.352018 0.450121
0.672656 0.356559 0.454662
0.757309 0.361080 0.459183
0.827783 0.364852 0.462955
0.164090 0.428467 0.442627
0.256466 0.433374 0.447534
0.345747 0.438127 0.452287
0.433455 0.442807 0.456967
0.520098 0.447440 0.461600
0.605936 0.452040 0.466200
0.691129 0.456614 0.470774
0.775781 0.461169 0.475329
0.846256 0.464969 0.479129
0.182338 0.527216 0.458455
0.274714 0.532159 0.463398
0.363995 0.536948 0.468186
0.451703 0.541662 0.472900
0.538346 0.546328 0.477567
0.624184 0.550961 0.482200
0.709376 0.555569 0.486808
0.794029 0.560157 0.491396
0.864503 0.563984 0.495222
0.200416 0.625161 0.474250
0.292792 0.630140 0.479228
0.382073 0.634963 0.484051
0.469781 0.639711 0.488799
0.556424 0.644411 0.493499
0.642262 0.649077 0.498165
0.727454 0.653717 0.502806
0.812107 0.658338 0.507426
0.882582 0.662192 0.511280
0.218358 0.722480 0.490038
0.310734 0.727495 0.495052
0.400015 0.732351 0.499909
0.487723 0.737133 0.504690
0.574366 0.741866 0.509423
0.660204 0.746565 0.514122
0.745396 0.751238 0.518795
0.830049 0.755891 0.523448
0.900523 0.759772 0.527329
0.236186 0.819294 0.505836
0.328562 0.824343 0.510886
0.417843 0.829234 0.515776
0.505551 0.834048 0.520591
0.592194 0.838814 0.525357
0.678032 0.843546 0.530089
0.763225 0.848251 0.534794
0.847877 0.852937 0.539479
0.918352 0.856844 0.543387
0.248253 0.884882 0.516592
0.340629 0.889955 0.521665
0.429910 0.894869 0.526579
0.517618 0.899706 0.531416
0.604261 0.904495 0.536204
0.690099 0.909248 0.540958
0.775291 0.913976 0.545685
0.859944 0.918683 0.550392
0.930418 0.922608 0.554318
0.109246 0.123760 0.480998
0.201621 0.128559 0.485797
0.290902 0.133208 0.490446
0.378610 0.137786 0.495024
0.465253 0.142317 0.499555
0.551092 0.146817 0.504055
0.636284 0.151292 0.508530
0.720937 0.155748 0.512986
0.791411 0.159464 0.516702
0.128707 0.228709 0.497512
0.221082 0.233546 0.502349
0.310363 0.238232 0.507036
0.398071 0.242846 0.511649
0.484714 0.247414 0.516217
0.570553 0.251949 0.520752
0.655745 0.256459 0.525262
0.740398 0.260950 0.529753
0.810872 0.264696 0.533499
0.147512 0.330244 0.513594
0.239887 0.335118 0.518469
0.329168 0.339840 0.523191
0.416876 0.344489 0.527839
0.503519 0.349092 0.532442
0.589358 0.353661 0.537011
0.674550 0.358205 0.541555
0.759203 0.362730 0.546081
0.829677 0.366505 0.549855
0.165984 0.430104 0.529511
0.258360 0.435015 0.534422
0.347641 0.439772 0.539179
0.435349 0.444455 0.543863
0.521992 0.449092 0.548499
0.607830 0.453695 0.553102
0.693022 0.458273 0.557680
0.777675 0.462831 0.562239
0.848149 0.466634 0.566041
0.184232 0.528866 0.545351
0.276608 0.533812 0.550298
0.365889 0.538604 0.555090
0.453597 0.543322 0.559808
0.540240 0.547992 0.564478
0.626078 0.552629 0.569114
0.711270 0.557240 0.573726
0.795923 0.561831 0.578317
0.866397 0.565660 0.582146
0.202310 0.626822 0.561158
0.294686 0.631805 0.566141
0.383967 0.636631 0.570967
0.471675 0.641383 0.575718
0.558318 0.646086 0.580422
0.644156 0.650756 0.585091
0.729348 0.655400 0.589735
0.814001 0.660024 0.594359
0.884475 0.663880 0.598216
0.220252 0.724153 0.576958
0.312628 0.729171 0.581976
0.401909 0.734032 0.586836
0.489617 0.738817 0.591621
0.576260 0.743553 0.596358
0.662098 0.748256 0.601060
0.747290 0.752932 0.605737
0.831943 0.757589 0.610393
0.902417 0.761472 0.614277
0.238080 0.820978 0.592768
0.330456 0.826031 0.597821
0.419737 0.830926 0.602716
0.507445 0.835744 0.607534
0.594088 0.840513 0.612304
0.679926 0.845248 0.617039
0.765118 0.849957 0.621748
0.849771 0.854646 0.626436
0.920245 0.858556 0.630346
0.250147 0.886575 0.603532
0.342522 0.891652 0.608609
0.431804 0.896569 0.613526
0.519512 0.901410 0.618367
0.606155 0.906202 0.623159
0.691993 0.910959 0.627916
0.777185 0.915690 0.632647
0.861838 0.920400 0.637357
0.932312 0.924329 0.641286
0.111122 0.125347 0.567051
0.203498 0.130150 0.571854
0.292779 0.134802 0.576507
0.380487 0.139383 0.581088
0.467130 0.143918 0.585623
0.552968 0.148421 0.590126
0.638160 0.152899 0.594604
0.722813 0.157359 0.599064
0.793287 0.161078 0.602783
0.130583 0.230308 0.583578
0.222959 0.235149 0.588419
0.312240 0.239839 0.593109
0.399948 0.244456 0.597726
0.486591 0.249027 0.602297
0.572429 0.253565 0.606836
0.657621 0.258079 0.611349
0.742274 0.262574 0.615844
0.812748 0.266323 0.619593
0.149388 0.331855 0.599672
0.241764 0.336734 0.604551
0.331045 0.341459 0.609276
0.418753 0.346111 0.613929
0.505396 0.350717 0.618534
0.591234 0.355290 0.623107
0.676426 0.359838 0.627655
0.761079 0.364366 0.632183
0.831553 0.368143 0.635961
0.167861 0.431727 0.615602
0.260236 0.436642 0.620517
0.349517 0.441403 0.625277
0.437225 0.446090 0.629964
0.523868 0.450730 0.634604
0.609707 0.455336 0.639211
0.694899 0.459918 0.643792
0.779552 0.464479 0.648354
0.850026 0.468284 0.652159
0.186109 0.530501 0.631454
0.278484 0.535452 0.636404
0.367765 0.540247 0.641200
0.455473 0.544968 0.645921
0.542116 0.549642 0.650595
0.627954 0.554282 0.655234
0.713147 0.558896 0.659849
0.797800 0.563491 0.664444
0.868274 0.567323 0.668276
0.204187 0.628470 0.647272
0.296562 0.633456 0.652259
0.385843 0.638286 0.657088
0.473551 0.643041 0.661843
0.560194 0.647748 0.666550
0.646033 0.652421 0.671223
0.731225 0.657068 0.675871
0.815878 0.661695 0.680498
0.886352 0.665555 0.684357
0.222128 0.725812 0.663084
0.314504 0.730834 0.668105
0.403785 0.735698 0.672969
0.491493 0.740486 0.677758
0.578136 0.745226 0.682498
0.663974 0.749932 0.687204
0.749167 0.754612 0.691884
0.833820 0.759272 0.696543
0.904294 0.763158 0.700430
0.239957 0.822649 0.678906
0.332332 0.827705 0.683963
0.421613 0.832603 0.688860
0.509321 0.837425 0.693682
0.595964 0.842198 0.698455
0.681803 0.846937 0.703194
0.766995 0.851649 0.707906
0.851648 0.856341 0.712598
0.922122 0.860254 0.716511
0.252023 0.888253 0.689677
0.344399 0.893334 0.694758
0.433680 0.898255 0.699679
0.521388 0.903099 0.704523
0.608031 0.907894 0.709318
0.693869 0.912655 0.714079
0.779061 0.917389 0.718813
0.863714 0.922103 0.723527
0.934189 0.926034 0.727458
0.112985 0.126923 0.652466
0.205360 0.131729 0.657273
0.294641 0.136385 0.661929
0.382349 0.140970 0.666513
0.468992 0.145508 0.671052
0.554831 0.150014 0.675558
0.640023 0.154496 0.680040
0.724676 0.158959 0.684502
0.795150 0.162681 0.688225
0.132446 0.231896 0.669005
0.224821 0.236741 0.673850
0.314102 0.241435 0.678543
0.401810 0.246055 0.683164
0.488453 0.250630 0.687739
0.574292 0.255172 0.692280
0.659484 0.259689 0.696797
0.744137 0.264187 0.701295
0.814611 0.267938 0.705047
0.151251 0.333456 0.685112
0.243626 0.338338 0.689994
0.332907 0.343067 0.694723
0.420615 0.347723 0.699379
0.507258 0.352332 0.703988
0.593097 0.356908 0.708564
0.678289 0.361459 0.713115
0.762942 0.365991 0.717647
0.833416 0.369771 0.721427
0.169723 0.433340 0.701053
0.262099 0.438259 0.705971
0.351380 0.443023 0.710736
0.439088 0.447713 0.715426
0.525731 0.452357 0.720069
0.611569 0.456966 0.724679
0.696761 0.461551 0.729264
0.781414 0.466116 0.733829
0.851888 0.469924 0.737637
0.187971 0.532125 0.716917
0.280347 0.537080 0.721871
0.369628 0.541879 0.726670
0.457336 0.546603 0.731395
0.543979 0.551280 0.736072
0.629817 0.555924 0.740715
0.715009 0.560542 0.745333
0.799662 0.565140 0.749931
0.870136 0.568975 0.753766
0.206049 0.630106 0.732747
0.298425 0.635096 0.737737
0.387706 0.639929 0.742570
0.475414 0.644687 0.747329
0.562057 0.649398 0.752039
0.647895 0.654074 0.756715
0.733087 0.658725 0.761366
0.817740 0.663356 0.765997
0.888214 0.667218 0.769859
0.223991 0.727460 0.748570
0.316367 0.732485 0.753595
0.405648 0.737353 0.758463
0.493356 0.742145 0.763255
0.579999 0.746888 0.767998
0.665837 0.751598 0.772708
0.751029 0.756281 0.777391
0.835682 0.760944 0.782054
0.906156 0.764833 0.785943
0.241819 0.824308 0.764404
0.334195 0.829368 0.769464
0.423476 0.834270 0.774365
0.511184 0.839095 0.779191
0.597827 0.843872 0.783967
0.683665 0.848614 0.788709
0.768857 0.853329 0.793425
0.853510 0.858024 0.798120
0.923984 0.861940 0.802036
0.253886 0.889921 0.775183
0.346261 0.895005 0.780267
0.435543 0.899929 0.785191
0.523251 0.904777 0.790039
0.609894 0.909576 0.794838
0.695732 0.914340 0.799602
0.780924 0.919077 0.804340
0.865577 0.923794 0.809057
0.936051 0.927728 0.812991
0.114835 0.128490 0.737346
0.207211 0.133300 0.742157
0.296492 0.137960 0.746816
0.384200 0.142548 0.751404
0.470843 0.147090 0.755946
0.556681 0.151599 0.760456
0.641874 0.156084 0.764941
0.726527 0.160550 0.769407
0.797001 0.164276 0.773132
0.134297 0.233476 0.753898
0.226672 0.238325 0.758747
0.315953 0.243022 0.763443
0.403661 0.247646 0.768068
0.490304 0.252224 0.772645
0.576142 0.256769 0.777191
0.661335 0.261289 0.781711
0.745988 0.265790 0.786212
0.816462 0.269545 0.789967
0.153101 0.335048 0.770017
0.245477 0.339933 0.774902
0.334758 0.344666 0.779635
0.422466 0.349325 0.784294
0.509109 0.353938 0.788907
0.594947 0.358518 0.793486
0.680140 0.363072 0.798041
0.764793 0.367607 0.802576
0.835267 0.371390 0.806359
0.171574 0.434944 0.785970
0.263950 0.439866 0.790892
0.353231 0.444634 0.795660
0.440939 0.449328 0.800353
0.527582 0.453974 0.805000
0.613420 0.458588 0.809614
0.698612 0.463176 0.814202
0.783265 0.467744 0.818770
0.853739 0.471555 0.822581
0.189822 0.533741 0.801845
0.282197 0.538699 0.806803
0.371479 0.543501 0.811606
0.459187 0.548229 0.816334
0.545830 0.552910 0.821014
0.631668 0.557557 0.825661
0.716860 0.562178 0.830282
0.801513 0.566779 0.834884
0.871987 0.570617 0.838722
0.207900 0.631733 0.817687
0.300276 0.636726 0.822681
0.389557 0.641563 0.827518
0.477265 0.646325 0.832279
0.563908 0.651039 0.836993
0.649746 0.655719 0.841673
0.734938 0.660373 0.846327
0.819591 0.665007 0.850961
0.890065 0.668872 0.854826
0.225842 0.729099 0.833522
0.318217 0.734128 0.838551
0.407499 0.738999 0.843422
0.495207 0.743794 0.848217
0.581850 0.748541 0.852964
0.667688 0.753254 0.857677
0.752880 0.757940 0.862363
0.837533 0.762607 0.867030
0.908007 0.766499 0.870922
0.243670 0.825958 0.849367
0.336046 0.831022 0.854431
0.425327 0.835927 0.859336
0.513035 0.840756 0.864164
0.599678 0.845536 0.868944
0.685516 0.850281 0.873690
0.770708 0.855000 0.878409
0.855361 0.859699 0.883107
0.925835 0.863617 0.887026
0.255737 0.891578 0.860154
0.348112 0.896666 0.865242
0.437393 0.901594 0.870170
0.525101 0.906445 0.875021
0.611744 0.911248 0.879823
0.697583 0.916015 0.884590
0.782775 0.920756 0.889331
0.867428 0.925476 0.894052
0.937902 0.929413 0.897989
0.115534 0.129081 0.769362
0.207909 0.133893 0.774174
0.297190 0.138554 0.778835
0.384898 0.143143 0.783424
0.471541 0.147686 0.787967
0.557380 0.152197 0.792478
0.642572 0.156684 0.796965
0.727225 0.161151 0.801432
0.797699 0.164877 0.805158
0.134995 0.234072 0.785919
0.227370 0.238922 0.790769
0.316651 0.243620 0.795467
0.404359 0.248246 0.800092
0.491002 0.252825 0.804672
0.576841 0.257372 0.809218
0.662033 0.261893 0.813740
0.746686 0.266396 0.818242
0.817160 0.270151 0.821998
0.153800 0.335649 0.802042
0.246175 0.340536 0.806929
0.335456 0.345270 0.811663
0.423164 0.349930 0.816323
0.509807 0.354544 0.820937
0.595646 0.359125 0.825518
0.680838 0.363681 0.830074
0.765491 0.368217 0.834610
0.835965 0.372001 0.838394
0.172272 0.435549 0.818000
0.264648 0.440473 0.822923
0.353929 0.445242 0.827692
0.441637 0.449937 0.832387
0.528280 0.454585 0.837035
0.614118 0.459199 0.841650
0.699310 0.463789 0.846239
0.783963 0.468359 0.850809
0.854437 0.472170 0.854621
0.190520 0.534351 0.833880
0.282896 0.539310 0.838839
0.372177 0.544114 0.843643
0.459885 0.548843 0.848372
0.546528 0.553525 0.853054
0.632366 0.558173 0.857702
0.717558 0.562795 0.862324
0.802211 0.567398 0.866927
0.872685 0.571237 0.870766
0.208598 0.632347 0.849726
0.300974 0.637342 0.854721
0.390255 0.642180 0.859559
0.477963 0.646943 0.864322
0.564606 0.651658 0.869037
0.650444 0.656339 0.873718
0.735636 0.660995 0.878374
0.820289 0.665630 0.883009
0.890763 0.669496 0.886875
0.226540 0.729717 0.865565
0.318916 0.734747 0.870595
0.408197 0.739620 0.875467
0.495905 0.744416 0.880264
0.582548 0.749165 0.885012
0.668386 0.753879 0.889726
0.753578 0.758566 0.894414
0.838231 0.763234 0.899082
0.908705 0.767127 0.902975
0.244368 0.826581 0.881414
0.336744 0.831646 0.886479
0.426025 0.836553 0.891386
0.513733 0.841383 0.896216
0.600376 0.846164 0.900997
0.686214 0.850910 0.905744
0.771406 0.855631 0.910464
0.856059 0.860331 0.915164
0.926533 0.864250 0.919084
0.256435 0.892204 0.892204
0.348810 0.897293 0.897293
0.438092 0.902222 0.902222
0.525799 0.907075 0.907075
0.612442 0.911879 0.911879
0.698281 0.916647 0.916647
0.783473 0.921389 0.921389
0.868126 0.926111 0.926111
0.938600 0.930049 0.930049
