LUTs/05_Fuji_400H_Pastel.cube
TITLE "Fuji 400H Pastel"
# Nikon D5500 + Sigma 17-50 - subtle creative look (apply ~20-40%)
LUT_3D_SIZE 5
DOMAIN_MIN 0.0 0.0 0.0
DOMAIN_MAX 1.0 1.0 1.0
0.101471 0.117200 0.124491
0.283128 0.126618 0.133909
0.457479 0.135698 0.142989
0.628510 0.144644 0.151935
0.783637 0.152791 0.160082
0.139737 0.323580 0.156983
0.321394 0.333147 0.166550
0.495745 0.342369 0.175772
0.666776 0.351454 0.184858
0.821903 0.359728 0.193131
0.176458 0.522103 0.188642
0.358115 0.531812 0.198350
0.532466 0.541170 0.207709
0.703496 0.550390 0.216928
0.858623 0.558785 0.225324
0.212478 0.717294 0.220151
0.394135 0.727142 0.229999
0.568485 0.736634 0.239492
0.739516 0.745985 0.248843
0.894643 0.754499 0.257357
0.242373 0.879635 0.246644
0.424029 0.889599 0.256608
0.598380 0.899202 0.266212
0.769411 0.908662 0.275672
0.924538 0.917275 0.284285
0.105435 0.120542 0.306257
0.287092 0.129976 0.315691
0.461443 0.139071 0.324786
0.632473 0.148031 0.333746
0.787600 0.156191 0.341906
0.143701 0.326975 0.338803
0.325358 0.336557 0.348384
0.499709 0.345794 0.357621
0.670739 0.354894 0.366721
0.825866 0.363181 0.375008
0.180422 0.525548 0.370511
0.362078 0.535272 0.380236
0.536429 0.544646 0.389609
0.707460 0.553880 0.398843
0.862587 0.562288 0.407251
0.216442 0.720788 0.402070
0.398098 0.730652 0.411934
0.572449 0.740159 0.421441
0.743480 0.749524 0.430806
0.898607 0.758052 0.439334
0.246336 0.883171 0.428605
0.427993 0.893150 0.438584
0.602344 0.902769 0.448203
0.773375 0.912243 0.457677
0.928502 0.920869 0.466303
0.109246 0.123760 0.480998
0.290902 0.133208 0.490446
0.465253 0.142317 0.499555
0.636284 0.151292 0.508530
0.791411 0.159464 0.516702
0.147512 0.330244 0.513594
0.329168 0.339840 0.523191
0.503519 0.349092 0.532442
0.674550 0.358205 0.541555
0.829677 0.366505 0.549855
0.184232 0.528866 0.545351
0.365889 0.538604 0.555090
0.540240 0.547992 0.564478
0.711270 0.557240 0.573726
0.866397 0.565660 0.582146
0.220252 0.724153 0.576958
0.401909 0.734032 0.586836
0.576260 0.743553 0.596358
0.747290 0.752932 0.605737
0.902417 0.761472 0.614277
0.250147 0.886575 0.603532
0.431804 0.896569 0.613526
0.606155 0.906202 0.623159
0.777185 0.915690 0.632647
0.932312 0.924329 0.641286
0.112985 0.126923 0.652466
0.294641 0.136385 0.661929
0.468992 0.145508 0.671052
0.640023 0.154496 0.680040
0.795150 0.162681 0.688225
0.151251 0.333456 0.685112
0.332907 0.343067 0.694723
0.507258 0.352332 0.703988
0.678289 0.361459 0.713115
0.833416 0.369771 0.721427
0.187971 0.532125 0.716917
0.369628 0.541879 0.726670
0.543979 0.551280 0.736072
0.715009 0.560542 0.745333
0.870136 0.568975 0.753766
0.223991 0.727460 0.748570
0.405648 0.737353 0.758463
0.579999 0.746888 0.767998
0.751029 0.756281 0.777391
0.906156 0.764833 0.785943
0.253886 0.889921 0.775183
0.435543 0.899929 0.785191
0.609894 0.909576 0.794838
0.780924 0.919077 0.804340
0.936051 0.927728 0.812991
0.115534 0.129081 0.769362
0.297190 0.138554 0.778835
0.471541 0.147686 0.787967
0.642572 0.156684 0.796965
0.797699 0.164877 0.805158
0.153800 0.335649 0.802042
0.335456 0.345270 0.811663
0.509807 0.354544 0.820937
0.680838 0.363681 0.830074
0.835965 0.372001 0.838394
0.190520 0.534351 0.833880
0.372177 0.544114 0.843643
0.546528 0.553525 0.853054
0.717558 0.562795 0.862324
0.872685 0.571237 0.870766
0.226540 0.729717 0.865565
0.408197 0.739620 0.875467
0.582548 0.749165 0.885012
0.753578 0.758566 0.894414
0.908705 0.767127 0.902975
0.256435 0.892204 0.892204
0.438092 0.902222 0.902222
0.612442 0.911879 0.911879
0.783473 0.921389 0.921389
0.938600 0.930049 0.930049
