LUTs/05_Fuji_400H_Pastel.cube
TITLE "Fuji 400H Pastel"
# Nikon D5500 + Sigma 17-50 - subtle creative look (apply ~20-40%)
LUT_3D_SIZE 33
DOMAIN_MIN 0.0 0.0 0.0
DOMAIN_MAX 1.0 1.0 1.0
0.101471 0.117200 0.124491
0.125075 0.118421 0.125712
0.148259 0.119622 0.126912
0.171160 0.120808 0.128099
0.193847 0.121984 0.129275
0.216363 0.123152 0.130442
0.238735 0.124313 0.131603
0.260985 0.125468 0.132759
0.283128 0.126618 0.133909
0.305176 0.127764 0.135055
0.327138 0.128906 0.136197
0.349023 0.130045 0.137336
0.370836 0.131181 0.138472
0.392584 0.132314 0.139605
0.414271 0.133444 0.140735
0.435902 0.134572 0.141863
0.457479 0.135698 0.142989
0.479007 0.136822 0.144113
0.500487 0.137944 0.145235
0.521923 0.139065 0.146355
0.543317 0.140183 0.147474
0.564671 0.141301 0.148591
0.585987 0.142416 0.149707
0.607266 0.143531 0.150822
0.628510 0.144644 0.151935
0.649720 0.145756 0.153047
0.670898 0.146867 0.154158
0.692045 0.147977 0.155268
0.713163 0.149086 0.156377
0.734251 0.150194 0.157485
0.755312 0.151301 0.158592
0.776345 0.152408 0.159698
0.783637 0.152791 0.160082
0.106445 0.143997 0.128685
0.130049 0.145220 0.129909
0.153233 0.146423 0.131112
0.176134 0.147612 0.132301
0.198821 0.148790 0.133479
0.221336 0.149960 0.134649
0.243709 0.151124 0.135813
0.265959 0.152281 0.136970
0.288102 0.153434 0.138123
0.310150 0.154583 0.139271
0.332112 0.155727 0.140416
0.353997 0.156868 0.141557
0.375810 0.158006 0.142695
0.397558 0.159142 0.143830
0.419245 0.160274 0.144963
0.440876 0.161405 0.146093
0.462453 0.162533 0.147222
0.483981 0.163659 0.148348
0.505461 0.164783 0.149472
0.526897 0.165906 0.150595
0.548291 0.167027 0.151716
0.569645 0.168146 0.152835
0.590961 0.169264 0.153953
0.612239 0.170381 0.155070
0.633483 0.171497 0.156185
0.654694 0.172611 0.157300
0.675872 0.173724 0.158413
0.697019 0.174836 0.159525
0.718136 0.175948 0.160636
0.739225 0.177058 0.161747
0.760285 0.178167 0.162856
0.781319 0.179276 0.163965
0.788610 0.179660 0.164349
0.111330 0.170319 0.132813
0.134933 0.171546 0.134039
0.158117 0.172751 0.135244
0.181018 0.173942 0.136436
0.203705 0.175123 0.137616
0.226221 0.176295 0.138789
0.248593 0.177461 0.139954
0.270843 0.178621 0.141114
0.292986 0.179776 0.142269
0.315034 0.180926 0.143420
0.336996 0.182073 0.144567
0.358881 0.183217 0.145710
0.380694 0.184357 0.146851
0.402442 0.185494 0.147988
0.424129 0.186629 0.149123
0.445760 0.187762 0.150256
0.467337 0.188892 0.151386
0.488865 0.190021 0.152515
0.510345 0.191147 0.153641
0.531782 0.192272 0.154766
0.553176 0.193395 0.155889
0.574529 0.194517 0.157011
0.595845 0.195638 0.158131
0.617124 0.196756 0.159250
0.638368 0.197874 0.160368
0.659578 0.198991 0.161484
0.680756 0.200106 0.162600
0.701903 0.201221 0.163714
0.723021 0.202334 0.164828
0.744109 0.203446 0.165940
0.765170 0.204558 0.167052
0.786203 0.205669 0.168162
0.793495 0.206054 0.168548
0.116154 0.196326 0.136898
0.139758 0.197554 0.138126
0.162942 0.198762 0.139334
0.185842 0.199956 0.140527
0.208529 0.201139 0.141711
0.231045 0.202313 0.142885
0.253417 0.203481 0.144053
0.275668 0.204644 0.145216
0.297810 0.205801 0.146373
0.319858 0.206954 0.147526
0.341820 0.208103 0.148675
0.363705 0.209249 0.149821
0.385518 0.210391 0.150963
0.407266 0.211531 0.152103
0.428953 0.212668 0.153240
0.450584 0.213803 0.154375
0.472161 0.214935 0.155507
0.493689 0.216066 0.156638
0.515170 0.217195 0.157767
0.536606 0.218322 0.158894
0.558000 0.219447 0.160019
0.579353 0.220571 0.161143
0.600669 0.221694 0.162266
0.621948 0.222815 0.163387
0.643192 0.223935 0.164507
0.664402 0.225054 0.165626
0.685580 0.226171 0.166743
0.706727 0.227288 0.167860
0.727845 0.228403 0.168975
0.748933 0.229518 0.170090
0.769994 0.230632 0.171204
0.791028 0.231745 0.172317
0.798319 0.232131 0.172703
0.120933 0.222096 0.140952
0.144536 0.223327 0.142183
0.167720 0.224537 0.143393
0.190621 0.225733 0.144589
0.213308 0.226918 0.145774
0.235824 0.228095 0.146951
0.258196 0.229266 0.148122
0.280446 0.230430 0.149286
0.302589 0.231590 0.150446
0.324637 0.232745 0.151601
0.346599 0.233896 0.152752
0.368484 0.235044 0.153900
0.390297 0.236189 0.155045
0.412045 0.237331 0.156187
0.433732 0.238470 0.157326
0.455363 0.239607 0.158463
0.476940 0.240742 0.159598
0.498468 0.241875 0.160731
0.519948 0.243006 0.161862
0.541385 0.244135 0.162991
0.562778 0.245263 0.164119
0.584132 0.246389 0.165245
0.605448 0.247513 0.166370
0.626727 0.248637 0.167493
0.647971 0.249759 0.168615
0.669181 0.250880 0.169736
0.690359 0.251999 0.170856
0.711506 0.253118 0.171974
0.732624 0.254236 0.173092
0.753712 0.255353 0.174209
0.774773 0.256469 0.175325
0.795806 0.257584 0.176440
0.803098 0.257970 0.176826
0.125675 0.247678 0.144984
0.149279 0.248912 0.146217
0.172463 0.250124 0.147429
0.195364 0.251322 0.148627
0.218051 0.252510 0.149815
0.240566 0.253689 0.150995
0.262939 0.254862 0.152167
0.285189 0.256029 0.153334
0.307332 0.257190 0.154496
0.329380 0.258348 0.155653
0.351342 0.259501 0.156807
0.373226 0.260651 0.157957
0.395040 0.261798 0.159104
0.416788 0.262943 0.160248
0.438475 0.264084 0.161389
0.460105 0.265223 0.162529
0.481683 0.266360 0.163666
0.503210 0.267495 0.164801
0.524691 0.268629 0.165934
0.546127 0.269760 0.167065
0.567521 0.270890 0.168195
0.588875 0.272018 0.169323
0.610190 0.273145 0.170450
0.631469 0.274270 0.171575
0.652713 0.275394 0.172700
0.673924 0.276517 0.173823
0.695102 0.277639 0.174945
0.716249 0.278760 0.176066
0.737366 0.279880 0.177185
0.758455 0.280999 0.178304
0.779515 0.282117 0.179422
0.800549 0.283234 0.180539
0.807840 0.283622 0.180927
0.130387 0.273105 0.148997
0.153991 0.274341 0.150233
0.177175 0.275556 0.151448
0.200076 0.276756 0.152648
0.222763 0.277946 0.153838
0.245279 0.279128 0.155020
0.267651 0.280303 0.156194
0.289901 0.281472 0.157363
0.312044 0.282636 0.158527
0.334092 0.283795 0.159687
0.356054 0.284951 0.160843
0.377939 0.286103 0.161995
0.399752 0.287252 0.163144
0.421500 0.288399 0.164290
0.443187 0.289542 0.165434
0.464818 0.290684 0.166576
0.486395 0.291823 0.167715
0.507923 0.292960 0.168852
0.529403 0.294096 0.169987
0.550839 0.295229 0.171121
0.572233 0.296361 0.172253
0.593587 0.297491 0.173383
0.614903 0.298620 0.174512
0.636181 0.299748 0.175640
0.657425 0.300874 0.176766
0.678636 0.302000 0.177891
0.699814 0.303124 0.179015
0.720961 0.304247 0.180138
0.742078 0.305369 0.181260
0.763167 0.306490 0.182381
0.784227 0.307610 0.183501
0.805261 0.308729 0.184621
0.812553 0.309117 0.185009
0.135074 0.298400 0.152996
0.158678 0.299638 0.154234
0.181862 0.300855 0.155451
0.204762 0.302058 0.156654
0.227449 0.303250 0.157846
0.249965 0.304434 0.159030
0.272337 0.305611 0.160207
0.294588 0.306782 0.161378
0.316730 0.307948 0.162544
0.338778 0.309110 0.163706
0.360740 0.310268 0.164864
0.382625 0.311423 0.166019
0.404438 0.312574 0.167170
0.426186 0.313723 0.168319
0.447873 0.314869 0.169465
0.469504 0.316012 0.170608
0.491081 0.317154 0.171749
0.512609 0.318293 0.172889
0.534090 0.319430 0.174026
0.555526 0.320566 0.175162
0.576920 0.321700 0.176296
0.598273 0.322833 0.177429
0.619589 0.323964 0.178560
0.640868 0.325093 0.179689
0.662112 0.326222 0.180818
0.683322 0.327349 0.181945
0.704500 0.328475 0.183071
0.725647 0.329600 0.184196
0.746765 0.330724 0.185320
0.767853 0.331848 0.186444
0.788914 0.332970 0.187566
0.809948 0.334091 0.188687
0.817239 0.334480 0.189076
0.139737 0.323580 0.156983
0.163341 0.324821 0.158224
0.186525 0.326040 0.159443
0.209426 0.327245 0.160648
0.232113 0.328440 0.161843
0.254629 0.329626 0.163029
0.277001 0.330805 0.164208
0.299251 0.331978 0.165381
0.321394 0.333147 0.166550
0.343442 0.334311 0.167714
0.365404 0.335471 0.168874
0.387289 0.336628 0.170031
0.409102 0.337781 0.171184
0.430850 0.338932 0.172335
0.452537 0.340080 0.173483
0.474168 0.341226 0.174629
0.495745 0.342369 0.175772
0.517273 0.343511 0.176914
0.538753 0.344650 0.178053
0.560189 0.345788 0.179191
0.581583 0.346924 0.180327
0.602937 0.348059 0.181462
0.624253 0.349192 0.182595
0.645532 0.350324 0.183727
0.666776 0.351454 0.184858
0.687986 0.352584 0.185987
0.709164 0.353712 0.187115
0.730311 0.354839 0.188242
0.751429 0.355966 0.189369
0.772517 0.357091 0.190494
0.793578 0.358215 0.191618
0.814611 0.359339 0.192742
0.821903 0.359728 0.193131
0.144381 0.348660 0.160961
0.167985 0.349902 0.162204
0.191169 0.351124 0.163425
0.214070 0.352331 0.164633
0.236757 0.353528 0.165829
0.259272 0.354716 0.167018
0.281645 0.355898 0.168199
0.303895 0.357073 0.169375
0.326038 0.358244 0.170545
0.348086 0.359410 0.171712
0.370048 0.360572 0.172874
0.391932 0.361731 0.174033
0.413746 0.362887 0.175189
0.435494 0.364040 0.176341
0.457181 0.365190 0.177492
0.478811 0.366338 0.178639
0.500389 0.367484 0.179785
0.521916 0.368627 0.180929
0.543397 0.369769 0.182070
0.564833 0.370909 0.183210
0.586227 0.372047 0.184349
0.607581 0.373184 0.185485
0.628896 0.374319 0.186621
0.650175 0.375453 0.187755
0.671419 0.376586 0.188887
0.692630 0.377717 0.190019
0.713808 0.378848 0.191149
0.734955 0.379977 0.192279
0.756072 0.381105 0.193407
0.777161 0.382233 0.194534
0.798221 0.383359 0.195661
0.819255 0.384485 0.196786
0.826546 0.384875 0.197176
0.149007 0.373649 0.164931
0.172611 0.374894 0.166176
0.195795 0.376118 0.167400
0.218695 0.377327 0.168609
0.241382 0.378526 0.169808
0.263898 0.379717 0.170999
0.286270 0.380900 0.172182
0.308521 0.382078 0.173360
0.330663 0.383251 0.174533
0.352711 0.384419 0.175701
0.374673 0.385584 0.176866
0.396558 0.386745 0.178027
0.418371 0.387903 0.179185
0.440119 0.389058 0.180340
0.461806 0.390210 0.181492
0.483437 0.391360 0.182642
0.505014 0.392508 0.183790
0.526542 0.393653 0.184936
0.548023 0.394797 0.186079
0.569459 0.395939 0.187221
0.590853 0.397080 0.188362
0.612206 0.398219 0.189501
0.633522 0.399356 0.190638
0.654801 0.400492 0.191774
0.676045 0.401627 0.192909
0.697255 0.402760 0.194043
0.718433 0.403893 0.195175
0.739580 0.405024 0.196306
0.760698 0.406155 0.197437
0.781786 0.407284 0.198566
0.802847 0.408413 0.199695
0.823881 0.409540 0.200822
0.831172 0.409931 0.201213
0.153616 0.398557 0.168894
0.177220 0.399804 0.170141
0.200404 0.401030 0.171367
0.223304 0.402242 0.172579
0.245991 0.403443 0.173780
0.268507 0.404636 0.174973
0.290880 0.405822 0.176159
0.313130 0.407002 0.177339
0.335273 0.408177 0.178514
0.357320 0.409347 0.179684
0.379283 0.410514 0.180851
0.401167 0.411677 0.182014
0.422981 0.412837 0.183174
0.444728 0.413994 0.184331
0.466416 0.415149 0.185486
0.488046 0.416301 0.186638
0.509624 0.417451 0.187788
0.531151 0.418598 0.188936
0.552632 0.419744 0.190081
0.574068 0.420889 0.191226
0.595462 0.422031 0.192368
0.616816 0.423172 0.193509
0.638131 0.424312 0.194649
0.659410 0.425450 0.195787
0.680654 0.426587 0.196924
0.701864 0.427722 0.198059
0.723042 0.428857 0.199194
0.744190 0.429990 0.200327
0.765307 0.431123 0.201460
0.786395 0.432254 0.202591
0.807456 0.433385 0.203722
0.828490 0.434514 0.204851
0.835781 0.434906 0.205243
0.158210 0.423391 0.172851
0.181814 0.424641 0.174101
0.204998 0.425869 0.175329
0.227899 0.427083 0.176543
0.250586 0.428286 0.177747
0.273101 0.429481 0.178942
0.295474 0.430669 0.180130
0.317724 0.431852 0.181312
0.339867 0.433029 0.182489
0.361915 0.434201 0.183662
0.383877 0.435370 0.184830
0.405761 0.436535 0.185996
0.427575 0.437698 0.187158
0.449323 0.438857 0.188317
0.471010 0.440013 0.189474
0.492640 0.441168 0.190628
0.514218 0.442320 0.191780
0.535745 0.443470 0.192930
0.557226 0.444618 0.194078
0.578662 0.445764 0.195224
0.600056 0.446909 0.196369
0.621410 0.448052 0.197512
0.642725 0.449193 0.198653
0.664004 0.450333 0.199794
0.685248 0.451472 0.200933
0.706459 0.452610 0.202070
0.727637 0.453747 0.203207
0.748784 0.454882 0.204343
0.769901 0.456017 0.205477
0.790990 0.457150 0.206611
0.812050 0.458283 0.207743
0.833084 0.459415 0.208875
0.840375 0.459807 0.209267
0.162790 0.448157 0.176804
0.186394 0.449410 0.178056
0.209578 0.450640 0.179286
0.232479 0.451856 0.180503
0.255166 0.453062 0.181708
0.277682 0.454259 0.182906
0.300054 0.455449 0.184096
0.322304 0.456634 0.185280
0.344447 0.457813 0.186459
0.366495 0.458988 0.187634
0.388457 0.460159 0.188805
0.410342 0.461326 0.189973
0.432155 0.462491 0.191137
0.453903 0.463652 0.192298
0.475590 0.464811 0.193457
0.497221 0.465967 0.194613
0.518798 0.467121 0.195767
0.540326 0.468273 0.196919
0.561806 0.469423 0.198070
0.583242 0.470572 0.199218
0.604636 0.471718 0.200365
0.625990 0.472863 0.201510
0.647306 0.474007 0.202654
0.668585 0.475150 0.203796
0.689828 0.476291 0.204937
0.711039 0.477430 0.206077
0.732217 0.478569 0.207215
0.753364 0.479707 0.208353
0.774481 0.480843 0.209490
0.795570 0.481979 0.210625
0.816631 0.483113 0.211760
0.837664 0.484247 0.212894
0.844956 0.484640 0.213287
0.167358 0.472862 0.180753
0.190962 0.474116 0.182007
0.214146 0.475349 0.183240
0.237046 0.476568 0.184458
0.259734 0.477776 0.185666
0.282249 0.478975 0.186866
0.304622 0.480167 0.188058
0.326872 0.481354 0.189245
0.349015 0.482535 0.190426
0.371062 0.483712 0.191603
0.393025 0.484885 0.192776
0.414909 0.486055 0.193946
0.436723 0.487221 0.195112
0.458471 0.488385 0.196276
0.480158 0.489546 0.197436
0.501788 0.490704 0.198595
0.523366 0.491860 0.199751
0.544893 0.493015 0.200905
0.566374 0.494167 0.202057
0.587810 0.495317 0.203208
0.609204 0.496466 0.204357
0.630558 0.497613 0.205504
0.651873 0.498759 0.206650
0.673152 0.499903 0.207794
0.694396 0.501046 0.208937
0.715606 0.502188 0.210079
0.736785 0.503329 0.211220
0.757932 0.504469 0.212359
0.779049 0.505607 0.213498
0.800137 0.506745 0.214636
0.821198 0.507882 0.215772
0.842232 0.509018 0.216908
0.849523 0.509411 0.217302
0.171913 0.497509 0.184698
0.195517 0.498766 0.185955
0.218701 0.500001 0.187190
0.241602 0.501222 0.188411
0.264289 0.502432 0.189621
0.286805 0.503633 0.190823
0.309177 0.504828 0.192017
0.331427 0.506017 0.193206
0.353570 0.507200 0.194389
0.375618 0.508379 0.195569
0.397580 0.509555 0.196744
0.419465 0.510726 0.197916
0.441278 0.511895 0.199084
0.463026 0.513060 0.200250
0.484713 0.514223 0.201413
0.506344 0.515384 0.202573
0.527921 0.516542 0.203731
0.549449 0.517698 0.204888
0.570929 0.518853 0.206042
0.592365 0.520005 0.207195
0.613759 0.521156 0.208345
0.635113 0.522305 0.209495
0.656429 0.523453 0.210643
0.677708 0.524600 0.211789
0.698952 0.525745 0.212934
0.720162 0.526889 0.214078
0.741340 0.528032 0.215221
0.762487 0.529173 0.216363
0.783605 0.530314 0.217503
0.804693 0.531454 0.218643
0.825754 0.532592 0.219782
0.846787 0.533730 0.220920
0.854079 0.534125 0.221314
0.176458 0.522103 0.188642
0.200062 0.523362 0.189901
0.223246 0.524599 0.191138
0.246146 0.525822 0.192361
0.268833 0.527035 0.193573
0.291349 0.528238 0.194777
0.313722 0.529435 0.195974
0.335972 0.530626 0.197165
0.358115 0.531812 0.198350
0.380162 0.532993 0.199532
0.402125 0.534170 0.200709
0.424009 0.535344 0.201883
0.445823 0.536515 0.203053
0.467570 0.537682 0.204221
0.489258 0.538847 0.205386
0.510888 0.540010 0.206549
0.532466 0.541170 0.207709
0.553993 0.542329 0.208868
0.575474 0.543485 0.210024
0.596910 0.544640 0.211179
0.618304 0.545793 0.212331
0.639658 0.546944 0.213483
0.660973 0.548094 0.214633
0.682252 0.549243 0.215781
0.703496 0.550390 0.216928
0.724706 0.551536 0.218074
0.745885 0.552681 0.219219
0.767032 0.553824 0.220363
0.788149 0.554967 0.221506
0.809237 0.556109 0.222648
0.830298 0.557250 0.223788
0.851332 0.558390 0.224928
0.858623 0.558785 0.225324
0.180992 0.546647 0.192583
0.204596 0.547908 0.193844
0.227780 0.549148 0.195084
0.250680 0.550373 0.196309
0.273367 0.551588 0.197524
0.295883 0.552794 0.198730
0.318256 0.553992 0.199928
0.340506 0.555185 0.201121
0.362649 0.556373 0.202309
0.384696 0.557557 0.203493
0.406658 0.558736 0.204672
0.428543 0.559912 0.205848
0.450356 0.561085 0.207021
0.472104 0.562255 0.208191
0.493791 0.563422 0.209358
0.515422 0.564587 0.210523
0.536999 0.565749 0.211685
0.558527 0.566909 0.212845
0.580008 0.568068 0.214004
0.601444 0.569225 0.215161
0.622838 0.570380 0.216316
0.644191 0.571533 0.217469
0.665507 0.572685 0.218621
0.686786 0.573835 0.219771
0.708030 0.574985 0.220921
0.729240 0.576133 0.222069
0.750418 0.577280 0.223216
0.771566 0.578426 0.224362
0.792683 0.579570 0.225506
0.813771 0.580714 0.226650
0.834832 0.581857 0.227793
0.855866 0.582999 0.228935
0.863157 0.583395 0.229331
0.185516 0.571145 0.196523
0.209120 0.572408 0.197787
0.232304 0.573650 0.199028
0.255204 0.574877 0.200256
0.277891 0.576094 0.201472
0.300407 0.577302 0.202680
0.322779 0.578503 0.203881
0.345030 0.579698 0.205077
0.367172 0.580888 0.206267
0.389220 0.582074 0.207452
0.411182 0.583255 0.208634
0.433067 0.584433 0.209812
0.454880 0.585608 0.210987
0.476628 0.586780 0.212159
0.498315 0.587949 0.213328
0.519946 0.589116 0.214495
0.541523 0.590281 0.215659
0.563051 0.591443 0.216822
0.584532 0.592604 0.217982
0.605968 0.593763 0.219141
0.627362 0.594920 0.220298
0.648715 0.596075 0.221453
0.670031 0.597229 0.222607
0.691310 0.598382 0.223760
0.712554 0.599533 0.224911
0.733764 0.600683 0.226062
0.754942 0.601832 0.227210
0.776089 0.602980 0.228358
0.797207 0.604127 0.229505
0.818295 0.605273 0.230651
0.839356 0.606417 0.231796
0.860390 0.607562 0.232940
0.867681 0.607958 0.233336
0.190030 0.595598 0.200462
0.213634 0.596864 0.201728
0.236818 0.598108 0.202972
0.259719 0.599338 0.204201
0.282406 0.600557 0.205420
0.304921 0.601767 0.206630
0.327294 0.602970 0.207833
0.349544 0.604168 0.209031
0.371687 0.605360 0.210223
0.393735 0.606547 0.211411
0.415697 0.607731 0.212594
0.437582 0.608911 0.213774
0.459395 0.610088 0.214951
0.481143 0.611262 0.216125
0.502830 0.612433 0.217297
0.524460 0.613602 0.218466
0.546038 0.614769 0.219632
0.567566 0.615933 0.220797
0.589046 0.617096 0.221959
0.610482 0.618257 0.223120
0.631876 0.619416 0.224279
0.653230 0.620574 0.225437
0.674546 0.621730 0.226593
0.695824 0.622884 0.227748
0.717068 0.624038 0.228901
0.738279 0.625190 0.230053
0.759457 0.626341 0.231204
0.780604 0.627491 0.232354
0.801721 0.628639 0.233503
0.822810 0.629787 0.234651
0.843870 0.630934 0.235797
0.864904 0.632080 0.236943
0.872195 0.632478 0.237341
0.194536 0.620011 0.204400
0.218140 0.621279 0.205668
0.241324 0.622526 0.206914
0.264225 0.623757 0.208146
0.286912 0.624978 0.209367
0.309427 0.626191 0.210579
0.331800 0.627396 0.211785
0.354050 0.628596 0.212984
0.376193 0.629790 0.214178
0.398240 0.630980 0.215368
0.420203 0.632165 0.216554
0.442087 0.633348 0.217736
0.463901 0.634527 0.218915
0.485649 0.635703 0.220091
0.507336 0.636876 0.221265
0.528966 0.638047 0.222436
0.550544 0.639216 0.223604
0.572071 0.640382 0.224771
0.593552 0.641547 0.225936
0.614988 0.642710 0.227099
0.636382 0.643871 0.228260
0.657736 0.645031 0.229419
0.679051 0.646189 0.230577
0.700330 0.647346 0.231734
0.721574 0.648501 0.232890
0.742784 0.649655 0.234044
0.763963 0.650808 0.235197
0.785110 0.651960 0.236349
0.806227 0.653111 0.237499
0.827315 0.654261 0.238649
0.848376 0.655410 0.239798
0.869410 0.656558 0.240946
0.876701 0.656956 0.241344
0.199033 0.644385 0.208337
0.222637 0.645655 0.209608
0.245821 0.646904 0.210856
0.268722 0.648138 0.212090
0.291409 0.649361 0.213313
0.313924 0.650576 0.214528
0.336297 0.651783 0.215735
0.358547 0.652985 0.216937
0.380690 0.654181 0.218133
0.402738 0.655373 0.219325
0.424700 0.656561 0.220513
0.446584 0.657745 0.221698
0.468398 0.658926 0.222879
0.490146 0.660104 0.224057
0.511833 0.661280 0.225232
0.533463 0.662453 0.226405
0.555041 0.663624 0.227576
0.576568 0.664792 0.228745
0.598049 0.665959 0.229912
0.619485 0.667124 0.231077
0.640879 0.668287 0.232240
0.662233 0.669449 0.233401
0.683548 0.670609 0.234562
0.704827 0.671768 0.235720
0.726071 0.672925 0.236878
0.747282 0.674082 0.238034
0.768460 0.675237 0.239189
0.789607 0.676391 0.240343
0.810724 0.677543 0.241496
0.831813 0.678695 0.242648
0.852873 0.679846 0.243799
0.873907 0.680996 0.244949
0.881198 0.681395 0.245348
0.203522 0.668722 0.212275
0.227126 0.669995 0.213548
0.250310 0.671245 0.214798
0.273211 0.672482 0.216035
0.295898 0.673707 0.217260
0.318414 0.674924 0.218477
0.340786 0.676133 0.219686
0.363036 0.677337 0.220890
0.385179 0.678536 0.222088
0.407227 0.679730 0.223282
0.429189 0.680920 0.224472
0.451074 0.682106 0.225659
0.472887 0.683289 0.226842
0.494635 0.684469 0.228022
0.516322 0.685647 0.229200
0.537953 0.686822 0.230375
0.559530 0.687995 0.231548
0.581058 0.689166 0.232719
0.602538 0.690334 0.233887
0.623974 0.691501 0.235054
0.645368 0.692667 0.236220
0.666722 0.693830 0.237383
0.688038 0.694993 0.238546
0.709316 0.696153 0.239706
0.730560 0.697313 0.240866
0.751771 0.698471 0.242024
0.772949 0.699628 0.243181
0.794096 0.700784 0.244337
0.815213 0.701939 0.245492
0.836302 0.703093 0.246646
0.857362 0.704246 0.247799
0.878396 0.705398 0.248951
0.885688 0.705798 0.249350
0.208004 0.693024 0.216213
0.231608 0.694299 0.217488
0.254792 0.695552 0.218741
0.277692 0.696791 0.219979
0.300379 0.698018 0.221207
0.322895 0.699237 0.222425
0.345268 0.700449 0.223637
0.367518 0.701655 0.224843
0.389661 0.702855 0.226044
0.411708 0.704051 0.227240
0.433670 0.705243 0.228432
0.455555 0.706432 0.229620
0.477368 0.707617 0.230806
0.499116 0.708800 0.231988
0.520803 0.709979 0.233168
0.542434 0.711156 0.234345
0.564011 0.712331 0.235520
0.585539 0.713504 0.236692
0.607020 0.714675 0.237863
0.628456 0.715844 0.239032
0.649850 0.717011 0.240200
0.671203 0.718177 0.241365
0.692519 0.719341 0.242530
0.713798 0.720504 0.243692
0.735042 0.721666 0.244854
0.756252 0.722826 0.246014
0.777430 0.723985 0.247173
0.798578 0.725143 0.248331
0.819695 0.726300 0.249488
0.840783 0.727456 0.250644
0.861844 0.728611 0.251799
0.882878 0.729765 0.252953
0.890169 0.730165 0.253353
0.212478 0.717294 0.220151
0.236082 0.718571 0.221428
0.259266 0.719826 0.222683
0.282166 0.721066 0.223924
0.304853 0.722296 0.225154
0.327369 0.723517 0.226375
0.349742 0.724731 0.227589
0.371992 0.725939 0.228796
0.394135 0.727142 0.229999
0.416182 0.728340 0.231197
0.438145 0.729534 0.232392
0.460029 0.730725 0.233582
0.481843 0.731912 0.234770
0.503590 0.733097 0.235954
0.525278 0.734278 0.237136
0.546908 0.735457 0.238315
0.568485 0.736634 0.239492
0.590013 0.737809 0.240667
0.611494 0.738982 0.241840
0.632930 0.740153 0.243011
0.654324 0.741323 0.244180
0.675678 0.742490 0.245348
0.696993 0.743657 0.246514
0.718272 0.744822 0.247679
0.739516 0.745985 0.248843
0.760726 0.747147 0.250005
0.781904 0.748308 0.251166
0.803052 0.749468 0.252326
0.824169 0.750627 0.253485
0.845257 0.751785 0.254643
0.866318 0.752942 0.255800
0.887352 0.754098 0.256956
0.894643 0.754499 0.257357
0.216945 0.741531 0.224090
0.240549 0.742811 0.225369
0.263733 0.744068 0.226627
0.286633 0.745311 0.227870
0.309320 0.746543 0.229101
0.331836 0.747766 0.230325
0.354209 0.748982 0.231541
0.376459 0.750192 0.232751
0.398602 0.751397 0.233956
0.420649 0.752597 0.235156
0.442612 0.753793 0.236352
0.464496 0.754986 0.237545
0.486309 0.756176 0.238734
0.508057 0.757362 0.239921
0.529745 0.758546 0.241105
0.551375 0.759727 0.242286
0.572952 0.760906 0.243465
0.594480 0.762083 0.244642
0.615961 0.763258 0.245817
0.637397 0.764431 0.246990
0.658791 0.765602 0.248161
0.680145 0.766772 0.249331
0.701460 0.767941 0.250499
0.722739 0.769107 0.251666
0.743983 0.770273 0.252832
0.765193 0.771437 0.253996
0.786371 0.772600 0.255159
0.807519 0.773762 0.256321
0.828636 0.774923 0.257482
0.849724 0.776083 0.258642
0.870785 0.777242 0.259801
0.891819 0.778400 0.260959
0.899110 0.778802 0.261361
0.221405 0.765739 0.228030
0.245009 0.767021 0.229312
0.268193 0.768280 0.230571
0.291094 0.769525 0.231816
0.313781 0.770759 0.233050
0.336296 0.771985 0.234275
0.358669 0.773203 0.235494
0.380919 0.774415 0.236706
0.403062 0.775622 0.237913
0.425109 0.776824 0.239115
0.447072 0.778023 0.240313
0.468956 0.779217 0.241508
0.490770 0.780409 0.242700
0.512518 0.781598 0.243888
0.534205 0.782783 0.245074
0.555835 0.783967 0.246258
0.577413 0.785148 0.247439
0.598940 0.786327 0.248618
0.620421 0.787504 0.249795
0.641857 0.788679 0.250970
0.663251 0.789852 0.252143
0.684605 0.791024 0.253315
0.705920 0.792194 0.254485
0.727199 0.793363 0.255654
0.748443 0.794531 0.256822
