LUTs/06_Event_Natural.cube
TITLE "Event Natural"
# Nikon D5500 + Sigma 17-50 - subtle creative look (apply ~20-40%)
LUT_3D_SIZE 33
DOMAIN_MIN 0.0 0.0 0.0
DOMAIN_MAX 1.0 1.0 1.0
0.008059 0.008058 0.008057
0.033734 0.008169 0.008167
0.060371 0.008284 0.008280
0.087948 0.008403 0.008397
0.116433 0.008526 0.008516
0.145791 0.008653 0.008639
0.175977 0.008783 0.008764
0.206939 0.008917 0.008891
0.238618 0.009054 0.009020
0.270949 0.009193 0.009151
0.303860 0.009336 0.009284
0.337273 0.009480 0.009417
0.371105 0.009626 0.009551
0.405268 0.009773 0.009685
0.439672 0.009922 0.009819
0.474223 0.010071 0.009953
0.508825 0.010221 0.010086
0.543382 0.010370 0.010217
0.577800 0.010518 0.010347
0.611984 0.010666 0.010474
0.645843 0.010812 0.010600
0.679289 0.010957 0.010723
0.712239 0.011099 0.010843
0.744615 0.011239 0.010959
0.776344 0.011376 0.011073
0.807360 0.011509 0.011183
0.837604 0.011640 0.011290
0.867024 0.011767 0.011393
0.895574 0.011890 0.011492
0.923218 0.012010 0.011587
0.949925 0.012125 0.011678
0.975671 0.012236 0.011765
0.984858 0.012276 0.011796
0.008434 0.033733 0.008420
0.034112 0.033843 0.008528
0.060751 0.033959 0.008639
0.088330 0.034078 0.008753
0.116818 0.034201 0.008870
0.146178 0.034327 0.008991
0.176366 0.034458 0.009113
0.207331 0.034592 0.009238
0.239013 0.034728 0.009365
0.271346 0.034868 0.009493
0.304260 0.035010 0.009623
0.337675 0.035154 0.009754
0.371510 0.035301 0.009885
0.405676 0.035448 0.010017
0.440082 0.035597 0.010148
0.474636 0.035746 0.010279
0.509240 0.035895 0.010409
0.543800 0.036044 0.010537
0.578221 0.036193 0.010664
0.612407 0.036341 0.010789
0.646269 0.036487 0.010912
0.679718 0.036631 0.011032
0.712671 0.036774 0.011149
0.745049 0.036913 0.011264
0.776781 0.037050 0.011375
0.807799 0.037184 0.011482
0.838046 0.037315 0.011587
0.867468 0.037442 0.011687
0.896021 0.037565 0.011784
0.923667 0.037684 0.011877
0.950376 0.037800 0.011966
0.976123 0.037911 0.012051
0.985312 0.037950 0.012081
0.008831 0.060359 0.008789
0.034511 0.060470 0.008895
0.061152 0.060585 0.009004
0.088733 0.060705 0.009116
0.117224 0.060828 0.009231
0.146586 0.060954 0.009348
0.176777 0.061085 0.009468
0.207744 0.061219 0.009591
0.239428 0.061355 0.009715
0.271765 0.061495 0.009841
0.304681 0.061637 0.009968
0.338099 0.061781 0.010096
0.371937 0.061928 0.010224
0.406106 0.062075 0.010353
0.440515 0.062224 0.010482
0.475071 0.062373 0.010609
0.509679 0.062522 0.010736
0.544242 0.062671 0.010862
0.578665 0.062820 0.010986
0.612854 0.062968 0.011108
0.646719 0.063114 0.011228
0.680170 0.063258 0.011346
0.713126 0.063400 0.011460
0.745507 0.063540 0.011572
0.777241 0.063677 0.011680
0.808262 0.063811 0.011786
0.838511 0.063942 0.011887
0.867936 0.064069 0.011985
0.896491 0.064192 0.012080
0.924139 0.064311 0.012170
0.950850 0.064426 0.012257
0.976600 0.064538 0.012340
0.985790 0.064577 0.012370
0.009250 0.087916 0.009164
0.034931 0.088027 0.009267
0.061575 0.088142 0.009374
0.089159 0.088261 0.009483
0.117651 0.088384 0.009596
0.147017 0.088511 0.009711
0.177210 0.088642 0.009829
0.208180 0.088775 0.009948
0.239867 0.088912 0.010070
0.272206 0.089052 0.010193
0.305125 0.089194 0.010317
0.338546 0.089338 0.010442
0.372386 0.089484 0.010568
0.406558 0.089632 0.010693
0.440970 0.089780 0.010819
0.475529 0.089930 0.010944
0.510140 0.090079 0.011068
0.544706 0.090228 0.011191
0.579132 0.090377 0.011312
0.613324 0.090524 0.011431
0.647192 0.090671 0.011548
0.680646 0.090815 0.011663
0.713605 0.090957 0.011774
0.745988 0.091097 0.011883
0.777725 0.091234 0.011989
0.808749 0.091368 0.012092
0.839001 0.091498 0.012191
0.868428 0.091625 0.012286
0.896986 0.091749 0.012378
0.924636 0.091868 0.012466
0.951349 0.091983 0.012551
0.977102 0.092094 0.012632
0.986292 0.092134 0.012661
0.009690 0.116374 0.009542
0.035374 0.116485 0.009643
0.062020 0.116600 0.009747
0.089606 0.116719 0.009855
0.118101 0.116842 0.009965
0.147469 0.116969 0.010077
0.177665 0.117099 0.010192
0.208638 0.117233 0.010309
0.240327 0.117370 0.010428
0.272669 0.117509 0.010548
0.305591 0.117651 0.010669
0.339016 0.117796 0.010791
0.372859 0.117942 0.010914
0.407034 0.118089 0.011037
0.441449 0.118238 0.011159
0.476011 0.118387 0.011281
0.510625 0.118536 0.011402
0.545194 0.118686 0.011522
0.579623 0.118834 0.011640
0.613818 0.118982 0.011756
0.647689 0.119128 0.011870
0.681146 0.119272 0.011982
0.714107 0.119415 0.012091
0.746494 0.119554 0.012197
0.778234 0.119691 0.012300
0.809260 0.119825 0.012399
0.839514 0.119956 0.012496
0.868944 0.120083 0.012589
0.897504 0.120206 0.012678
0.925158 0.120325 0.012764
0.951873 0.120441 0.012846
0.977628 0.120552 0.012925
0.986818 0.120591 0.012953
0.010153 0.145696 0.009923
0.035839 0.145807 0.010022
0.062487 0.145922 0.010124
0.090076 0.146041 0.010228
0.118574 0.146164 0.010336
0.147944 0.146291 0.010446
0.178143 0.146421 0.010558
0.209118 0.146555 0.010672
0.240811 0.146692 0.010788
0.273156 0.146831 0.010905
0.306081 0.146973 0.011023
0.339508 0.147118 0.011142
0.373354 0.147264 0.011262
0.407532 0.147411 0.011382
0.441951 0.147560 0.011501
0.476516 0.147709 0.011620
0.511133 0.147858 0.011738
0.545705 0.148008 0.011854
0.580137 0.148156 0.011969
0.614336 0.148304 0.012082
0.648209 0.148450 0.012193
0.681670 0.148594 0.012302
0.714634 0.148737 0.012408
0.747024 0.148876 0.012511
0.778766 0.149013 0.012611
0.809796 0.149147 0.012708
0.840053 0.149278 0.012801
0.869485 0.149405 0.012891
0.898048 0.149528 0.012978
0.925703 0.149647 0.013062
0.952421 0.149763 0.013141
0.978178 0.149874 0.013218
0.987370 0.149913 0.013245
0.010637 0.175839 0.010306
0.036326 0.175950 0.010402
0.062977 0.176065 0.010501
0.090568 0.176184 0.010604
0.119069 0.176307 0.010708
0.148442 0.176434 0.010815
0.178644 0.176564 0.010925
0.209622 0.176698 0.011036
0.241317 0.176835 0.011149
0.273665 0.176974 0.011263
0.306593 0.177116 0.011378
0.340024 0.177261 0.011494
0.373873 0.177407 0.011611
0.408054 0.177554 0.011727
0.442476 0.177703 0.011843
0.477044 0.177852 0.011959
0.511664 0.178001 0.012073
0.546240 0.178151 0.012187
0.580675 0.178299 0.012298
0.614877 0.178447 0.012408
0.648754 0.178593 0.012516
0.682217 0.178737 0.012621
0.715185 0.178880 0.012724
0.747577 0.179019 0.012824
0.779323 0.179156 0.012921
0.810355 0.179290 0.013015
0.840615 0.179421 0.013106
0.870050 0.179548 0.013194
0.898616 0.179671 0.013278
0.926274 0.179790 0.013358
0.952994 0.179906 0.013436
0.978754 0.180017 0.013510
0.987946 0.180056 0.013536
0.011144 0.206753 0.010688
0.036835 0.206863 0.010782
0.063489 0.206979 0.010879
0.091083 0.207098 0.010978
0.119586 0.207221 0.011080
0.148962 0.207348 0.011185
0.179167 0.207478 0.011291
0.210148 0.207612 0.011399
0.241846 0.207748 0.011509
0.274197 0.207888 0.011620
0.307129 0.208030 0.011732
0.340562 0.208175 0.011845
0.374415 0.208321 0.011958
0.408599 0.208468 0.012071
0.443024 0.208617 0.012184
0.477596 0.208766 0.012296
0.512219 0.208915 0.012408
0.546798 0.209065 0.012518
0.581237 0.209213 0.012626
0.615442 0.209361 0.012733
0.649322 0.209507 0.012837
0.682789 0.209651 0.012939
0.715759 0.209794 0.013039
0.748155 0.209933 0.013136
0.779904 0.210070 0.013230
0.810939 0.210204 0.013321
0.841202 0.210335 0.013409
0.870640 0.210462 0.013494
0.899208 0.210585 0.013575
0.926869 0.210704 0.013653
0.953592 0.210820 0.013728
0.979353 0.210931 0.013799
0.988547 0.210970 0.013825
0.011673 0.238380 0.011069
0.037367 0.238491 0.011161
0.064023 0.238606 0.011255
0.091619 0.238725 0.011352
0.120126 0.238848 0.011451
0.149505 0.238975 0.011552
0.179712 0.239105 0.011656
0.210696 0.239239 0.011761
0.242398 0.239376 0.011868
0.274752 0.239516 0.011975
0.307687 0.239658 0.012084
0.341123 0.239802 0.012194
0.374979 0.239948 0.012304
0.409167 0.240096 0.012413
0.443596 0.240244 0.012523
0.478171 0.240393 0.012632
0.512797 0.240543 0.012740
0.547380 0.240692 0.012846
0.581822 0.240841 0.012951
0.616030 0.240988 0.013054
0.649913 0.241134 0.013156
0.683384 0.241279 0.013255
0.716357 0.241421 0.013351
0.748756 0.241561 0.013445
0.780508 0.241698 0.013536
0.811546 0.241832 0.013624
0.841812 0.241962 0.013709
0.871253 0.242089 0.013790
0.899824 0.242212 0.013869
0.927487 0.242332 0.013944
0.954213 0.242447 0.014016
0.979977 0.242558 0.014085
0.989172 0.242598 0.014110
0.012224 0.270657 0.011448
0.037920 0.270768 0.011537
0.064579 0.270883 0.011628
0.092178 0.271002 0.011722
0.120687 0.271126 0.011818
0.150069 0.271252 0.011917
0.180279 0.271383 0.012017
0.211266 0.271516 0.012119
0.242971 0.271653 0.012223
0.275329 0.271793 0.012327
0.308267 0.271935 0.012433
0.341707 0.272079 0.012539
0.375566 0.272225 0.012646
0.409758 0.272373 0.012752
0.444189 0.272522 0.012858
0.478768 0.272671 0.012963
0.513398 0.272820 0.013068
0.547984 0.272969 0.013171
0.582429 0.273118 0.013272
0.616641 0.273266 0.013372
0.650528 0.273412 0.013470
0.684001 0.273556 0.013566
0.716978 0.273698 0.013659
0.749380 0.273838 0.013749
0.781135 0.273975 0.013837
0.812177 0.274109 0.013922
0.842445 0.274240 0.014004
0.871889 0.274367 0.014082
0.900463 0.274490 0.014158
0.928130 0.274609 0.014231
0.954858 0.274724 0.014300
0.980625 0.274835 0.014367
0.989820 0.274875 0.014390
0.012795 0.303514 0.011822
0.038494 0.303625 0.011908
0.065155 0.303740 0.011997
0.092757 0.303859 0.012088
0.121269 0.303982 0.012181
0.150654 0.304109 0.012277
0.180868 0.304240 0.012374
0.211858 0.304373 0.012473
0.243566 0.304510 0.012573
0.275927 0.304650 0.012675
0.308868 0.304792 0.012777
0.342312 0.304936 0.012880
0.376175 0.305082 0.012982
0.410369 0.305230 0.013085
0.444805 0.305378 0.013188
0.479387 0.305528 0.013290
0.514021 0.305677 0.013391
0.548610 0.305826 0.013490
0.583059 0.305975 0.013588
0.617274 0.306123 0.013685
0.651164 0.306269 0.013779
0.684641 0.306413 0.013871
0.717622 0.306555 0.013961
0.750027 0.306695 0.014048
0.781785 0.306832 0.014132
0.812830 0.306966 0.014214
0.843102 0.307097 0.014293
0.872548 0.307223 0.014369
0.901125 0.307347 0.014442
0.928794 0.307466 0.014511
0.955525 0.307581 0.014578
0.981295 0.307692 0.014642
0.990491 0.307732 0.014664
0.013386 0.336875 0.012190
0.039088 0.336986 0.012274
0.065752 0.337101 0.012360
0.093357 0.337220 0.012448
0.121872 0.337343 0.012538
0.151260 0.337470 0.012631
0.181477 0.337601 0.012725
0.212470 0.337734 0.012821
0.244182 0.337871 0.012918
0.276546 0.338011 0.013016
0.309490 0.338153 0.013114
0.342937 0.338297 0.013214
0.376804 0.338443 0.013313
0.411002 0.338591 0.013412
0.445441 0.338739 0.013511
0.480027 0.338889 0.013610
0.514664 0.339038 0.013707
0.549257 0.339187 0.013803
0.583709 0.339336 0.013897
0.617928 0.339483 0.013990
0.651822 0.339630 0.014081
0.685302 0.339774 0.014170
0.718286 0.339916 0.014256
0.750695 0.340056 0.014340
0.782456 0.340193 0.014421
0.813504 0.340327 0.014500
0.843779 0.340457 0.014575
0.873229 0.340584 0.014648
0.901809 0.340708 0.014718
0.929481 0.340827 0.014785
0.956214 0.340942 0.014849
0.981987 0.341053 0.014910
0.991184 0.341093 0.014932
0.013997 0.370659 0.012551
0.039701 0.370770 0.012632
0.066369 0.370885 0.012715
0.093976 0.371004 0.012801
0.122494 0.371127 0.012888
0.151885 0.371254 0.012977
0.182105 0.371384 0.013068
0.213102 0.371518 0.013161
0.244817 0.371655 0.013255
0.277184 0.371794 0.013349
0.310132 0.371937 0.013445
0.343583 0.372081 0.013540
0.377453 0.372227 0.013636
0.411655 0.372374 0.013732
0.446097 0.372523 0.013827
0.480686 0.372672 0.013922
0.515327 0.372822 0.014016
0.549924 0.372971 0.014108
0.584380 0.373119 0.014199
0.618602 0.373267 0.014288
0.652500 0.373413 0.014375
0.685983 0.373558 0.014461
0.718971 0.373700 0.014543
0.751383 0.373840 0.014624
0.783148 0.373977 0.014702
0.814199 0.374111 0.014777
0.844477 0.374241 0.014850
0.873930 0.374368 0.014919
0.902513 0.374491 0.014986
0.930187 0.374611 0.015050
0.956924 0.374726 0.015111
0.982699 0.374837 0.015170
0.991897 0.374877 0.015190
0.014626 0.404780 0.012904
0.040333 0.404891 0.012982
0.067003 0.405006 0.013063
0.094614 0.405125 0.013145
0.123135 0.405248 0.013229
0.152529 0.405375 0.013316
0.182752 0.405506 0.013404
0.213752 0.405639 0.013493
0.245470 0.405776 0.013583
0.277841 0.405916 0.013674
0.310792 0.406058 0.013766
0.344247 0.406202 0.013858
0.378120 0.406348 0.013951
0.412326 0.406496 0.014043
0.446772 0.406644 0.014134
0.481365 0.406794 0.014225
0.516009 0.406943 0.014315
0.550609 0.407092 0.014404
0.585069 0.407241 0.014491
0.619295 0.407388 0.014577
0.653196 0.407535 0.014661
0.686684 0.407679 0.014742
0.719674 0.407821 0.014822
0.752090 0.407961 0.014899
0.783858 0.408098 0.014973
0.814912 0.408232 0.015045
0.845194 0.408362 0.015114
0.874650 0.408489 0.015181
0.903235 0.408613 0.015245
0.930913 0.408732 0.015306
0.957653 0.408847 0.015364
0.983430 0.408958 0.015420
0.992629 0.408998 0.015440
0.015272 0.439150 0.013247
0.040981 0.439261 0.013323
0.067654 0.439376 0.013400
0.095268 0.439495 0.013480
0.123792 0.439618 0.013561
0.153189 0.439745 0.013644
0.183415 0.439876 0.013729
0.214419 0.440009 0.013815
0.246140 0.440146 0.013902
0.278515 0.440286 0.013989
0.311470 0.440428 0.014078
0.344927 0.440572 0.014166
0.378805 0.440718 0.014255
0.413014 0.440866 0.014344
0.447463 0.441014 0.014432
0.482060 0.441164 0.014519
0.516708 0.441313 0.014605
0.551312 0.441462 0.014690
0.585776 0.441611 0.014774
0.620005 0.441758 0.014856
0.653910 0.441905 0.014936
0.687401 0.442049 0.015014
0.720395 0.442191 0.015090
0.752814 0.442331 0.015163
0.784586 0.442468 0.015234
0.815643 0.442602 0.015303
0.845928 0.442732 0.015369
0.875387 0.442859 0.015433
0.903976 0.442983 0.015493
0.931657 0.443102 0.015552
0.958399 0.443217 0.015607
0.984179 0.443328 0.015660
0.993379 0.443368 0.015679
0.015933 0.473677 0.013580
0.041645 0.473788 0.013653
0.068321 0.473903 0.013727
0.095937 0.474022 0.013804
0.124464 0.474145 0.013882
0.153865 0.474272 0.013962
0.184094 0.474403 0.014043
0.215101 0.474536 0.014126
0.246826 0.474673 0.014209
0.279204 0.474813 0.014294
0.312162 0.474955 0.014379
0.345624 0.475099 0.014464
0.379504 0.475245 0.014549
0.413717 0.475393 0.014634
0.448171 0.475541 0.014718
0.482771 0.475691 0.014801
0.517423 0.475840 0.014884
0.552030 0.475989 0.014965
0.586498 0.476138 0.015045
0.620731 0.476285 0.015123
0.654639 0.476432 0.015200
0.688134 0.476576 0.015274
0.721131 0.476718 0.015347
0.753554 0.476858 0.015417
0.785329 0.476995 0.015485
0.816390 0.477129 0.015550
0.846678 0.477259 0.015613
0.876140 0.477386 0.015673
0.904732 0.477510 0.015731
0.932416 0.477629 0.015786
0.959161 0.477744 0.015839
0.984944 0.477855 0.015889
0.994145 0.477895 0.015906
0.016607 0.508268 0.013901
0.042322 0.508379 0.013971
0.069001 0.508494 0.014042
0.096620 0.508613 0.014116
0.125150 0.508736 0.014191
0.154554 0.508863 0.014268
0.184787 0.508994 0.014346
0.215797 0.509127 0.014425
0.247525 0.509264 0.014505
0.279907 0.509404 0.014586
0.312869 0.509546 0.014668
0.346333 0.509690 0.014749
0.380218 0.509836 0.014830
0.414434 0.509984 0.014912
0.448891 0.510132 0.014992
0.483496 0.510282 0.015072
0.518151 0.510431 0.015151
0.552762 0.510580 0.015229
0.587233 0.510729 0.015305
0.621471 0.510876 0.015379
0.655382 0.511023 0.015452
0.688880 0.511167 0.015523
0.721882 0.511309 0.015592
0.754308 0.511449 0.015658
0.786086 0.511586 0.015723
0.817150 0.511720 0.015785
0.847441 0.511850 0.015844
0.876907 0.511977 0.015901
0.905502 0.512101 0.015956
0.933189 0.512220 0.016008
0.959937 0.512335 0.016058
0.985722 0.512446 0.016105
0.994924 0.512486 0.016122
0.017293 0.542829 0.014209
0.043011 0.542940 0.014276
0.069693 0.543055 0.014345
0.097315 0.543174 0.014415
0.125848 0.543297 0.014488
0.155255 0.543424 0.014561
0.185491 0.543554 0.014636
0.216504 0.543688 0.014712
0.248236 0.543825 0.014789
0.280621 0.543965 0.014866
0.313587 0.544107 0.014944
0.347055 0.544251 0.015022
0.380943 0.544397 0.015100
0.415163 0.544545 0.015177
0.449624 0.544693 0.015254
0.484232 0.544842 0.015330
0.518891 0.544992 0.015405
0.553506 0.545141 0.015479
0.587981 0.545290 0.015552
0.622222 0.545437 0.015623
0.656137 0.545583 0.015692
0.689639 0.545728 0.015759
0.722643 0.545870 0.015824
0.755073 0.546010 0.015887
0.786855 0.546147 0.015948
0.817922 0.546281 0.016007
0.848217 0.546411 0.016063
0.877685 0.546538 0.016117
0.906283 0.546661 0.016169
0.933973 0.546781 0.016218
0.960724 0.546896 0.016265
0.986512 0.547007 0.016310
0.995715 0.547047 0.016325
0.017989 0.577266 0.014504
0.043710 0.577377 0.014568
0.070395 0.577492 0.014634
0.098020 0.577611 0.014702
0.126556 0.577734 0.014771
0.155966 0.577861 0.014841
0.186205 0.577992 0.014913
0.217222 0.578125 0.014985
0.248957 0.578262 0.015059
0.281345 0.578402 0.015133
0.314314 0.578544 0.015207
0.347786 0.578688 0.015281
0.381678 0.578834 0.015355
0.415902 0.578982 0.015429
0.450366 0.579130 0.015503
0.484978 0.579280 0.015575
0.519641 0.579429 0.015646
0.554260 0.579578 0.015717
0.588738 0.579727 0.015785
0.622982 0.579874 0.015853
0.656901 0.580021 0.015918
0.690407 0.580165 0.015982
0.723415 0.580307 0.016044
0.755848 0.580447 0.016103
0.787633 0.580584 0.016161
0.818704 0.580718 0.016216
0.849001 0.580848 0.016269
0.878473 0.580975 0.016320
0.907074 0.581099 0.016369
0.934767 0.581218 0.016415
0.961521 0.581333 0.016459
0.987312 0.581444 0.016501
0.996516 0.581484 0.016516
0.018693 0.611488 0.014784
0.044417 0.611598 0.014846
0.071104 0.611714 0.014909
0.098732 0.611833 0.014974
0.127271 0.611956 0.015040
0.156685 0.612082 0.015107
0.186927 0.612213 0.015176
0.217947 0.612347 0.015245
0.249685 0.612483 0.015315
0.282077 0.612623 0.015386
0.315050 0.612765 0.015456
0.348525 0.612909 0.015527
0.382421 0.613056 0.015598
0.416648 0.613203 0.015668
0.451116 0.613352 0.015737
0.485731 0.613501 0.015806
0.520398 0.613650 0.015874
0.555020 0.613799 0.015940
0.589502 0.613948 0.016006
0.623750 0.614096 0.016069
0.657673 0.614242 0.016131
0.691182 0.614386 0.016191
0.724194 0.614529 0.016250
0.756630 0.614668 0.016306
0.788419 0.614805 0.016360
0.819493 0.614939 0.016412
0.849794 0.615070 0.016462
0.879268 0.615197 0.016510
0.907873 0.615320 0.016555
0.935568 0.615439 0.016598
0.962325 0.615554 0.016640
0.988119 0.615666 0.016679
0.997324 0.615705 0.016693
0.019403 0.645403 0.015050
0.045129 0.645514 0.015109
0.071819 0.645629 0.015170
0.099450 0.645748 0.015232
0.127992 0.645871 0.015295
0.157409 0.645998 0.015359
0.187654 0.646128 0.015424
0.218677 0.646262 0.015490
0.250419 0.646399 0.015557
0.282814 0.646538 0.015624
0.315790 0.646680 0.015691
0.349270 0.646825 0.015759
0.383168 0.646971 0.015826
0.417399 0.647118 0.015892
0.451871 0.647267 0.015958
0.486490 0.647416 0.016023
0.521160 0.647566 0.016087
0.555786 0.647715 0.016150
0.590272 0.647863 0.016212
0.624524 0.648011 0.016272
0.658450 0.648157 0.016330
0.691962 0.648302 0.016387
0.724977 0.648444 0.016442
0.757417 0.648584 0.016494
0.789209 0.648721 0.016545
0.820287 0.648854 0.016594
0.850590 0.648985 0.016641
0.880069 0.649112 0.016685
0.908676 0.649235 0.016728
0.936374 0.649355 0.016768
0.963133 0.649470 0.016807
0.988930 0.649581 0.016843
0.998136 0.649621 0.016856
0.020116 0.678925 0.015302
0.045845 0.679036 0.015358
0.072538 0.679151 0.015416
0.100172 0.679271 0.015475
0.128717 0.679394 0.015535
0.158136 0.679520 0.015596
0.188385 0.679651 0.015658
0.219411 0.679785 0.015721
0.251156 0.679921 0.015784
0.283555 0.680061 0.015848
0.316534 0.680203 0.015912
0.350017 0.680347 0.015976
0.383919 0.680494 0.016039
0.418154 0.680641 0.016102
0.452629 0.680790 0.016165
0.487252 0.680939 0.016226
0.521926 0.681088 0.016287
0.556555 0.681237 0.016346
0.591044 0.681386 0.016404
0.625300 0.681534 0.016460
0.659229 0.681680 0.016515
0.692745 0.681824 0.016568
0.725764 0.681966 0.016620
0.758207 0.682106 0.016669
0.790002 0.682243 0.016717
0.821083 0.682377 0.016762
0.851390 0.682508 0.016806
0.880871 0.682635 0.016847
0.909481 0.682758 0.016887
0.937182 0.682877 0.016925
0.963945 0.682992 0.016960
0.989744 0.683104 0.016994
0.998951 0.683143 0.017006
0.020830 0.711973 0.015538
0.046562 0.712084 0.015592
0.073257 0.712199 0.015647
0.100894 0.712318 0.015703
0.129442 0.712441 0.015760
0.158864 0.712568 0.015819
0.189116 0.712698 0.015878
0.220146 0.712832 0.015937
0.251894 0.712969 0.015997
0.284296 0.713108 0.016058
0.317279 0.713250 0.016118
0.350765 0.713395 0.016178
0.384671 0.713541 0.016238
0.418909 0.713688 0.016298
0.453388 0.713837 0.016357
0.488014 0.713986 0.016415
0.522691 0.714136 0.016472
0.557324 0.714285 0.016528
0.591817 0.714433 0.016582
0.626076 0.714581 0.016635
0.660009 0.714727 0.016686
0.693528 0.714872 0.016736
0.726550 0.715014 0.016784
0.758997 0.715154 0.016830
0.790795 0.715291 0.016874
0.821879 0.715424 0.016917
0.852189 0.715555 0.016957
0.881673 0.715682 0.016996
0.910286 0.715805 0.017032
0.937991 0.715925 0.017067
0.964756 0.716040 0.017100
0.990558 0.716151 0.017131
0.999766 0.716191 0.017142
0.021544 0.744467 0.015760
0.047278 0.744578 0.015811
0.073976 0.744693 0.015863
0.101616 0.744812 0.015917
0.130167 0.744935 0.015971
0.159592 0.745062 0.016026
0.189847 0.745193 0.016082
0.220879 0.745326 0.016139
0.252631 0.745463 0.016196
0.285036 0.745603 0.016253
0.318022 0.745745 0.016310
0.351512 0.745889 0.016367
0.385421 0.746035 0.016423
0.419662 0.746183 0.016479
0.454145 0.746331 0.016535
0.488774 0.746481 0.016589
0.523455 0.746630 0.016643
0.558092 0.746779 0.016695
0.592588 0.746928 0.016746
0.626850 0.747075 0.016796
0.660787 0.747222 0.016844
0.694309 0.747366 0.016890
0.727335 0.747508 0.016935
0.759785 0.747648 0.016977
0.791586 0.747785 0.017018
0.822673 0.747919 0.017058
0.852986 0.748049 0.017095
0.882474 0.748176 0.017131
0.911089 0.748300 0.017164
0.938796 0.748419 0.017196
0.965564 0.748534 0.017226
0.991369 0.748645 0.017255
1.000000 0.748685 0.017265
0.022254 0.776336 0.015967
0.047990 0.776447 0.016015
0.074691 0.776562 0.016065
0.102334 0.776681 0.016115
0.130888 0.776804 0.016167
0.160316 0.776931 0.016219
0.190573 0.777062 0.016272
0.221609 0.777195 0.016326
0.253364 0.777332 0.016379
0.285772 0.777472 0.016433
0.318762 0.777614 0.016487
0.352254 0.777758 0.016541
0.386167 0.777904 0.016594
0.420412 0.778052 0.016647
0.454898 0.778200 0.016699
0.489531 0.778350 0.016750
0.524215 0.778499 0.016800
0.558855 0.778648 0.016849
0.593355 0.778797 0.016896
0.627620 0.778944 0.016942
0.661560 0.779091 0.016987
0.695086 0.779235 0.017030
0.728115 0.779377 0.017071
0.760568 0.779517 0.017111
0.792372 0.779654 0.017149
0.823463 0.779788 0.017185
0.853779 0.779918 0.017220
0.883269 0.780045 0.017252
0.911888 0.780169 0.017283
0.939597 0.780288 0.017312
0.966368 0.780403 0.017340
0.992175 0.780514 0.017366
1.000000 0.780554 0.017375
0.022959 0.807514 0.016159
0.048698 0.807625 0.016205
0.075401 0.807740 0.016252
0.103046 0.807859 0.016300
0.131603 0.807982 0.016348
0.161034 0.808109 0.016398
0.191295 0.808239 0.016448
0.222334 0.808373 0.016498
0.254091 0.808510 0.016549
0.286503 0.808650 0.016600
0.319495 0.808792 0.016651
0.352991 0.808936 0.016701
0.386907 0.809082 0.016751
0.421155 0.809230 0.016800
0.455645 0.809378 0.016849
0.490281 0.809527 0.016897
0.524969 0.809677 0.016943
0.559612 0.809826 0.016989
0.594115 0.809975 0.017033
0.628384 0.810122 0.017076
0.662327 0.810268 0.017117
0.695856 0.810413 0.017157
0.728888 0.810555 0.017195
0.761344 0.810695 0.017232
0.793152 0.810832 0.017267
0.824245 0.810966 0.017300
0.854564 0.811096 0.017331
0.884057 0.811223 0.017361
0.912679 0.811346 0.017389
0.940391 0.811466 0.017416
0.967164 0.811581 0.017441
0.992974 0.811692 0.017464
1.000000 0.811732 0.017472
0.023657 0.837941 0.016336
0.049398 0.838052 0.016380
0.076104 0.838167 0.016424
0.103752 0.838286 0.016470
0.132311 0.838409 0.016516
0.161745 0.838536 0.016563
0.192008 0.838666 0.016610
0.223050 0.838800 0.016657
0.254811 0.838937 0.016705
0.287225 0.839076 0.016753
0.320221 0.839218 0.016800
0.353720 0.839363 0.016848
0.387639 0.839509 0.016894
0.421891 0.839656 0.016941
0.456383 0.839805 0.016986
0.491023 0.839954 0.017030
0.525714 0.840104 0.017074
0.560360 0.840253 0.017116
0.594867 0.840401 0.017157
0.629139 0.840549 0.017197
0.663085 0.840695 0.017235
0.696617 0.840840 0.017271
0.729652 0.840982 0.017306
0.762112 0.841122 0.017340
0.793922 0.841258 0.017372
