LUTs/06_Event_Natural.cube
TITLE "Event Natural"
# Nikon D5500 + Sigma 17-50 - subtle creative look (apply ~20-40%)
LUT_3D_SIZE 5
DOMAIN_MIN 0.0 0.0 0.0
DOMAIN_MAX 1.0 1.0 1.0
0.008059 0.008058 0.008057
0.238618 0.009054 0.009020
0.508825 0.010221 0.010086
0.776344 0.011376 0.011073
0.984858 0.012276 0.011796
0.011673 0.238380 0.011069
0.242398 0.239376 0.011868
0.512797 0.240543 0.012740
0.780508 0.241698 0.013536
0.989172 0.242598 0.014110
0.016607 0.508268 0.013901
0.247525 0.509264 0.014505
0.518151 0.510431 0.015151
0.786086 0.511586 0.015723
0.994924 0.512486 0.016122
0.022254 0.776336 0.015967
0.253364 0.777332 0.016379
0.524215 0.778499 0.016800
0.792372 0.779654 0.017149
1.000000 0.780554 0.017375
0.027395 0.994350 0.017099
0.258661 0.995346 0.017355
0.529695 0.996513 0.017593
0.798033 0.997668 0.017761
1.000000 0.998568 0.017845
0.008395 0.008389 0.232873
0.238971 0.009385 0.233820
0.509197 0.010551 0.234866
0.776735 0.011706 0.235834
0.985264 0.012606 0.236542
0.012064 0.238711 0.235831
0.242805 0.239707 0.236612
0.513224 0.240874 0.237465
0.780954 0.242029 0.238242
0.989632 0.242929 0.238801
0.017062 0.508599 0.238598
0.247997 0.509595 0.239186
0.518642 0.510762 0.239812
0.786596 0.511917 0.240365
0.995449 0.512817 0.240749
0.022773 0.776667 0.240600
0.253900 0.777663 0.240996
0.524770 0.778830 0.241397
0.792946 0.779985 0.241727
1.000000 0.780885 0.241938
0.027965 0.994681 0.241680
0.259248 0.995677 0.241920
0.530302 0.996843 0.242138
0.798659 0.997998 0.242287
1.000000 0.998898 0.242357
0.008796 0.008776 0.496316
0.239391 0.009772 0.497243
0.509639 0.010939 0.498267
0.777200 0.012094 0.499213
0.985747 0.012994 0.499903
0.012529 0.239098 0.499209
0.243290 0.240094 0.499971
0.513731 0.241261 0.500802
0.781483 0.242416 0.501556
0.990179 0.243316 0.502098
0.017603 0.508987 0.501901
0.248557 0.509983 0.502470
0.519225 0.511149 0.503073
0.787201 0.512304 0.503604
0.996071 0.513204 0.503971
0.023388 0.777055 0.503828
0.254534 0.778051 0.504205
0.525427 0.779217 0.504584
0.793626 0.780372 0.504892
1.000000 0.781272 0.505085
0.028641 0.995068 0.504848
0.259944 0.996064 0.505068
0.531019 0.997231 0.505264
0.799399 0.998386 0.505391
1.000000 0.999286 0.505443
0.009203 0.009163 0.758870
0.239818 0.010159 0.759778
0.510088 0.011325 0.760779
0.777671 0.012480 0.761702
0.986235 0.013380 0.762376
0.013000 0.239485 0.761699
0.243780 0.240481 0.762442
0.514244 0.241648 0.763250
0.782018 0.242803 0.763982
0.990732 0.243703 0.764506
0.018149 0.509373 0.764316
0.249122 0.510369 0.764866
0.519812 0.511536 0.765447
0.787811 0.512691 0.765955
0.996699 0.513591 0.766304
0.024009 0.777441 0.766169
0.255174 0.778437 0.766526
0.526089 0.779604 0.766883
0.794310 0.780759 0.767168
1.000000 0.781659 0.767344
0.029323 0.995455 0.767127
0.260644 0.996451 0.767329
0.531742 0.997617 0.767502
0.800145 0.998772 0.767606
1.000000 0.999672 0.767641
0.009554 0.009490 0.981530
0.240185 0.010486 0.982422
0.510475 0.011653 0.983404
0.778076 0.012808 0.984308
0.986656 0.013708 0.984967
0.013406 0.239812 0.984305
0.244202 0.240808 0.985032
0.514685 0.241975 0.985820
0.782478 0.243130 0.986534
0.991206 0.244030 0.987043
0.018618 0.509701 0.986858
0.249607 0.510696 0.987392
0.520317 0.511863 0.987953
0.788334 0.513018 0.988443
0.997237 0.513918 0.988778
0.024541 0.777769 0.988648
0.255722 0.778765 0.988989
0.526657 0.779931 0.989326
0.794897 0.781086 0.989593
1.000000 0.781986 0.989754
0.029906 0.995782 0.989555
0.261244 0.996778 0.989740
0.532361 0.997945 0.989894
0.800782 0.999100 0.989980
1.000000 1.000000 0.990000
