LUTs/06_Event_Natural.cube
TITLE "Event Natural"
# Nikon D5500 + Sigma 17-50 - subtle creative look (apply ~20-40%)
LUT_3D_SIZE 9
DOMAIN_MIN 0.0 0.0 0.0
DOMAIN_MAX 1.0 1.0 1.0
0.008059 0.008058 0.008057
0.116433 0.008526 0.008516
0.238618 0.009054 0.009020
0.371105 0.009626 0.009551
0.508825 0.010221 0.010086
0.645843 0.010812 0.010600
0.776344 0.011376 0.011073
0.895574 0.011890 0.011492
0.984858 0.012276 0.011796
0.009690 0.116374 0.009542
0.118101 0.116842 0.009965
0.240327 0.117370 0.010428
0.372859 0.117942 0.010914
0.510625 0.118536 0.011402
0.647689 0.119128 0.011870
0.778234 0.119691 0.012300
0.897504 0.120206 0.012678
0.986818 0.120591 0.012953
0.011673 0.238380 0.011069
0.120126 0.238848 0.011451
0.242398 0.239376 0.011868
0.374979 0.239948 0.012304
0.512797 0.240543 0.012740
0.649913 0.241134 0.013156
0.780508 0.241698 0.013536
0.899824 0.242212 0.013869
0.989172 0.242598 0.014110
0.013997 0.370659 0.012551
0.122494 0.371127 0.012888
0.244817 0.371655 0.013255
0.377453 0.372227 0.013636
0.515327 0.372822 0.014016
0.652500 0.373413 0.014375
0.783148 0.373977 0.014702
0.902513 0.374491 0.014986
0.991897 0.374877 0.015190
0.016607 0.508268 0.013901
0.125150 0.508736 0.014191
0.247525 0.509264 0.014505
0.380218 0.509836 0.014830
0.518151 0.510431 0.015151
0.655382 0.511023 0.015452
0.786086 0.511586 0.015723
0.905502 0.512101 0.015956
0.994924 0.512486 0.016122
0.019403 0.645403 0.015050
0.127992 0.645871 0.015295
0.250419 0.646399 0.015557
0.383168 0.646971 0.015826
0.521160 0.647566 0.016087
0.658450 0.648157 0.016330
0.789209 0.648721 0.016545
0.908676 0.649235 0.016728
0.998136 0.649621 0.016856
0.022254 0.776336 0.015967
0.130888 0.776804 0.016167
0.253364 0.777332 0.016379
0.386167 0.777904 0.016594
0.524215 0.778499 0.016800
0.661560 0.779091 0.016987
0.792372 0.779654 0.017149
0.911888 0.780169 0.017283
1.000000 0.780554 0.017375
0.025023 0.896337 0.016651
0.133697 0.896805 0.016810
0.256219 0.897333 0.016977
0.389071 0.897905 0.017143
0.527171 0.898500 0.017297
0.664566 0.899091 0.017433
0.795428 0.899655 0.017547
0.914987 0.900169 0.017636
1.000000 0.900555 0.017695
0.027395 0.994350 0.017099
0.136102 0.994818 0.017225
0.258661 0.995346 0.017355
0.391554 0.995918 0.017480
0.529695 0.996513 0.017593
0.667133 0.997104 0.017687
0.798033 0.997668 0.017761
0.917629 0.998182 0.017814
1.000000 0.998568 0.017845
0.008216 0.008214 0.113830
0.116595 0.008682 0.114285
0.238784 0.009209 0.114785
0.371275 0.009782 0.115312
0.508999 0.010376 0.115842
0.646021 0.010968 0.116351
0.776527 0.011531 0.116820
0.895762 0.012046 0.117235
0.985049 0.012431 0.117536
0.009860 0.116529 0.115303
0.118275 0.116998 0.115722
0.240505 0.117525 0.116181
0.373041 0.118097 0.116663
0.510811 0.118692 0.117146
0.647880 0.119284 0.117609
0.778429 0.119847 0.118034
0.897704 0.120362 0.118409
0.987021 0.120747 0.118681
0.011856 0.238536 0.116817
0.120312 0.239004 0.117194
0.242589 0.239532 0.117607
0.375175 0.240104 0.118039
0.512998 0.240698 0.118470
0.650118 0.241290 0.118881
0.780717 0.241853 0.119257
0.900037 0.242368 0.119586
0.989388 0.242753 0.119824
0.014195 0.370815 0.118284
0.122696 0.371283 0.118617
0.245023 0.371810 0.118979
0.377663 0.372383 0.119356
0.515542 0.372977 0.119731
0.652719 0.373569 0.120086
0.783372 0.374132 0.120408
0.902740 0.374647 0.120689
0.992128 0.375032 0.120890
0.016821 0.508424 0.119618
0.125368 0.508892 0.119904
0.247746 0.509420 0.120215
0.380444 0.509992 0.120535
0.518382 0.510587 0.120851
0.655617 0.511178 0.121148
0.786325 0.511742 0.121414
0.905745 0.512256 0.121643
0.995171 0.512642 0.121806
0.019632 0.645558 0.120752
0.128225 0.646027 0.120993
0.250656 0.646554 0.121251
0.383409 0.647126 0.121515
0.521406 0.647721 0.121772
0.658700 0.648313 0.122010
0.789464 0.648876 0.122221
0.908934 0.649391 0.122400
0.998398 0.649776 0.122525
0.022497 0.776492 0.121654
0.131135 0.776960 0.121850
0.253615 0.777488 0.122059
0.386423 0.778060 0.122269
0.524475 0.778655 0.122470
0.661825 0.779246 0.122652
0.792642 0.779810 0.122810
0.912161 0.780324 0.122940
1.000000 0.780710 0.123029
0.025280 0.896492 0.122324
0.133957 0.896961 0.122480
0.256483 0.897488 0.122643
0.389340 0.898061 0.122804
0.527444 0.898655 0.122954
0.664845 0.899247 0.123085
0.795710 0.899810 0.123194
0.915274 0.900325 0.123280
1.000000 0.900710 0.123335
0.027663 0.994506 0.122761
0.136373 0.994974 0.122884
0.258937 0.995501 0.123010
0.391834 0.996074 0.123130
0.529980 0.996668 0.123238
0.667422 0.997260 0.123328
0.798327 0.997823 0.123397
0.917927 0.998338 0.123447
1.000000 0.998723 0.123475
0.008395 0.008389 0.232873
0.116777 0.008857 0.233324
0.238971 0.009385 0.233820
0.371467 0.009957 0.234341
0.509197 0.010551 0.234866
0.646224 0.011143 0.235370
0.776735 0.011706 0.235834
0.895974 0.012221 0.236244
0.985264 0.012606 0.236542
0.010052 0.116705 0.234332
0.118471 0.117173 0.234747
0.240706 0.117700 0.235201
0.373247 0.118273 0.235678
0.511022 0.118867 0.236156
0.648096 0.119459 0.236615
0.778650 0.120022 0.237035
0.897930 0.120537 0.237405
0.987250 0.120922 0.237673
0.012064 0.238711 0.235831
0.120524 0.239179 0.236204
0.242805 0.239707 0.236612
0.375396 0.240279 0.237039
0.513224 0.240874 0.237465
0.650350 0.241465 0.237871
0.780954 0.242029 0.238242
0.900278 0.242543 0.238567
0.989632 0.242929 0.238801
0.014420 0.370990 0.237281
0.122924 0.371458 0.237610
0.245256 0.371986 0.237968
0.377901 0.372558 0.238340
0.515786 0.373152 0.238709
0.652968 0.373744 0.239060
0.783625 0.374307 0.239377
0.902998 0.374822 0.239652
0.992389 0.375207 0.239850
0.017062 0.508599 0.238598
0.125613 0.509067 0.238880
0.247997 0.509595 0.239186
0.380699 0.510167 0.239501
0.518642 0.510762 0.239812
0.655883 0.511353 0.240104
0.786596 0.511917 0.240365
0.906020 0.512431 0.240590
0.995449 0.512817 0.240749
0.019891 0.645734 0.239715
0.128488 0.646202 0.239951
0.250924 0.646729 0.240205
0.383682 0.647302 0.240464
0.521684 0.647896 0.240716
0.658983 0.648488 0.240949
0.789752 0.649051 0.241155
0.909227 0.649566 0.241329
0.998694 0.649951 0.241450
0.022773 0.776667 0.240600
0.131414 0.777135 0.240792
0.253900 0.777663 0.240996
0.386712 0.778235 0.241201
0.524770 0.778830 0.241397
0.662125 0.779421 0.241575
0.792946 0.779985 0.241727
0.912470 0.780499 0.241853
1.000000 0.780885 0.241938
0.025570 0.896668 0.241255
0.134252 0.897136 0.241407
0.256783 0.897664 0.241565
0.389645 0.898236 0.241721
0.527754 0.898830 0.241866
0.665160 0.899422 0.241992
0.796030 0.899985 0.242096
0.915598 0.900500 0.242177
1.000000 0.900885 0.242230
0.027965 0.994681 0.241680
0.136680 0.995149 0.241799
0.259248 0.995677 0.241920
0.392150 0.996249 0.242035
0.530302 0.996843 0.242138
0.667749 0.997435 0.242223
0.798659 0.997998 0.242287
0.918263 0.998513 0.242332
1.000000 0.998898 0.242357
0.008590 0.008579 0.361937
0.116977 0.009047 0.362383
0.239176 0.009574 0.362874
0.371678 0.010147 0.363390
0.509413 0.010741 0.363909
0.646446 0.011333 0.364407
0.776962 0.011896 0.364866
0.896206 0.012411 0.365271
0.985500 0.012796 0.365566
0.010262 0.116894 0.363381
0.118686 0.117363 0.363791
0.240926 0.117890 0.364241
0.373472 0.118462 0.364712
0.511253 0.119057 0.365185
0.648333 0.119649 0.365637
0.778892 0.120212 0.366052
0.898176 0.120727 0.366417
0.987500 0.121112 0.366682
0.012291 0.238901 0.364863
0.120756 0.239369 0.365232
0.243042 0.239897 0.365635
0.375638 0.240469 0.366056
0.513472 0.241064 0.366476
0.650603 0.241655 0.366877
0.781212 0.242218 0.367242
0.900542 0.242733 0.367562
0.989899 0.243119 0.367793
0.014665 0.371180 0.366295
0.123174 0.371648 0.366619
0.245510 0.372175 0.366972
0.378161 0.372748 0.367339
0.516051 0.373342 0.367703
0.653239 0.373934 0.368047
0.783901 0.374497 0.368359
0.903280 0.375012 0.368630
0.992674 0.375397 0.368824
0.017326 0.508789 0.367593
0.125882 0.509257 0.367871
0.248270 0.509785 0.368172
0.380978 0.510357 0.368482
0.518927 0.510952 0.368787
0.656173 0.511543 0.369073
0.786891 0.512107 0.369328
0.906321 0.512621 0.369548
0.995753 0.513007 0.369704
0.020173 0.645923 0.368691
0.128775 0.646392 0.368923
0.251216 0.646919 0.369172
0.383980 0.647492 0.369425
0.521987 0.648086 0.369672
0.659292 0.648678 0.369899
0.790066 0.649241 0.370100
0.909546 0.649756 0.370269
0.999016 0.650141 0.370387
0.023073 0.776857 0.369558
0.131719 0.777325 0.369746
0.254209 0.777853 0.369945
0.387027 0.778425 0.370145
0.525091 0.779020 0.370335
0.662451 0.779611 0.370507
0.793278 0.780175 0.370654
0.912807 0.780689 0.370775
1.000000 0.781075 0.370857
0.025887 0.896858 0.370197
0.134573 0.897326 0.370345
0.257109 0.897853 0.370498
0.389976 0.898426 0.370649
0.528091 0.899020 0.370788
0.665503 0.899612 0.370908
0.796378 0.900175 0.371007
0.915951 0.900690 0.371083
1.000000 0.901075 0.371132
0.028296 0.994871 0.370609
0.137015 0.995339 0.370723
0.259588 0.995866 0.370839
0.392496 0.996439 0.370949
0.530652 0.997033 0.371046
0.668105 0.997625 0.371125
0.799021 0.998188 0.371184
0.918630 0.998703 0.371224
1.000000 0.999088 0.371246
0.008796 0.008776 0.496316
0.117187 0.009244 0.496758
0.239391 0.009772 0.497243
0.371899 0.010344 0.497754
0.509639 0.010939 0.498267
0.646679 0.011531 0.498759
0.777200 0.012094 0.499213
0.896449 0.012609 0.499613
0.985747 0.012994 0.499903
0.010483 0.117092 0.497745
0.118911 0.117560 0.498151
0.241156 0.118088 0.498595
0.373708 0.118660 0.499060
0.511495 0.119255 0.499527
0.648581 0.119846 0.499974
0.779146 0.120410 0.500383
0.898435 0.120925 0.500743
0.987763 0.121310 0.501004
0.012529 0.239098 0.499209
0.120999 0.239567 0.499574
0.243290 0.240094 0.499971
0.375892 0.240667 0.500387
0.513731 0.241261 0.500802
0.650868 0.241853 0.501196
0.781483 0.242416 0.501556
0.900818 0.242931 0.501871
0.990179 0.243316 0.502098
0.014922 0.371377 0.500623
0.123435 0.371845 0.500943
0.245777 0.372373 0.501290
0.378434 0.372945 0.501651
0.516329 0.373540 0.502009
0.653523 0.374132 0.502348
0.784191 0.374695 0.502654
0.903575 0.375210 0.502920
0.992973 0.375595 0.503110
0.017603 0.508987 0.501901
0.126163 0.509455 0.502175
0.248557 0.509983 0.502470
0.381270 0.510555 0.502774
0.519225 0.511149 0.503073
0.656477 0.511741 0.503353
0.787201 0.512304 0.503604
0.906635 0.512819 0.503819
0.996071 0.513204 0.503971
0.020469 0.646121 0.502980
0.129076 0.646589 0.503207
0.251522 0.647117 0.503451
0.384291 0.647689 0.503699
0.522305 0.648284 0.503939
0.659615 0.648876 0.504161
0.790395 0.649439 0.504356
0.909880 0.649954 0.504520
0.999354 0.650339 0.504634
0.023388 0.777055 0.503828
0.132038 0.777523 0.504012
0.254534 0.778051 0.504205
0.387357 0.778623 0.504399
0.525427 0.779217 0.504584
0.662793 0.779809 0.504750
0.793626 0.780372 0.504892
0.913159 0.780887 0.505007
1.000000 0.781272 0.505085
0.026219 0.897055 0.504450
0.134910 0.897523 0.504593
0.257451 0.898051 0.504741
0.390324 0.898623 0.504886
0.528444 0.899218 0.505019
0.665862 0.899810 0.505134
0.796743 0.900373 0.505227
0.916321 0.900888 0.505298
1.000000 0.901273 0.505343
0.028641 0.995068 0.504848
0.137365 0.995536 0.504958
0.259944 0.996064 0.505068
0.392857 0.996636 0.505173
0.531019 0.997231 0.505264
0.668478 0.997823 0.505337
0.799399 0.998386 0.505391
0.919014 0.998901 0.505426
1.000000 0.999286 0.505443
0.009003 0.008974 0.630464
0.117399 0.009442 0.630901
0.239608 0.009970 0.631381
0.372121 0.010542 0.631886
0.509868 0.011136 0.632393
0.646913 0.011728 0.632880
0.777440 0.012291 0.633327
0.896694 0.012806 0.633722
0.985996 0.013191 0.634009
0.010706 0.117290 0.631877
0.119138 0.117758 0.632278
0.241389 0.118285 0.632717
0.373946 0.118858 0.633177
0.511739 0.119452 0.633638
0.648830 0.120044 0.634079
0.779401 0.120607 0.634483
0.898695 0.121122 0.634837
0.988027 0.121507 0.635095
0.012769 0.239296 0.633324
0.121243 0.239764 0.633684
0.243539 0.240292 0.634077
0.376147 0.240864 0.634486
0.513992 0.241459 0.634895
0.651135 0.242050 0.635284
0.781756 0.242614 0.635638
0.901095 0.243128 0.635948
0.990461 0.243514 0.636171
0.015180 0.371575 0.634719
0.123699 0.372043 0.635034
0.246045 0.372571 0.635377
0.378708 0.373143 0.635732
0.516609 0.373737 0.636084
0.653809 0.374329 0.636417
0.784483 0.374892 0.636717
0.903871 0.375407 0.636978
0.993273 0.375792 0.637165
0.017881 0.509184 0.635978
0.126446 0.509652 0.636247
0.248844 0.510180 0.636537
0.381563 0.510752 0.636836
0.519524 0.511347 0.637129
0.656782 0.511938 0.637403
0.787511 0.512502 0.637648
0.906951 0.513016 0.637858
0.996391 0.513402 0.638006
0.020767 0.646319 0.637037
0.129378 0.646787 0.637260
0.251829 0.647314 0.637498
0.384604 0.647887 0.637740
0.522623 0.648481 0.637975
0.659940 0.649073 0.638191
0.790725 0.649636 0.638380
0.910215 0.650151 0.638539
0.999693 0.650536 0.638649
0.023704 0.777252 0.637867
0.132359 0.777720 0.638046
0.254860 0.778248 0.638234
0.387689 0.778820 0.638423
0.525764 0.779415 0.638601
0.663136 0.780006 0.638761
0.793975 0.780570 0.638897
0.913513 0.781084 0.639008
1.000000 0.781470 0.639082
0.026552 0.897253 0.638472
0.135247 0.897721 0.638610
0.257794 0.898249 0.638753
0.390672 0.898821 0.638892
0.528799 0.899415 0.639019
0.666222 0.900007 0.639128
0.797109 0.900570 0.639216
0.916692 0.901085 0.639282
1.000000 0.901470 0.639323
0.028988 0.995266 0.638855
0.137717 0.995734 0.638961
0.260300 0.996262 0.639066
0.393219 0.996834 0.639165
0.531388 0.997428 0.639250
0.668853 0.998020 0.639318
0.799779 0.998583 0.639365
0.919399 0.999098 0.639395
1.000000 0.999483 0.639409
0.009203 0.009163 0.758870
0.117603 0.009631 0.759303
0.239818 0.010159 0.759778
0.372336 0.010731 0.760277
0.510088 0.011325 0.760779
0.647139 0.011917 0.761260
0.777671 0.012480 0.761702
0.896930 0.012995 0.762092
0.986235 0.013380 0.762376
0.010920 0.117478 0.760269
0.119357 0.117947 0.760665
0.241613 0.118474 0.761099
0.374176 0.119047 0.761554
0.511974 0.119641 0.762009
0.649071 0.120233 0.762444
0.779647 0.120796 0.762843
0.898946 0.121311 0.763193
0.988282 0.121696 0.763446
0.013000 0.239485 0.761699
0.121479 0.239953 0.762055
0.243780 0.240481 0.762442
0.376393 0.241053 0.762847
0.514244 0.241648 0.763250
0.651393 0.242239 0.763633
0.782018 0.242803 0.763982
0.901363 0.243317 0.764287
0.990732 0.243703 0.764506
0.015429 0.371764 0.763076
0.123952 0.372232 0.763387
0.246304 0.372760 0.763724
0.378972 0.373332 0.764074
0.516879 0.373926 0.764421
0.654084 0.374518 0.764748
0.784763 0.375081 0.765043
0.904157 0.375596 0.765299
0.993562 0.375981 0.765482
0.018149 0.509373 0.764316
0.126718 0.509841 0.764580
0.249122 0.510369 0.764866
0.381846 0.510941 0.765159
0.519812 0.511536 0.765447
0.657076 0.512127 0.765715
0.787811 0.512691 0.765955
0.907255 0.513205 0.766160
0.996699 0.513591 0.766304
0.021054 0.646508 0.765357
0.129669 0.646976 0.765575
0.252125 0.647503 0.765808
0.384906 0.648076 0.766045
0.522930 0.648670 0.766274
0.660252 0.649262 0.766484
0.791043 0.649825 0.766668
0.910538 0.650340 0.766822
1.000000 0.650725 0.766929
0.024009 0.777441 0.766169
0.132668 0.777909 0.766343
0.255174 0.778437 0.766526
0.388008 0.779009 0.766710
0.526089 0.779604 0.766883
0.663467 0.780195 0.767037
0.794310 0.780759 0.767168
0.913854 0.781273 0.767274
1.000000 0.781659 0.767344
0.026873 0.897442 0.766757
0.135573 0.897910 0.766891
0.258124 0.898437 0.767029
0.391008 0.899010 0.767163
0.529140 0.899604 0.767284
0.666569 0.900196 0.767388
0.797461 0.900759 0.767470
0.917049 0.901274 0.767531
1.000000 0.901659 0.767569
0.029323 0.995455 0.767127
0.138055 0.995923 0.767228
0.260644 0.996451 0.767329
0.393568 0.997023 0.767422
0.531742 0.997617 0.767502
0.669213 0.998209 0.767564
0.800145 0.998772 0.767606
0.919769 0.999287 0.767631
1.000000 0.999672 0.767641
0.009388 0.009336 0.876931
0.117793 0.009804 0.877360
0.240012 0.010332 0.877830
0.372535 0.010904 0.878325
0.510292 0.011499 0.878821
0.647348 0.012091 0.879297
0.777885 0.012654 0.879735
0.897149 0.013169 0.880120
0.986457 0.013554 0.880400
0.011119 0.117652 0.878316
0.119561 0.118120 0.878709
0.241820 0.118648 0.879138
0.374388 0.119220 0.879588
0.512192 0.119815 0.880038
0.649294 0.120407 0.880468
0.779875 0.120970 0.880862
0.899179 0.121485 0.881207
0.988517 0.121870 0.881457
0.013215 0.239659 0.879731
0.121697 0.240127 0.880083
0.244003 0.240654 0.880466
0.376621 0.241227 0.880865
0.514477 0.241821 0.881263
0.651631 0.242413 0.881641
0.782261 0.242976 0.881985
0.901610 0.243491 0.882286
0.990983 0.243876 0.882502
0.015660 0.371937 0.881092
0.124187 0.372406 0.881398
0.246543 0.372933 0.881731
0.379216 0.373505 0.882076
0.517129 0.374100 0.882418
0.654339 0.374692 0.882740
0.785023 0.375255 0.883030
0.904421 0.375770 0.883281
0.993830 0.376155 0.883461
0.018397 0.509547 0.882314
0.126970 0.510015 0.882575
0.249379 0.510543 0.882855
0.382108 0.511115 0.883144
0.520079 0.511709 0.883426
0.657348 0.512301 0.883690
0.788088 0.512864 0.883924
0.907536 0.513379 0.884125
0.996984 0.513764 0.884266
0.021319 0.646681 0.883338
0.129938 0.647149 0.883552
0.252399 0.647677 0.883781
0.385184 0.648249 0.884013
0.523214 0.648844 0.884237
0.660541 0.649436 0.884442
0.791337 0.649999 0.884621
0.910836 0.650514 0.884770
1.000000 0.650899 0.884874
0.024290 0.777615 0.884134
0.132954 0.778083 0.884304
0.255464 0.778611 0.884483
0.388303 0.779183 0.884661
0.526389 0.779778 0.884829
0.663772 0.780369 0.884978
0.794621 0.780932 0.885104
0.914169 0.781447 0.885205
1.000000 0.781833 0.885272
0.027169 0.897615 0.884707
0.135873 0.898083 0.884837
0.258429 0.898611 0.884971
0.391318 0.899183 0.885099
0.529455 0.899778 0.885216
0.666889 0.900370 0.885314
0.797786 0.900933 0.885391
0.917379 0.901448 0.885448
1.000000 0.901833 0.885482
0.029631 0.995628 0.885065
0.138368 0.996096 0.885162
0.260961 0.996624 0.885258
0.393890 0.997196 0.885347
0.532070 0.997791 0.885421
0.669545 0.998383 0.885478
0.800482 0.998946 0.885515
0.920111 0.999461 0.885536
1.000000 0.999846 0.885543
0.009554 0.009490 0.981530
0.117962 0.009958 0.981955
0.240185 0.010486 0.982422
0.372713 0.011058 0.982912
0.510475 0.011653 0.983404
0.647535 0.012245 0.983875
0.778076 0.012808 0.984308
0.897344 0.013323 0.984690
0.986656 0.013708 0.984967
0.011297 0.117806 0.982903
0.119742 0.118274 0.983292
0.242006 0.118802 0.983718
0.374578 0.119374 0.984163
0.512386 0.119969 0.984608
0.649493 0.120560 0.985034
0.780078 0.121124 0.985423
0.899386 0.121638 0.985765
0.988727 0.122024 0.986012
0.013406 0.239812 0.984305
0.121892 0.240281 0.984653
0.244202 0.240808 0.985032
0.376824 0.241381 0.985427
0.514685 0.241975 0.985820
0.651843 0.242567 0.986194
0.782478 0.243130 0.986534
0.901831 0.243645 0.986830
0.991206 0.244030 0.987043
0.015866 0.372091 0.985651
0.124397 0.372559 0.985954
0.246757 0.373087 0.986283
0.379434 0.373659 0.986623
0.517351 0.374254 0.986960
0.654566 0.374846 0.987277
0.785254 0.375409 0.987563
0.904656 0.375924 0.987811
0.994068 0.376309 0.987987
0.018618 0.509701 0.986858
0.127195 0.510169 0.987115
0.249607 0.510696 0.987392
0.382341 0.511269 0.987676
0.520317 0.511863 0.987953
0.657590 0.512455 0.988212
0.788334 0.513018 0.988443
0.907787 0.513533 0.988639
0.997237 0.513918 0.988778
0.021555 0.646835 0.987867
0.130178 0.647303 0.988077
0.252642 0.647831 0.988302
0.385433 0.648403 0.988529
0.523467 0.648998 0.988749
0.660799 0.649590 0.988949
0.791598 0.650153 0.989124
0.911102 0.650668 0.989270
1.000000 0.651053 0.989370
0.024541 0.777769 0.988648
0.133208 0.778237 0.988815
0.255722 0.778765 0.988989
0.388566 0.779337 0.989163
0.526657 0.779931 0.989326
0.664044 0.780523 0.989471
0.794897 0.781086 0.989593
0.914449 0.781601 0.989690
1.000000 0.781986 0.989754
0.027433 0.897769 0.989208
0.136141 0.898237 0.989334
0.258701 0.898765 0.989464
0.391594 0.899337 0.989588
0.529736 0.899932 0.989700
0.667174 0.900524 0.989794
0.798076 0.901087 0.989867
0.917672 0.901602 0.989919
1.000000 0.901987 0.989950
0.029906 0.995782 0.989555
0.138647 0.996250 0.989649
0.261244 0.996778 0.989740
0.394177 0.997350 0.989824
0.532361 0.997945 0.989894
0.669841 0.998537 0.989946
0.800782 0.999100 0.989980
0.920415 0.999615 0.989996
1.000000 1.000000 0.990000
