LUTs/07_Event_Indoor.cube
TITLE "Event Indoor"
# Nikon D5500 + Sigma 17-50 - subtle creative look (apply ~20-40%)
LUT_3D_SIZE 5
DOMAIN_MIN 0.0 0.0 0.0
DOMAIN_MAX 1.0 1.0 1.0
0.048680 0.039269 0.027180
0.303717 0.041109 0.030962
0.577254 0.043225 0.034798
0.832134 0.045327 0.038168
0.974605 0.046558 0.039967
0.052111 0.279396 0.038261
0.307949 0.281637 0.041441
0.582345 0.284182 0.044632
0.838025 0.286684 0.047403
0.980943 0.288138 0.048867
0.058572 0.539039 0.048099
0.315272 0.541712 0.050632
0.590593 0.544719 0.053131
0.847132 0.547651 0.055257
0.990530 0.549345 0.056360
0.067430 0.788503 0.055488
0.324954 0.791587 0.057403
0.601157 0.795035 0.059240
0.858519 0.798379 0.060749
1.000000 0.800302 0.061508
0.076561 0.992216 0.060044
0.334755 0.995635 0.061457
0.611676 0.999442 0.062756
0.869705 1.000000 0.063764
1.000000 1.000000 0.064244
0.048894 0.039784 0.243156
0.304004 0.041661 0.246881
0.577621 0.043817 0.250658
0.832576 0.045956 0.253973
0.975088 0.047207 0.255740
0.052555 0.280026 0.254063
0.308467 0.282304 0.257188
0.582943 0.284889 0.260320
0.838697 0.287429 0.263035
0.981656 0.288903 0.264467
0.059263 0.539793 0.263716
0.316038 0.542503 0.266194
0.591438 0.545549 0.268633
0.848052 0.548519 0.270703
0.991491 0.550234 0.271775
0.068358 0.789375 0.270928
0.325957 0.792496 0.272787
0.602239 0.795985 0.274564
0.859675 0.799365 0.276018
1.000000 0.801309 0.276746
0.077681 0.993184 0.275340
0.335950 0.996641 0.276697
0.612950 1.000000 0.277936
0.871053 1.000000 0.278889
1.000000 1.000000 0.279337
0.049153 0.040362 0.480400
0.304345 0.042280 0.484065
0.578050 0.044479 0.487775
0.833085 0.046660 0.491029
0.975644 0.047934 0.492762
0.053067 0.280730 0.491118
0.309061 0.283050 0.494181
0.583624 0.285678 0.497248
0.839460 0.288258 0.499902
0.982464 0.289756 0.501300
0.060047 0.540634 0.500567
0.316904 0.543384 0.502983
0.592391 0.546475 0.505357
0.849086 0.549485 0.507366
0.992571 0.551222 0.508404
0.069402 0.790345 0.507583
0.327082 0.793508 0.509382
0.603452 0.797040 0.511093
0.860969 0.800461 0.512486
1.000000 0.802427 0.513180
0.078936 0.994260 0.511837
0.337286 0.997757 0.513133
0.614374 1.000000 0.514307
0.872559 1.000000 0.515198
1.000000 1.000000 0.515612
0.049432 0.040941 0.713016
0.304705 0.042900 0.716621
0.578495 0.045142 0.720267
0.833610 0.047362 0.723461
0.976213 0.048658 0.725161
0.053594 0.281434 0.723548
0.309668 0.283793 0.726551
0.584317 0.286464 0.729554
0.840232 0.289085 0.732148
0.983282 0.290604 0.733513
0.060841 0.541470 0.732797
0.317778 0.544261 0.735153
0.593351 0.547394 0.737463
0.850126 0.550444 0.739412
0.993655 0.552204 0.740416
0.070450 0.791309 0.739623
0.328211 0.794512 0.741361
0.604667 0.798087 0.743008
0.862263 0.801548 0.744341
1.000000 0.803537 0.745001
0.080192 0.995328 0.743721
0.338622 0.998865 0.744957
0.615796 1.000000 0.746066
0.874060 1.000000 0.746898
1.000000 1.000000 0.747279
0.049696 0.041456 0.915713
0.305038 0.043450 0.919265
0.578903 0.045729 0.922855
0.834088 0.047984 0.925997
0.976730 0.049300 0.927667
0.054074 0.282057 0.926083
0.310217 0.284451 0.929033
0.584941 0.287160 0.931980
0.840926 0.289815 0.934521
0.984014 0.291354 0.935857
0.061553 0.542210 0.935157
0.318559 0.545035 0.937461
0.594207 0.548206 0.939714
0.851052 0.551290 0.941611
0.994620 0.553070 0.942587
0.071384 0.792160 0.941816
0.329214 0.795397 0.943502
0.605745 0.799009 0.945093
0.863412 0.802505 0.946374
1.000000 0.804513 0.947005
0.081306 0.996268 0.945779
0.339806 0.999840 0.946963
0.617055 1.000000 0.948016
0.875389 1.000000 0.948796
1.000000 1.000000 0.949147
