LUTs/07_Event_Indoor.cube
TITLE "Event Indoor"
# Nikon D5500 + Sigma 17-50 - subtle creative look (apply ~20-40%)
LUT_3D_SIZE 33
DOMAIN_MIN 0.0 0.0 0.0
DOMAIN_MAX 1.0 1.0 1.0
0.048680 0.039269 0.027180
0.079031 0.039481 0.027641
0.109645 0.039697 0.028102
0.140730 0.039918 0.028568
0.172342 0.040145 0.029039
0.204483 0.040378 0.029514
0.237124 0.040616 0.029994
0.270220 0.040860 0.030476
0.303717 0.041109 0.030962
0.337547 0.041363 0.031449
0.371640 0.041621 0.031936
0.405919 0.041882 0.032422
0.440304 0.042147 0.032906
0.474713 0.042414 0.033386
0.509063 0.042684 0.033863
0.543271 0.042954 0.034334
0.577254 0.043225 0.034798
0.610931 0.043495 0.035254
0.644226 0.043765 0.035703
0.677064 0.044033 0.036141
0.709376 0.044299 0.036570
0.741095 0.044562 0.036987
0.772163 0.044821 0.037393
0.802526 0.045076 0.037787
0.832134 0.045327 0.038168
0.860946 0.045573 0.038537
0.888926 0.045813 0.038892
0.916044 0.046047 0.039235
0.942275 0.046275 0.039564
0.967603 0.046496 0.039880
0.974605 0.046558 0.039967
0.974605 0.046558 0.039967
0.974605 0.046558 0.039967
0.048960 0.067911 0.028603
0.079322 0.068129 0.029055
0.109947 0.068351 0.029508
0.141044 0.068578 0.029965
0.172668 0.068811 0.030426
0.204821 0.069049 0.030893
0.237474 0.069294 0.031363
0.270583 0.069544 0.031837
0.304092 0.069799 0.032313
0.337935 0.070059 0.032790
0.372041 0.070324 0.033267
0.406333 0.070592 0.033744
0.440731 0.070863 0.034218
0.475153 0.071137 0.034689
0.509516 0.071412 0.035156
0.543736 0.071689 0.035617
0.577732 0.071966 0.036072
0.611422 0.072243 0.036519
0.644730 0.072519 0.036957
0.677580 0.072793 0.037387
0.709903 0.073065 0.037806
0.741635 0.073334 0.038215
0.772715 0.073599 0.038612
0.803088 0.073860 0.038997
0.832708 0.074117 0.039370
0.861531 0.074368 0.039731
0.889521 0.074613 0.040079
0.916649 0.074852 0.040413
0.942890 0.075085 0.040735
0.968227 0.075311 0.041044
0.975232 0.075374 0.041129
0.975232 0.075374 0.041129
0.975232 0.075374 0.041129
0.049277 0.096777 0.030009
0.079651 0.097001 0.030452
0.110287 0.097229 0.030896
0.141396 0.097462 0.031345
0.173032 0.097700 0.031797
0.205197 0.097945 0.032254
0.237863 0.098196 0.032716
0.270984 0.098452 0.033180
0.304506 0.098714 0.033646
0.338362 0.098980 0.034114
0.372480 0.099251 0.034582
0.406785 0.099526 0.035048
0.441196 0.099803 0.035513
0.475632 0.100084 0.035974
0.510007 0.100366 0.036431
0.544241 0.100649 0.036883
0.578249 0.100932 0.037328
0.611952 0.101216 0.037765
0.645272 0.101498 0.038194
0.678135 0.101778 0.038614
0.710471 0.102056 0.039025
0.742214 0.102331 0.039424
0.773306 0.102602 0.039813
0.803691 0.102869 0.040189
0.833321 0.103131 0.040554
0.862155 0.103387 0.040906
0.890156 0.103638 0.041246
0.917294 0.103882 0.041573
0.943546 0.104120 0.041888
0.968892 0.104351 0.042189
0.975900 0.104415 0.042272
0.975900 0.104415 0.042272
0.975900 0.104415 0.042272
0.049636 0.126057 0.031407
0.080021 0.126286 0.031841
0.110669 0.126520 0.032277
0.141790 0.126759 0.032716
0.173438 0.127004 0.033159
0.205615 0.127255 0.033607
0.238293 0.127512 0.034059
0.271428 0.127774 0.034514
0.304962 0.128042 0.034970
0.338831 0.128315 0.035428
0.372963 0.128593 0.035886
0.407281 0.128874 0.036343
0.441705 0.129158 0.036798
0.476153 0.129445 0.037249
0.510543 0.129733 0.037696
0.544789 0.130023 0.038138
0.578810 0.130313 0.038573
0.612526 0.130603 0.039001
0.645859 0.130892 0.039421
0.678734 0.131178 0.039831
0.711082 0.131462 0.040232
0.742838 0.131743 0.040623
0.773941 0.132020 0.041002
0.804338 0.132293 0.041370
0.833980 0.132561 0.041727
0.862825 0.132823 0.042071
0.890836 0.133079 0.042402
0.917985 0.133328 0.042722
0.944246 0.133571 0.043028
0.969603 0.133807 0.043323
0.976613 0.133872 0.043404
0.976613 0.133872 0.043404
0.976613 0.133872 0.043404
0.050037 0.155808 0.032798
0.080435 0.156043 0.033223
0.111095 0.156283 0.033650
0.142228 0.156528 0.034080
0.173888 0.156779 0.034514
0.206078 0.157036 0.034953
0.238769 0.157299 0.035395
0.271916 0.157568 0.035840
0.305463 0.157843 0.036287
0.339345 0.158122 0.036735
0.373490 0.158406 0.037183
0.407822 0.158694 0.037630
0.442259 0.158985 0.038074
0.476721 0.159279 0.038516
0.511124 0.159574 0.038953
0.545383 0.159870 0.039384
0.579418 0.160167 0.039810
0.613147 0.160463 0.040228
0.646493 0.160758 0.040638
0.679381 0.161052 0.041039
0.711741 0.161342 0.041430
0.743509 0.161629 0.041811
0.774625 0.161912 0.042182
0.805033 0.162191 0.042541
0.834687 0.162464 0.042889
0.863543 0.162732 0.043224
0.891565 0.162993 0.043548
0.918724 0.163248 0.043859
0.944996 0.163496 0.044159
0.970362 0.163736 0.044445
0.977375 0.163803 0.044524
0.977375 0.163803 0.044524
0.977375 0.163803 0.044524
0.050485 0.186040 0.034181
0.080894 0.186281 0.034597
0.111566 0.186526 0.035015
0.142711 0.186778 0.035436
0.174384 0.187035 0.035861
0.206587 0.187299 0.036290
0.239290 0.187568 0.036722
0.272451 0.187844 0.037157
0.306011 0.188125 0.037594
0.339907 0.188411 0.038032
0.374065 0.188702 0.038470
0.408410 0.188997 0.038907
0.442861 0.189294 0.039341
0.477337 0.189595 0.039772
0.511753 0.189897 0.040199
0.546026 0.190200 0.040621
0.580074 0.190503 0.041036
0.613817 0.190806 0.041444
0.647175 0.191108 0.041844
0.680076 0.191408 0.042236
0.712450 0.191704 0.042618
0.744230 0.191998 0.042989
0.775358 0.192287 0.043351
0.805778 0.192572 0.043701
0.835444 0.192851 0.044040
0.864311 0.193124 0.044367
0.892345 0.193391 0.044682
0.919514 0.193651 0.044985
0.945796 0.193904 0.045277
0.971172 0.194150 0.045556
0.978188 0.194218 0.045633
0.978188 0.194218 0.045633
0.978188 0.194218 0.045633
0.050978 0.216737 0.035554
0.081400 0.216984 0.035962
0.112085 0.217236 0.036370
0.143242 0.217493 0.036781
0.174928 0.217757 0.037197
0.207143 0.218027 0.037616
0.239860 0.218303 0.038039
0.273034 0.218586 0.038464
0.306608 0.218874 0.038891
0.340517 0.219167 0.039319
0.374689 0.219464 0.039746
0.409047 0.219766 0.040173
0.443513 0.220070 0.040597
0.478002 0.220378 0.041018
0.512432 0.220687 0.041434
0.546719 0.220997 0.041845
0.580780 0.221307 0.042250
0.614536 0.221616 0.042648
0.647908 0.221925 0.043038
0.680822 0.222231 0.043420
0.713209 0.222534 0.043792
0.745002 0.222834 0.044154
0.776142 0.223129 0.044506
0.806575 0.223420 0.044847
0.836252 0.223705 0.045177
0.865131 0.223984 0.045496
0.893175 0.224257 0.045803
0.920356 0.224522 0.046098
0.946649 0.224781 0.046381
0.972035 0.225031 0.046653
0.979053 0.225101 0.046728
0.979053 0.225101 0.046728
0.979053 0.225101 0.046728
0.051520 0.247869 0.036915
0.081954 0.248123 0.037313
0.112651 0.248381 0.037712
0.143821 0.248644 0.038114
0.175520 0.248915 0.038520
0.207748 0.249191 0.038929
0.240479 0.249474 0.039342
0.273666 0.249763 0.039757
0.307253 0.250058 0.040174
0.341176 0.250358 0.040591
0.375362 0.250662 0.041009
0.409735 0.250971 0.041425
0.444214 0.251282 0.041838
0.478717 0.251597 0.042249
0.513161 0.251913 0.042655
0.547462 0.252229 0.043055
0.581537 0.252547 0.043450
0.615307 0.252863 0.043838
0.648692 0.253178 0.044218
0.681620 0.253491 0.044589
0.714019 0.253801 0.044952
0.745825 0.254107 0.045304
0.776978 0.254409 0.045647
0.807423 0.254706 0.045978
0.837112 0.254997 0.046299
0.866003 0.255282 0.046609
0.894059 0.255560 0.046908
0.921250 0.255831 0.047195
0.947554 0.256094 0.047470
0.972950 0.256350 0.047734
0.979971 0.256421 0.047807
0.979971 0.256421 0.047807
0.979971 0.256421 0.047807
0.052111 0.279396 0.038261
0.082557 0.279656 0.038649
0.113267 0.279920 0.039039
0.144450 0.280190 0.039431
0.176162 0.280467 0.039827
0.208403 0.280750 0.040227
0.241147 0.281040 0.040629
0.274348 0.281335 0.041034
0.307949 0.281637 0.041441
0.341886 0.281944 0.041848
0.376086 0.282255 0.042254
0.410473 0.282571 0.042660
0.444966 0.282890 0.043063
0.479483 0.283211 0.043462
0.513941 0.283534 0.043858
0.548256 0.283858 0.044248
0.582345 0.284182 0.044632
0.616129 0.284505 0.045010
0.649528 0.284827 0.045379
0.682469 0.285147 0.045741
0.714882 0.285463 0.046093
0.746701 0.285776 0.046436
0.777867 0.286084 0.046769
0.808324 0.286387 0.047091
0.838025 0.286684 0.047403
0.866928 0.286975 0.047704
0.894995 0.287259 0.047994
0.922198 0.287536 0.048272
0.948512 0.287805 0.048540
0.973919 0.288066 0.048796
0.980943 0.288138 0.048867
0.980943 0.288138 0.048867
0.980943 0.288138 0.048867
0.052751 0.311268 0.039587
0.083210 0.311535 0.039967
0.113933 0.311805 0.040346
0.145128 0.312082 0.040729
0.176853 0.312365 0.041115
0.209108 0.312655 0.041505
0.241865 0.312951 0.041897
0.275080 0.313254 0.042292
0.308695 0.313562 0.042688
0.342646 0.313876 0.043084
0.376860 0.314195 0.043480
0.411261 0.314518 0.043875
0.445769 0.314843 0.044267
0.480300 0.315172 0.044656
0.514773 0.315502 0.045041
0.549102 0.315833 0.045421
0.583205 0.316164 0.045794
0.617003 0.316495 0.046161
0.650416 0.316823 0.046521
0.683371 0.317150 0.046872
0.715797 0.317473 0.047214
0.747629 0.317792 0.047547
0.778807 0.318107 0.047870
0.809277 0.318416 0.048183
0.838991 0.318720 0.048486
0.867905 0.319016 0.048778
0.895984 0.319306 0.049059
0.923198 0.319588 0.049329
0.949523 0.319863 0.049588
0.974941 0.320129 0.049837
0.981968 0.320203 0.049905
0.981968 0.320203 0.049905
0.981968 0.320203 0.049905
0.053441 0.343432 0.040892
0.083912 0.343705 0.041262
0.114648 0.343982 0.041632
0.145857 0.344265 0.042005
0.177595 0.344554 0.042382
0.209863 0.344851 0.042761
0.242634 0.345154 0.043143
0.275862 0.345464 0.043527
0.309492 0.345780 0.043913
0.343457 0.346101 0.044299
0.377685 0.346426 0.044684
0.412101 0.346756 0.045068
0.446623 0.347089 0.045449
0.481169 0.347425 0.045827
0.515655 0.347762 0.046201
0.549999 0.348101 0.046570
0.584116 0.348439 0.046933
0.617928 0.348776 0.047290
0.651355 0.349112 0.047638
0.684324 0.349445 0.047979
0.716763 0.349775 0.048311
0.748609 0.350101 0.048634
0.779800 0.350422 0.048948
0.810283 0.350738 0.049251
0.840009 0.351048 0.049545
0.868935 0.351350 0.049827
0.897026 0.351646 0.050100
0.924251 0.351934 0.050361
0.950587 0.352214 0.050612
0.976015 0.352485 0.050853
0.983045 0.352561 0.050919
0.983045 0.352561 0.050919
0.983045 0.352561 0.050919
0.054179 0.375828 0.042172
0.084664 0.376107 0.042533
0.115412 0.376391 0.042893
0.146634 0.376680 0.043256
0.178386 0.376977 0.043622
0.210668 0.377280 0.043992
0.243452 0.377591 0.044363
0.276695 0.377907 0.044737
0.310338 0.378230 0.045112
0.344317 0.378558 0.045487
0.378560 0.378891 0.045862
0.412990 0.379228 0.046235
0.447527 0.379568 0.046605
0.482087 0.379911 0.046973
0.516588 0.380256 0.047336
0.550946 0.380601 0.047694
0.585078 0.380947 0.048046
0.618904 0.381291 0.048392
0.652345 0.381634 0.048730
0.685327 0.381974 0.049060
0.717781 0.382311 0.049382
0.749640 0.382644 0.049695
0.780844 0.382971 0.049999
0.811340 0.383293 0.050293
0.841078 0.383609 0.050577
0.870017 0.383918 0.050850
0.898119 0.384219 0.051114
0.925356 0.384513 0.051367
0.951703 0.384799 0.051610
0.977142 0.385075 0.051842
0.984174 0.385152 0.051906
0.984174 0.385152 0.051906
0.984174 0.385152 0.051906
0.054967 0.408395 0.043425
0.085464 0.408680 0.043775
0.116225 0.408970 0.044126
0.147460 0.409266 0.044479
0.179225 0.409569 0.044835
0.211521 0.409880 0.045194
0.244319 0.410197 0.045556
0.277576 0.410521 0.045919
0.311234 0.410850 0.046283
0.345227 0.411186 0.046647
0.379484 0.411526 0.047011
0.413929 0.411870 0.047373
0.448480 0.412218 0.047733
0.483055 0.412568 0.048089
0.517571 0.412920 0.048441
0.551943 0.413272 0.048789
0.586090 0.413625 0.049130
0.619929 0.413977 0.049465
0.653385 0.414327 0.049793
0.686381 0.414674 0.050113
0.718848 0.415017 0.050424
0.750720 0.415357 0.050727
0.781938 0.415691 0.051021
0.812446 0.416019 0.051305
0.842197 0.416341 0.051580
0.871148 0.416656 0.051844
0.899262 0.416964 0.052099
0.926511 0.417263 0.052344
0.952869 0.417554 0.052578
0.978318 0.417836 0.052802
0.985354 0.417915 0.052864
0.985354 0.417915 0.052864
0.985354 0.417915 0.052864
0.055801 0.441066 0.044646
0.086311 0.441358 0.044987
0.117086 0.441654 0.045327
0.148334 0.441957 0.045671
0.180113 0.442267 0.046017
0.212422 0.442584 0.046366
0.245234 0.442908 0.046717
0.278505 0.443239 0.047069
0.312177 0.443576 0.047423
0.346185 0.443918 0.047776
0.380456 0.444266 0.048129
0.414915 0.444617 0.048480
0.449481 0.444972 0.048829
0.484071 0.445330 0.049175
0.518601 0.445689 0.049516
0.552988 0.446049 0.049852
0.587149 0.446409 0.050183
0.621003 0.446768 0.050507
0.654472 0.447125 0.050824
0.687483 0.447479 0.051134
0.719963 0.447829 0.051435
0.751849 0.448175 0.051728
0.783080 0.448516 0.052012
0.813601 0.448851 0.052286
0.843365 0.449179 0.052551
0.872328 0.449500 0.052807
0.900454 0.449814 0.053052
0.927714 0.450119 0.053288
0.954083 0.450415 0.053514
0.979543 0.450703 0.053731
0.986582 0.450783 0.053790
0.986582 0.450783 0.053790
0.986582 0.450783 0.053790
0.056682 0.473776 0.045833
0.087205 0.474074 0.046165
0.117992 0.474377 0.046496
0.149254 0.474687 0.046829
0.181046 0.475003 0.047165
0.213369 0.475327 0.047504
0.246195 0.475658 0.047844
0.279479 0.475996 0.048186
0.313166 0.476340 0.048529
0.347188 0.476690 0.048872
0.381474 0.477044 0.049214
0.415948 0.477403 0.049554
0.450528 0.477765 0.049892
0.485132 0.478130 0.050226
0.519677 0.478497 0.050557
0.554079 0.478864 0.050882
0.588254 0.479231 0.051202
0.622123 0.479597 0.051515
0.655606 0.479961 0.051822
0.688630 0.480322 0.052121
0.721125 0.480679 0.052412
0.753024 0.481032 0.052695
0.784268 0.481380 0.052969
0.814802 0.481721 0.053234
0.844578 0.482056 0.053489
0.873553 0.482383 0.053736
0.901692 0.482702 0.053972
0.928963 0.483013 0.054200
0.955343 0.483315 0.054417
0.980814 0.483608 0.054626
0.987856 0.483689 0.054683
0.987856 0.483689 0.054683
0.987856 0.483689 0.054683
0.057606 0.506456 0.046985
0.088142 0.506761 0.047307
0.118942 0.507070 0.047628
0.150217 0.507387 0.047951
0.182023 0.507710 0.048277
0.214359 0.508041 0.048606
0.247199 0.508379 0.048936
0.280498 0.508723 0.049267
0.314198 0.509075 0.049600
0.348235 0.509431 0.049932
0.382536 0.509793 0.050263
0.417024 0.510159 0.050592
0.451619 0.510529 0.050919
0.486238 0.510901 0.051242
0.520797 0.511275 0.051562
0.555213 0.511649 0.051876
0.589403 0.512024 0.052185
0.623286 0.512397 0.052488
0.656783 0.512768 0.052784
0.689821 0.513136 0.053072
0.722329 0.513500 0.053353
0.754242 0.513860 0.053626
0.785499 0.514214 0.053890
0.816046 0.514561 0.054145
0.845835 0.514902 0.054392
0.874822 0.515235 0.054629
0.902972 0.515561 0.054857
0.930255 0.515877 0.055075
0.956646 0.516185 0.055285
0.982128 0.516483 0.055485
0.989173 0.516566 0.055540
0.989173 0.516566 0.055540
0.989173 0.516566 0.055540
0.058572 0.539039 0.048099
0.089121 0.539351 0.048411
0.119934 0.539667 0.048722
0.151222 0.539989 0.049036
0.183041 0.540319 0.049352
0.215391 0.540657 0.049670
0.248245 0.541002 0.049990
0.281558 0.541353 0.050311
0.315272 0.541712 0.050632
0.349323 0.542076 0.050954
0.383639 0.542445 0.051274
0.418141 0.542818 0.051592
0.452751 0.543195 0.051908
0.487384 0.543574 0.052221
0.521958 0.543955 0.052529
0.556388 0.544337 0.052833
0.590593 0.544719 0.053131
0.624490 0.545099 0.053423
0.658001 0.545477 0.053709
0.691053 0.545852 0.053987
0.723575 0.546223 0.054257
0.755501 0.546589 0.054520
0.786771 0.546950 0.054774
0.817331 0.547304 0.055020
0.847132 0.547651 0.055257
0.876132 0.547990 0.055485
0.904294 0.548322 0.055704
0.931588 0.548644 0.055914
0.957990 0.548957 0.056115
0.983483 0.549261 0.056307
0.990530 0.549345 0.056360
0.990530 0.549345 0.056360
0.990530 0.549345 0.056360
0.059577 0.571458 0.049173
0.090139 0.571776 0.049475
0.120965 0.572098 0.049777
0.152266 0.572427 0.050081
0.184098 0.572764 0.050387
0.216462 0.573108 0.050695
0.249330 0.573460 0.051004
0.282656 0.573819 0.051315
0.316385 0.574184 0.051626
0.350450 0.574555 0.051936
0.384780 0.574931 0.052246
0.419297 0.575312 0.052553
0.453920 0.575696 0.052859
0.488568 0.576083 0.053160
0.523157 0.576471 0.053458
0.557602 0.576860 0.053751
0.591820 0.577248 0.054038
0.625731 0.577636 0.054320
0.659257 0.578021 0.054595
0.692323 0.578403 0.054863
0.724858 0.578780 0.055123
0.756797 0.579153 0.055376
0.788081 0.579520 0.055620
0.818653 0.579881 0.055856
0.848467 0.580234 0.056084
0.877479 0.580580 0.056303
0.905652 0.580917 0.056513
0.932958 0.581245 0.056714
0.959371 0.581563 0.056907
0.984874 0.581872 0.057091
0.991925 0.581958 0.057142
0.991925 0.581958 0.057142
0.991925 0.581958 0.057142
0.060619 0.603646 0.050205
0.091193 0.603970 0.050498
0.122032 0.604298 0.050790
0.153346 0.604634 0.051084
0.185191 0.604977 0.051380
0.217568 0.605328 0.051678
0.250450 0.605687 0.051978
0.283790 0.606053 0.052278
0.317533 0.606425 0.052578
0.351612 0.606803 0.052878
0.385956 0.607186 0.053177
0.420487 0.607574 0.053474
0.455125 0.607965 0.053768
0.489788 0.608359 0.054059
0.524390 0.608755 0.054346
0.558849 0.609151 0.054628
0.593082 0.609546 0.054905
0.627007 0.609941 0.055176
0.660547 0.610333 0.055441
0.693626 0.610721 0.055698
0.726175 0.611106 0.055949
0.758128 0.611485 0.056191
0.789424 0.611859 0.056426
0.820009 0.612226 0.056653
0.849835 0.612585 0.056871
0.878859 0.612937 0.057081
0.907044 0.613280 0.057283
0.934361 0.613613 0.057476
0.960785 0.613937 0.057660
0.986299 0.614252 0.057837
0.993352 0.614339 0.057885
0.993352 0.614339 0.057885
0.993352 0.614339 0.057885
0.061693 0.635538 0.051195
0.092280 0.635868 0.051478
0.123131 0.636203 0.051761
0.154458 0.636546 0.052046
0.186317 0.636895 0.052332
0.218707 0.637253 0.052620
0.251602 0.637618 0.052909
0.284956 0.637991 0.053199
0.318712 0.638370 0.053489
0.352806 0.638755 0.053779
0.387164 0.639146 0.054067
0.421709 0.639540 0.054353
0.456361 0.639939 0.054637
0.491038 0.640340 0.054917
0.525655 0.640742 0.055194
0.560128 0.641145 0.055465
0.594375 0.641548 0.055731
0.628314 0.641949 0.055992
0.661867 0.642348 0.056246
0.694960 0.642744 0.056494
0.727522 0.643135 0.056734
0.759488 0.643521 0.056967
0.790797 0.643901 0.057192
0.821395 0.644274 0.057409
0.851233 0.644640 0.057618
0.880268 0.644997 0.057819
0.908465 0.645346 0.058012
0.935793 0.645685 0.058197
0.962228 0.646014 0.058373
0.987752 0.646334 0.058542
0.994809 0.646422 0.058588
0.994809 0.646422 0.058588
0.994809 0.646422 0.058588
0.062797 0.667073 0.052142
0.093396 0.667409 0.052416
0.124260 0.667751 0.052689
0.155600 0.668099 0.052964
0.187471 0.668456 0.053241
0.219874 0.668820 0.053519
0.252783 0.669192 0.053798
0.286150 0.669571 0.054078
0.319920 0.669957 0.054358
0.354027 0.670349 0.054637
0.388399 0.670746 0.054915
0.422959 0.671148 0.055190
0.457625 0.671554 0.055464
0.492316 0.671962 0.055733
0.526946 0.672371 0.055999
0.561434 0.672781 0.056260
0.595694 0.673191 0.056516
0.629647 0.673599 0.056766
0.663214 0.674005 0.057010
0.696320 0.674407 0.057248
0.728896 0.674805 0.057478
0.760874 0.675197 0.057701
0.792196 0.675583 0.057917
0.822806 0.675963 0.058125
0.852656 0.676334 0.058325
0.881703 0.676698 0.058517
0.909912 0.677052 0.058702
0.937251 0.677397 0.058878
0.963697 0.677732 0.059047
0.989231 0.678056 0.059207
0.996290 0.678146 0.059251
0.996290 0.678146 0.059251
0.996290 0.678146 0.059251
0.063926 0.698191 0.053044
0.094537 0.698534 0.053309
0.125414 0.698881 0.053573
0.156766 0.699236 0.053839
0.188650 0.699599 0.054106
0.221067 0.699969 0.054374
0.253988 0.700348 0.054644
0.287369 0.700734 0.054913
0.321152 0.701126 0.055183
0.355273 0.701525 0.055452
0.389659 0.701930 0.055720
0.424232 0.702338 0.055985
0.458912 0.702751 0.056248
0.493617 0.703165 0.056507
0.528261 0.703582 0.056763
0.562762 0.703999 0.057013
0.597036 0.704415 0.057259
0.631003 0.704830 0.057499
0.664583 0.705243 0.057733
0.697703 0.705651 0.057961
0.730291 0.706056 0.058181
0.762282 0.706455 0.058395
0.793617 0.706847 0.058601
0.824239 0.707232 0.058800
0.854101 0.707610 0.058991
0.883160 0.707979 0.059175
0.911379 0.708339 0.059351
0.938729 0.708689 0.059519
0.965186 0.709029 0.059680
0.990730 0.709359 0.059833
0.997792 0.709450 0.059875
0.997792 0.709450 0.059875
0.997792 0.709450 0.059875
0.065077 0.728836 0.053903
0.095701 0.729185 0.054159
0.126590 0.729538 0.054414
0.157954 0.729899 0.054670
0.189851 0.730268 0.054928
0.222280 0.730645 0.055186
0.255214 0.731030 0.055446
0.288608 0.731423 0.055706
0.322405 0.731822 0.055966
0.356539 0.732228 0.056225
0.390938 0.732639 0.056482
0.425525 0.733054 0.056737
0.460219 0.733473 0.056990
0.494937 0.733895 0.057239
0.529595 0.734318 0.057484
0.564110 0.734742 0.057725
0.598397 0.735165 0.057961
0.632377 0.735587 0.058191
0.665970 0.736006 0.058415
0.699103 0.736421 0.058632
0.731704 0.736832 0.058844
0.763708 0.737237 0.059048
0.795055 0.737636 0.059245
0.825689 0.738027 0.059435
0.855563 0.738410 0.059617
0.884633 0.738785 0.059792
0.912863 0.739151 0.059960
0.940224 0.739506 0.060120
0.966691 0.739852 0.060273
0.992245 0.740186 0.060418
0.999310 0.740279 0.060458
0.999310 0.740279 0.060458
0.999310 0.740279 0.060458
0.066247 0.758956 0.054717
0.096882 0.759311 0.054964
0.127783 0.759670 0.055210
0.159159 0.760037 0.055458
0.191068 0.760412 0.055706
0.223510 0.760796 0.055955
0.256457 0.761187 0.056205
0.289864 0.761586 0.056456
0.323674 0.761992 0.056706
0.357821 0.762404 0.056955
0.392233 0.762822 0.057202
0.426833 0.763244 0.057447
0.461541 0.763670 0.057690
0.496272 0.764098 0.057929
0.530944 0.764528 0.058164
0.565471 0.764958 0.058395
0.599772 0.765388 0.058621
0.633765 0.765816 0.058841
0.667372 0.766242 0.059055
0.700517 0.766663 0.059263
0.733131 0.767080 0.059465
0.765147 0.767492 0.059660
0.796505 0.767896 0.059848
0.827152 0.768294 0.060029
0.857037 0.768683 0.060203
0.886118 0.769063 0.060369
0.914360 0.769434 0.060529
0.941731 0.769795 0.060681
0.968208 0.770145 0.060826
0.993772 0.770485 0.060965
1.000000 0.770579 0.061003
1.000000 0.770579 0.061003
1.000000 0.770579 0.061003
0.067430 0.788503 0.055488
0.098077 0.788863 0.055726
0.128989 0.789228 0.055964
0.160378 0.789601 0.056202
0.192299 0.789982 0.056441
0.224753 0.790372 0.056681
0.257712 0.790770 0.056922
0.291132 0.791175 0.057163
0.324954 0.791587 0.057403
0.359115 0.792006 0.057643
0.393540 0.792430 0.057880
0.428153 0.792859 0.058116
0.462873 0.793291 0.058349
0.497618 0.793726 0.058578
0.532303 0.794162 0.058803
0.566844 0.794599 0.059024
0.601157 0.795035 0.059240
0.635163 0.795470 0.059451
0.668782 0.795902 0.059655
0.701940 0.796330 0.059854
0.734566 0.796753 0.060047
0.766594 0.797170 0.060233
0.797965 0.797581 0.060412
0.828622 0.797984 0.060584
0.858519 0.798379 0.060749
0.887611 0.798765 0.060908
0.915863 0.799141 0.061059
0.943245 0.799507 0.061204
0.969732 0.799862 0.061341
0.995306 0.800207 0.061472
1.000000 0.800302 0.061508
1.000000 0.800302 0.061508
1.000000 0.800302 0.061508
0.068623 0.817432 0.056215
0.099282 0.817798 0.056445
0.130206 0.818169 0.056674
0.161606 0.818547 0.056904
0.193538 0.818934 0.057134
0.226004 0.819330 0.057365
0.258976 0.819734 0.057597
0.292408 0.820145 0.057828
0.326243 0.820564 0.058059
0.360416 0.820989 0.058289
0.394854 0.821419 0.058517
0.429480 0.821854 0.058743
0.464213 0.822293 0.058966
0.498971 0.822734 0.059186
0.533668 0.823177 0.059402
0.568222 0.823620 0.059613
0.602548 0.824063 0.059819
0.636566 0.824504 0.060021
0.670198 0.824942 0.060216
0.703368 0.825376 0.060406
0.736006 0.825805 0.060589
0.768046 0.826228 0.060766
0.799428 0.826645 0.060937
0.830097 0.827053 0.061101
0.860005 0.827454 0.061258
0.889108 0.827845 0.061408
0.917370 0.828226 0.061552
0.944762 0.828597 0.061689
0.971259 0.828958 0.061819
0.996842 0.829307 0.061943
1.000000 0.829404 0.061977
1.000000 0.829404 0.061977
1.000000 0.829404 0.061977
0.069823 0.845703 0.056901
0.100492 0.846075 0.057122
0.131427 0.846451 0.057342
0.162839 0.846836 0.057563
0.194783 0.847228 0.057785
0.227261 0.847630 0.058008
0.260244 0.848039 0.058230
0.293688 0.848457 0.058453
0.327535 0.848882 0.058675
0.361721 0.849313 0.058895
0.396171 0.849749 0.059114
0.430810 0.850191 0.059331
0.465555 0.850636 0.059544
0.500325 0.851083 0.059755
0.535035 0.851532 0.059961
0.569601 0.851982 0.060163
0.603940 0.852431 0.060360
0.637971 0.852878 0.060552
0.671614 0.853322 0.060738
0.704796 0.853762 0.060919
0.737446 0.854197 0.061094
0.769498 0.854626 0.061262
0.800891 0.855048 0.061424
0.831571 0.855462 0.061580
0.861490 0.855868 0.061729
