LUTs/07_Event_Indoor.cube
TITLE "Event Indoor"
# Nikon D5500 + Sigma 17-50 - subtle creative look (apply ~20-40%)
LUT_3D_SIZE 9
DOMAIN_MIN 0.0 0.0 0.0
DOMAIN_MAX 1.0 1.0 1.0
0.048680 0.039269 0.027180
0.172342 0.040145 0.029039
0.303717 0.041109 0.030962
0.440304 0.042147 0.032906
0.577254 0.043225 0.034798
0.709376 0.044299 0.036570
0.832134 0.045327 0.038168
0.942275 0.046275 0.039564
0.974605 0.046558 0.039967
0.050037 0.155808 0.032798
0.173888 0.156779 0.034514
0.305463 0.157843 0.036287
0.442259 0.158985 0.038074
0.579418 0.160167 0.039810
0.711741 0.161342 0.041430
0.834687 0.162464 0.042889
0.944996 0.163496 0.044159
0.977375 0.163803 0.044524
0.052111 0.279396 0.038261
0.176162 0.280467 0.039827
0.307949 0.281637 0.041441
0.444966 0.282890 0.043063
0.582345 0.284182 0.044632
0.714882 0.285463 0.046093
0.838025 0.286684 0.047403
0.948512 0.287805 0.048540
0.980943 0.288138 0.048867
0.054967 0.408395 0.043425
0.179225 0.409569 0.044835
0.311234 0.410850 0.046283
0.448480 0.412218 0.047733
0.586090 0.413625 0.049130
0.718848 0.415017 0.050424
0.842197 0.416341 0.051580
0.952869 0.417554 0.052578
0.985354 0.417915 0.052864
0.058572 0.539039 0.048099
0.183041 0.540319 0.049352
0.315272 0.541712 0.050632
0.452751 0.543195 0.051908
0.590593 0.544719 0.053131
0.723575 0.546223 0.054257
0.847132 0.547651 0.055257
0.957990 0.548957 0.056115
0.990530 0.549345 0.056360
0.062797 0.667073 0.052142
0.187471 0.668456 0.053241
0.319920 0.669957 0.054358
0.457625 0.671554 0.055464
0.595694 0.673191 0.056516
0.728896 0.674805 0.057478
0.852656 0.676334 0.058325
0.963697 0.677732 0.059047
0.996290 0.678146 0.059251
0.067430 0.788503 0.055488
0.192299 0.789982 0.056441
0.324954 0.791587 0.057403
0.462873 0.793291 0.058349
0.601157 0.795035 0.059240
0.734566 0.796753 0.060047
0.858519 0.798379 0.060749
0.969732 0.799862 0.061341
1.000000 0.800302 0.061508
0.072224 0.900138 0.058148
0.197271 0.901707 0.058968
0.330116 0.903406 0.059788
0.468232 0.905208 0.060586
0.606713 0.907051 0.061329
0.740311 0.908864 0.061994
0.864440 0.910578 0.062564
0.975812 0.912140 0.063037
1.000000 0.912604 0.063170
0.076561 0.992216 0.060044
0.201755 0.993858 0.060754
0.334755 0.995635 0.061457
0.473033 0.997518 0.062134
0.611676 0.999442 0.062756
0.745431 1.000000 0.063303
0.869705 1.000000 0.063764
0.981207 1.000000 0.064140
1.000000 1.000000 0.064244
0.048781 0.039516 0.131387
0.172460 0.040401 0.133232
0.303853 0.041374 0.135141
0.440460 0.042422 0.137071
0.577429 0.043509 0.138949
0.709569 0.044592 0.140706
0.832344 0.045629 0.142292
0.942501 0.046585 0.143676
0.974836 0.046870 0.144076
0.050192 0.156082 0.136964
0.174060 0.157062 0.138667
0.305654 0.158135 0.140426
0.442469 0.159287 0.142199
0.579647 0.160478 0.143920
0.711989 0.161663 0.145527
0.834951 0.162793 0.146972
0.945276 0.163833 0.148230
0.977659 0.164142 0.148593
0.052323 0.279698 0.142384
0.176391 0.280778 0.143937
0.308196 0.281958 0.145537
0.445232 0.283220 0.147145
0.582631 0.284522 0.148700
0.715186 0.285813 0.150147
0.838347 0.287042 0.151444
0.948849 0.288170 0.152569
0.981284 0.288506 0.152892
0.055237 0.408727 0.147503
0.179514 0.409911 0.148901
0.311540 0.411201 0.150335
0.448806 0.412578 0.151770
0.586435 0.413995 0.153153
0.719212 0.415396 0.154433
0.842578 0.416729 0.155576
0.953265 0.417949 0.156562
0.985755 0.418312 0.156845
0.058903 0.539402 0.152132
0.183389 0.540690 0.153372
0.315639 0.542092 0.154639
0.453136 0.543585 0.155901
0.590998 0.545118 0.157109
0.723999 0.546632 0.158221
0.847573 0.548068 0.159208
0.958447 0.549382 0.160055
0.990991 0.549772 0.160296
0.063186 0.667465 0.156131
0.187878 0.668856 0.157217
0.320346 0.670367 0.158320
0.458070 0.671973 0.159412
0.596158 0.673620 0.160450
0.729378 0.675243 0.161398
0.853156 0.676781 0.162232
0.964212 0.678186 0.162942
0.996810 0.678603 0.163144
0.067875 0.788922 0.159436
0.192761 0.790411 0.160376
0.325435 0.792025 0.161324
0.463374 0.793738 0.162255
0.601677 0.795492 0.163132
0.735104 0.797219 0.163925
0.859074 0.798853 0.164615
0.970302 0.800344 0.165195
1.000000 0.800787 0.165359
0.072720 0.900583 0.162058
0.197784 0.902161 0.162864
0.330648 0.903869 0.163671
0.468783 0.905681 0.164454
0.607283 0.907533 0.165184
0.740900 0.909355 0.165834
0.865046 0.911078 0.166391
0.976433 0.912648 0.166853
1.000000 0.913113 0.166982
0.077099 0.992682 0.163923
0.202310 0.994333 0.164619
0.335329 0.996119 0.165309
0.473626 0.998011 0.165971
0.612288 0.999945 0.166579
0.746061 1.000000 0.167112
0.870353 1.000000 0.167560
0.981870 1.000000 0.167924
1.000000 1.000000 0.168025
0.048894 0.039784 0.243156
0.172592 0.040678 0.244987
0.304004 0.041661 0.246881
0.440632 0.042719 0.248796
0.577621 0.043817 0.250658
0.709782 0.044910 0.252401
0.832576 0.045956 0.253973
0.942749 0.046920 0.255344
0.975088 0.047207 0.255740
0.050363 0.156379 0.248689
0.174250 0.157368 0.250379
0.305863 0.158451 0.252123
0.442699 0.159613 0.253880
0.579897 0.160815 0.255586
0.712259 0.162009 0.257177
0.835240 0.163149 0.258609
0.945582 0.164197 0.259855
0.977970 0.164509 0.260214
0.052555 0.280026 0.254063
0.176642 0.281115 0.255603
0.308467 0.282304 0.257188
0.445524 0.283577 0.258780
0.582943 0.284889 0.260320
0.715518 0.286190 0.261752
0.838697 0.287429 0.263035
0.949216 0.288565 0.264148
0.981656 0.288903 0.264467
0.055533 0.409086 0.259135
0.179828 0.410279 0.260518
0.311875 0.411579 0.261938
0.449161 0.412966 0.263358
0.586810 0.414394 0.264725
0.719607 0.415805 0.265990
0.842992 0.417147 0.267119
0.953696 0.418376 0.268093
0.986190 0.418741 0.268372
0.059263 0.539793 0.263716
0.183768 0.541091 0.264942
0.316038 0.542503 0.266194
0.453556 0.544006 0.267440
0.591438 0.545549 0.268633
0.724459 0.547073 0.269730
0.848052 0.548519 0.270703
0.958942 0.549841 0.271537
0.991491 0.550234 0.271775
0.063609 0.667888 0.267668
0.188320 0.669288 0.268740
0.320807 0.670809 0.269828
0.458552 0.672425 0.270904
0.596661 0.674082 0.271927
0.729901 0.675715 0.272860
0.853697 0.677263 0.273680
0.964770 0.678676 0.274377
0.997373 0.679096 0.274575
0.068358 0.789375 0.270928
0.193263 0.790873 0.271854
0.325957 0.792496 0.272787
0.463915 0.794220 0.273703
0.602239 0.795985 0.274564
0.735686 0.797721 0.275342
0.859675 0.799365 0.276018
0.970920 0.800864 0.276586
1.000000 0.801309 0.276746
0.073258 0.901063 0.273509
0.198340 0.902650 0.274301
0.331224 0.904368 0.275093
0.469379 0.906190 0.275861
0.607900 0.908053 0.276575
0.741537 0.909885 0.277210
0.865702 0.911617 0.277754
0.977105 0.913195 0.278203
1.000000 0.913663 0.278328
0.077681 0.993184 0.275340
0.202911 0.994844 0.276022
0.335950 0.996641 0.276697
0.474267 0.998543 0.277344
0.612950 1.000000 0.277936
0.746743 1.000000 0.278454
0.871053 1.000000 0.278889
0.982587 1.000000 0.279241
1.000000 1.000000 0.279337
0.049019 0.040068 0.360558
0.172737 0.040973 0.362374
0.304170 0.041966 0.364253
0.440819 0.043035 0.366151
0.577830 0.044143 0.367997
0.710011 0.045247 0.369724
0.832825 0.046303 0.371282
0.943016 0.047275 0.372640
0.975360 0.047565 0.373032
0.050549 0.156694 0.366046
0.174455 0.157692 0.367720
0.306089 0.158786 0.369449
0.442947 0.159959 0.371190
0.580167 0.161172 0.372879
0.712550 0.162376 0.374456
0.835550 0.163526 0.375873
0.945909 0.164582 0.377105
0.978302 0.164897 0.377460
0.052805 0.280373 0.371371
0.176911 0.281472 0.372896
0.308758 0.282672 0.374466
0.445836 0.283955 0.376042
0.583277 0.285278 0.377565
0.715873 0.286589 0.378981
0.839071 0.287838 0.380250
0.949607 0.288983 0.381350
0.982053 0.289323 0.381666
0.055851 0.409467 0.376393
0.180165 0.410669 0.377762
0.312232 0.411980 0.379165
0.449540 0.413378 0.380569
0.587211 0.414816 0.381920
0.720029 0.416238 0.383170
0.843433 0.417590 0.384284
0.954154 0.418827 0.385245
0.986654 0.419195 0.385520
0.059648 0.540207 0.380923
0.184173 0.541515 0.382135
0.316463 0.542937 0.383371
0.454003 0.544451 0.384601
0.591906 0.546006 0.385777
0.724948 0.547540 0.386859
0.848560 0.548995 0.387817
0.959468 0.550326 0.388638
0.992022 0.550721 0.388873
0.064060 0.668335 0.384825
0.188790 0.669745 0.385883
0.321299 0.671276 0.386955
0.459065 0.672904 0.388015
0.597195 0.674572 0.389022
0.730456 0.676215 0.389939
0.854272 0.677772 0.390745
0.965362 0.679194 0.391429
0.997970 0.679616 0.391623
0.068871 0.789853 0.388038
0.193796 0.791361 0.388950
0.326510 0.792995 0.389868
0.464491 0.794730 0.390767
0.602836 0.796505 0.391612
0.736304 0.798252 0.392375
0.860312 0.799906 0.393036
0.971574 0.801414 0.393591
1.000000 0.801861 0.393747
0.073828 0.901570 0.390577
0.198931 0.903167 0.391354
0.331835 0.904896 0.392130
0.470012 0.906728 0.392882
0.608554 0.908602 0.393580
0.742212 0.910444 0.394199
0.866396 0.912186 0.394729
0.977817 0.913773 0.395165
1.000000 0.914244 0.395286
0.078299 0.993715 0.392372
0.203548 0.995385 0.393040
0.336608 0.997192 0.393699
0.474947 0.999105 0.394330
0.613651 1.000000 0.394906
0.747466 1.000000 0.395408
0.871795 1.000000 0.395828
0.983346 1.000000 0.396167
1.000000 1.000000 0.396260
0.049153 0.040362 0.480400
0.172891 0.041276 0.482202
0.304345 0.042280 0.484065
0.441016 0.043360 0.485946
0.578050 0.044479 0.487775
0.710252 0.045594 0.489486
0.833085 0.046660 0.491029
0.943294 0.047641 0.492374
0.975644 0.047934 0.492762
0.050745 0.157018 0.485841
0.174672 0.158027 0.487501
0.306327 0.159131 0.489214
0.443206 0.160315 0.490938
0.580449 0.161539 0.492611
0.712853 0.162754 0.494171
0.835873 0.163914 0.495573
0.946249 0.164979 0.496793
0.978648 0.165296 0.497144
0.053067 0.280730 0.491118
0.177193 0.281839 0.492628
0.309061 0.283050 0.494181
0.446161 0.284344 0.495741
0.583624 0.285678 0.497248
0.716242 0.287000 0.498648
0.839460 0.288258 0.499902
0.950014 0.289412 0.500988
0.982464 0.289756 0.501300
0.056181 0.409858 0.496088
0.180515 0.411071 0.497442
0.312604 0.412392 0.498830
0.449934 0.413801 0.500217
0.587627 0.415251 0.501551
0.720466 0.416683 0.502785
0.843890 0.418045 0.503884
0.954629 0.419291 0.504832
0.987134 0.419661 0.505104
0.060047 0.540634 0.500567
0.184592 0.541951 0.501763
0.316904 0.543384 0.502983
0.454465 0.544909 0.504197
0.592391 0.546475 0.505357
0.725454 0.548019 0.506423
0.849086 0.549485 0.507366
0.960011 0.550824 0.508174
0.992571 0.551222 0.508404
0.064527 0.668795 0.504418
0.189277 0.670215 0.505460
0.321807 0.671757 0.506517
0.459595 0.673395 0.507561
0.597748 0.675074 0.508550
0.731030 0.676728 0.509452
0.854865 0.678296 0.510243
0.965973 0.679726 0.510914
0.998586 0.680151 0.511104
0.069402 0.790345 0.507583
0.194346 0.791863 0.508480
0.327082 0.793508 0.509382
0.465085 0.795253 0.510265
0.603452 0.797040 0.511093
0.736941 0.798797 0.511840
0.860969 0.800461 0.512486
0.972249 0.801978 0.513028
1.000000 0.802427 0.513180
0.074417 0.902091 0.510078
0.199540 0.903698 0.510841
0.332465 0.905437 0.511601
0.470664 0.907281 0.512336
0.609229 0.909166 0.513017
0.742908 0.911019 0.513621
0.867112 0.912770 0.514135
0.978550 0.914367 0.514558
1.000000 0.914839 0.514675
0.078936 0.994260 0.511837
0.204206 0.995940 0.512490
0.337286 0.997757 0.513133
0.475647 0.999682 0.513747
0.614374 1.000000 0.514307
0.748209 1.000000 0.514793
0.872559 1.000000 0.515198
0.984127 1.000000 0.515524
1.000000 1.000000 0.515612
0.049292 0.040656 0.599060
0.173050 0.041580 0.600847
0.304526 0.042595 0.602694
0.441218 0.043685 0.604559
0.578274 0.044816 0.606372
0.710497 0.045941 0.608067
0.833350 0.047016 0.609595
0.943576 0.048006 0.610927
0.975931 0.048302 0.611311
0.050946 0.157343 0.604455
0.174892 0.158362 0.606100
0.306568 0.159477 0.607797
0.443470 0.160672 0.609505
0.580734 0.161906 0.611161
0.713159 0.163132 0.612706
0.836199 0.164301 0.614093
0.946593 0.165375 0.615299
0.978997 0.165695 0.615647
0.053333 0.281088 0.609683
0.177479 0.282206 0.611178
0.309368 0.283427 0.612716
0.446490 0.284733 0.614259
0.583975 0.286078 0.615749
0.716613 0.287410 0.617134
0.839851 0.288678 0.618373
0.950422 0.289841 0.619446
0.982878 0.290187 0.619754
0.056514 0.410249 0.614602
0.180869 0.411472 0.615941
0.312978 0.412804 0.617313
0.450330 0.414224 0.618684
0.588045 0.415684 0.620002
0.720905 0.417127 0.621220
0.844349 0.418498 0.622305
0.955105 0.419753 0.623239
0.987615 0.420126 0.623507
0.060449 0.541059 0.619030
0.185014 0.542387 0.620211
0.317346 0.543830 0.621416
0.454930 0.545366 0.622613
0.592877 0.546942 0.623756
0.725962 0.548497 0.624806
0.849613 0.549973 0.625735
0.960556 0.551321 0.626529
0.993121 0.551721 0.626756
0.064996 0.669253 0.622831
0.189765 0.670684 0.623859
0.322316 0.672236 0.624899
0.460126 0.673885 0.625926
0.598301 0.675575 0.626900
0.731604 0.677240 0.627786
0.855459 0.678817 0.628562
0.966584 0.680256 0.629220
0.999203 0.680683 0.629406
0.069934 0.790836 0.625949
0.194898 0.792363 0.626831
0.327655 0.794018 0.627717
0.465679 0.795775 0.628583
0.604069 0.797572 0.629395
0.737579 0.799340 0.630126
0.861626 0.801014 0.630758
0.972924 0.802539 0.631286
1.000000 0.802992 0.631434
0.075007 0.902611 0.628400
0.200149 0.904227 0.629148
0.333095 0.905977 0.629892
0.471316 0.907832 0.630611
0.609903 0.909728 0.631275
0.743603 0.911591 0.631863
0.867827 0.913352 0.632363
0.979283 0.914957 0.632773
1.000000 0.915433 0.632886
0.079574 0.994803 0.630123
0.204863 0.996493 0.630762
0.337965 0.998321 0.631389
0.476347 1.000000 0.631987
0.615096 1.000000 0.632529
0.748953 1.000000 0.633000
0.873322 1.000000 0.633391
0.984908 1.000000 0.633703
1.000000 1.000000 0.633788
0.049432 0.040941 0.713016
0.173209 0.041875 0.714789
0.304705 0.042900 0.716621
0.441419 0.044001 0.718470
0.578495 0.045142 0.720267
0.710739 0.046277 0.721947
0.833610 0.047362 0.723461
0.943853 0.048361 0.724780
0.976213 0.048658 0.725161
0.051145 0.157658 0.718367
0.175110 0.158686 0.719998
0.306807 0.159811 0.721679
0.443729 0.161017 0.723372
0.581014 0.162262 0.725013
0.713460 0.163498 0.726542
0.836518 0.164676 0.727915
0.946929 0.165759 0.729109
0.979338 0.166081 0.729452
0.053594 0.281434 0.723548
0.177759 0.282562 0.725029
0.309668 0.283793 0.726551
0.446811 0.285109 0.728079
0.584317 0.286464 0.729554
0.716976 0.287807 0.730923
0.840232 0.289085 0.732148
0.950821 0.290256 0.733208
0.983282 0.290604 0.733513
0.056841 0.410628 0.728419
0.181214 0.411860 0.729744
0.313344 0.413202 0.731100
0.450716 0.414632 0.732456
0.588453 0.416103 0.733758
0.721333 0.417556 0.734961
0.844795 0.418937 0.736031
0.955569 0.420201 0.736953
0.988084 0.420576 0.737217
0.060841 0.541470 0.732797
0.185425 0.542808 0.733964
0.317778 0.544261 0.735153
0.455382 0.545807 0.736335
0.593351 0.547394 0.737463
0.726455 0.548960 0.738497
0.850126 0.550444 0.739412
0.961085 0.551801 0.740194
0.993655 0.552204 0.740416
0.065452 0.669697 0.736550
0.190241 0.671137 0.737563
0.322811 0.672699 0.738589
0.460642 0.674359 0.739600
0.598838 0.676059 0.740558
0.732162 0.677734 0.741429
0.856036 0.679321 0.742191
0.967178 0.680769 0.742836
0.999801 0.681198 0.743018
0.070450 0.791309 0.739623
0.195434 0.792846 0.740490
0.328211 0.794512 0.741361
0.466256 0.796279 0.742212
0.604667 0.798087 0.743008
0.738197 0.799865 0.743723
0.862263 0.801548 0.744341
0.973578 0.803082 0.744857
1.000000 0.803537 0.745001
0.075579 0.903112 0.742032
0.200741 0.904738 0.742765
0.333707 0.906498 0.743495
0.471949 0.908364 0.744198
0.610557 0.910270 0.744846
0.744277 0.912143 0.745419
0.868520 0.913914 0.745904
0.979993 0.915527 0.746302
1.000000 0.916006 0.746411
0.080192 0.995328 0.743721
0.205500 0.997027 0.744345
0.338622 0.998865 0.744957
0.477026 1.000000 0.745539
0.615796 1.000000 0.746066
0.749672 1.000000 0.746522
0.874060 1.000000 0.746898
0.985663 1.000000 0.747198
1.000000 1.000000 0.747279
0.049568 0.041210 0.819286
0.173362 0.042153 0.821046
0.304877 0.043187 0.822863
0.441611 0.044298 0.824698
0.578706 0.045448 0.826480
0.710969 0.046593 0.828146
0.833858 0.047687 0.829647
0.944117 0.048693 0.830955
0.976481 0.048993 0.831331
0.051336 0.157954 0.824596
0.175319 0.158991 0.826213
0.307034 0.160126 0.827881
0.443976 0.161341 0.829559
0.581281 0.162596 0.831185
0.713745 0.163841 0.832699
0.836821 0.165029 0.834060
0.947248 0.166119 0.835241
0.979662 0.166444 0.835581
0.053843 0.281759 0.829733
0.178026 0.282896 0.831201
0.309954 0.284137 0.832709
0.447116 0.285462 0.834222
0.584642 0.286828 0.835682
0.717320 0.288180 0.837037
0.840594 0.289466 0.838249
0.951198 0.290645 0.839297
0.983663 0.290996 0.839598
0.057150 0.410984 0.834559
0.181541 0.412225 0.835870
0.313690 0.413576 0.837213
0.451082 0.415016 0.838553
0.588838 0.416497 0.839841
0.721737 0.417960 0.841029
0.845217 0.419349 0.842087
0.956006 0.420620 0.842997
0.988526 0.420998 0.843257
0.061212 0.541857 0.838891
0.185813 0.543203 0.840045
0.318185 0.544665 0.841220
0.455809 0.546222 0.842386
0.593797 0.547818 0.843500
0.726921 0.549393 0.844520
0.850609 0.550887 0.845421
0.961584 0.552251 0.846192
0.994159 0.552657 0.846411
0.065882 0.670113 0.842599
0.190689 0.671562 0.843599
0.323279 0.673134 0.844611
0.461129 0.674803 0.845607
0.599345 0.676513 0.846550
0.732687 0.678198 0.847407
0.856579 0.679793 0.848155
0.967736 0.681249 0.848789
1.000000 0.681681 0.848968
0.070938 0.791754 0.845629
0.195939 0.793300 0.846483
0.328735 0.794975 0.847340
0.466800 0.796751 0.848176
0.605230 0.798569 0.848958
0.738779 0.800357 0.849659
0.862863 0.802048 0.850263
0.974193 0.803590 0.850767
1.000000 0.804048 0.850908
0.076119 0.903583 0.847999
0.201298 0.905218 0.848720
0.334283 0.906987 0.849435
0.472544 0.908862 0.850123
0.611172 0.910778 0.850757
0.744911 0.912661 0.851316
0.869171 0.914441 0.851788
0.980660 0.916062 0.852173
1.000000 0.916542 0.852279
0.080774 0.995820 0.849657
0.206100 0.997528 0.850267
0.339241 0.999375 0.850865
0.477664 1.000000 0.851432
0.616453 1.000000 0.851945
0.750349 1.000000 0.852386
0.874754 1.000000 0.852749
0.986373 1.000000 0.853037
1.000000 1.000000 0.853115
0.049696 0.041456 0.915713
0.173506 0.042407 0.917460
0.305038 0.043450 0.919265
0.441789 0.044569 0.921086
0.578903 0.045729 0.922855
0.711183 0.046882 0.924508
0.834088 0.047984 0.925997
0.944361 0.048998 0.927294
0.976730 0.049300 0.927667
0.051513 0.158225 0.920985
0.175512 0.159270 0.922590
0.307245 0.160413 0.924245
0.444205 0.161638 0.925909
0.581527 0.162901 0.927522
0.714009 0.164155 0.929024
0.837101 0.165351 0.930372
0.947542 0.166448 0.931543
0.979960 0.166775 0.931880
0.054074 0.282057 0.926083
0.178273 0.283202 0.927538
0.310217 0.284451 0.929033
0.447398 0.285785 0.930533
0.584941 0.287160 0.931980
0.717636 0.288520 0.933322
0.840926 0.289815 0.934521
0.951544 0.291001 0.935559
0.984014 0.291354 0.935857
0.057436 0.411309 0.930867
0.181843 0.412558 0.932166
0.314009 0.413918 0.933496
0.451419 0.415367 0.934823
0.589192 0.416856 0.936097
0.722109 0.418328 0.937273
0.845605 0.419725 0.938318
0.956408 0.421004 0.939218
0.988932 0.421383 0.939475
0.061553 0.542210 0.935157
0.186170 0.543564 0.936299
0.318559 0.545035 0.937461
0.456201 0.546600 0.938614
0.594207 0.548206 0.939714
0.727348 0.549789 0.940722
0.851052 0.551290 0.941611
0.962041 0.552662 0.942371
0.994620 0.553070 0.942587
0.066278 0.670493 0.938825
0.191100 0.671950 0.939813
0.323707 0.673530 0.940811
0.461576 0.675209 0.941795
0.599809 0.676928 0.942724
0.733168 0.678621 0.943568
0.857076 0.680224 0.944305
0.968248 0.681687 0.944927
1.000000 0.682121 0.945103
0.071384 0.792160 0.941816
0.196401 0.793714 0.942658
0.329214 0.795397 0.943502
0.467297 0.797182 0.944325
0.605745 0.799009 0.945093
0.739312 0.800806 0.945781
0.863412 0.802505 0.946374
0.974756 0.804054 0.946867
1.000000 0.804513 0.947005
0.076612 0.904012 0.944151
0.201808 0.905655 0.944859
0.334810 0.907433 0.945562
0.473089 0.909317 0.946237
0.611734 0.911242 0.946857
0.745491 0.913133 0.947403
0.869767 0.914921 0.947863
0.981270 0.916549 0.948238
1.000000 0.917032 0.948341
0.081306 0.996268 0.945779
0.206648 0.997985 0.946378
0.339806 0.999840 0.946963
0.478247 1.000000 0.947517
0.617055 1.000000 0.948016
0.750967 1.000000 0.948444
0.875389 1.000000 0.948796
0.987022 1.000000 0.949073
1.000000 1.000000 0.949147
