LUTs/08_Portrait_Premium.cube
TITLE "Portrait Premium"
# Nikon D5500 + Sigma 17-50 - subtle creative look (apply ~20-40%)
LUT_3D_SIZE 33
DOMAIN_MIN 0.0 0.0 0.0
DOMAIN_MAX 1.0 1.0 1.0
0.000000 0.002650 0.015459
0.012023 0.002416 0.015146
0.033387 0.002157 0.014800
0.056912 0.001873 0.014418
0.082697 0.001562 0.013999
0.110814 0.001224 0.013542
0.141300 0.000858 0.013045
0.174156 0.000464 0.012509
0.209333 0.000044 0.011934
0.246731 0.000000 0.011321
0.286195 0.000000 0.010674
0.327512 0.000000 0.009995
0.370413 0.000000 0.009288
0.414579 0.000000 0.008559
0.459648 0.000000 0.007813
0.505227 0.000000 0.007057
0.550904 0.000000 0.006298
0.596263 0.000000 0.005543
0.640900 0.000000 0.004798
0.684438 0.000000 0.004070
0.726536 0.000000 0.003364
0.766900 0.000000 0.002687
0.805291 0.000000 0.002041
0.841527 0.000000 0.001430
0.875482 0.000000 0.000857
0.907085 0.000000 0.000322
0.936312 0.000000 0.000000
0.963185 0.000000 0.000000
0.987761 0.000000 0.000000
1.000000 0.000000 0.000000
1.000000 0.000000 0.000000
1.000000 0.000000 0.000000
1.000000 0.000000 0.000000
0.000000 0.020582 0.014448
0.011522 0.020349 0.014134
0.032887 0.020091 0.013787
0.056413 0.019809 0.013404
0.082200 0.019499 0.012983
0.110318 0.019162 0.012525
0.140806 0.018798 0.012026
0.173663 0.018405 0.011488
0.208842 0.017987 0.010912
0.246242 0.017543 0.010297
0.285708 0.017075 0.009648
0.327027 0.016587 0.008966
0.369930 0.016082 0.008258
0.414099 0.015564 0.007526
0.459170 0.015037 0.006778
0.504751 0.014505 0.006020
0.550430 0.013974 0.005259
0.595791 0.013448 0.004501
0.640431 0.012933 0.003754
0.683971 0.012431 0.003024
0.726071 0.011948 0.002316
0.766437 0.011486 0.001636
0.804831 0.011048 0.000988
0.841069 0.010635 0.000376
0.875025 0.010250 0.000000
0.906629 0.009892 0.000000
0.935858 0.009562 0.000000
0.962732 0.009259 0.000000
0.987310 0.008982 0.000000
1.000000 0.008731 0.000000
1.000000 0.008503 0.000000
1.000000 0.008375 0.000000
1.000000 0.008375 0.000000
0.000000 0.040343 0.013330
0.010974 0.040111 0.013015
0.032340 0.039855 0.012667
0.055868 0.039574 0.012283
0.081656 0.039266 0.011861
0.109775 0.038930 0.011400
0.140265 0.038568 0.010900
0.173124 0.038177 0.010361
0.208305 0.037761 0.009782
0.245707 0.037319 0.009165
0.285175 0.036853 0.008514
0.326496 0.036368 0.007830
0.369402 0.035865 0.007119
0.413573 0.035349 0.006385
0.458647 0.034824 0.005635
0.504231 0.034295 0.004874
0.549912 0.033767 0.004110
0.595276 0.033244 0.003350
0.639918 0.032731 0.002600
0.683461 0.032232 0.001867
0.725563 0.031751 0.001157
0.765931 0.031291 0.000475
0.804327 0.030855 0.000000
0.840567 0.030445 0.000000
0.874525 0.030061 0.000000
0.906131 0.029705 0.000000
0.935361 0.029376 0.000000
0.962237 0.029075 0.000000
0.986816 0.028800 0.000000
1.000000 0.028550 0.000000
1.000000 0.028323 0.000000
1.000000 0.028195 0.000000
1.000000 0.028195 0.000000
0.000000 0.062036 0.012099
0.010377 0.061805 0.011783
0.031743 0.061551 0.011433
0.055273 0.061270 0.011048
0.081063 0.060964 0.010624
0.109184 0.060630 0.010162
0.139675 0.060269 0.009660
0.172537 0.059881 0.009119
0.207719 0.059467 0.008538
0.245124 0.059027 0.007919
0.284595 0.058564 0.007265
0.325918 0.058081 0.006579
0.368827 0.057581 0.005865
0.413000 0.057068 0.005128
0.458077 0.056546 0.004375
0.503664 0.056020 0.003611
0.549348 0.055494 0.002845
0.594714 0.054974 0.002082
0.639360 0.054463 0.001329
0.682905 0.053967 0.000594
0.725010 0.053489 0.000000
0.765381 0.053032 0.000000
0.803779 0.052598 0.000000
0.840021 0.052190 0.000000
0.873981 0.051808 0.000000
0.905589 0.051454 0.000000
0.934821 0.051127 0.000000
0.961699 0.050827 0.000000
0.986279 0.050554 0.000000
1.000000 0.050305 0.000000
1.000000 0.050080 0.000000
1.000000 0.049953 0.000000
1.000000 0.049953 0.000000
0.000000 0.085747 0.010749
0.009729 0.085517 0.010432
0.031097 0.085264 0.010080
0.054629 0.084985 0.009693
0.080420 0.084681 0.009268
0.108543 0.084349 0.008804
0.139037 0.083990 0.008300
0.171900 0.083604 0.007756
0.207085 0.083192 0.007173
0.244492 0.082755 0.006551
0.283966 0.082295 0.005894
0.325292 0.081814 0.005206
0.368203 0.081317 0.004489
0.412380 0.080807 0.003749
0.457460 0.080288 0.002993
0.503049 0.079765 0.002226
0.548737 0.079242 0.001457
0.594106 0.078725 0.000691
0.638754 0.078218 0.000000
0.682303 0.077724 0.000000
0.724410 0.077249 0.000000
0.764784 0.076794 0.000000
0.803184 0.076363 0.000000
0.839429 0.075958 0.000000
0.873392 0.075578 0.000000
0.905002 0.075226 0.000000
0.934236 0.074901 0.000000
0.961115 0.074603 0.000000
0.985697 0.074331 0.000000
1.000000 0.074084 0.000000
1.000000 0.073860 0.000000
1.000000 0.073734 0.000000
1.000000 0.073734 0.000000
0.000000 0.111541 0.009274
0.009031 0.111313 0.008955
0.030401 0.111061 0.008602
0.053934 0.110785 0.008213
0.079727 0.110482 0.007786
0.107852 0.110152 0.007320
0.138348 0.109795 0.006814
0.171214 0.109412 0.006267
0.206402 0.109002 0.005682
0.243812 0.108568 0.005058
0.283288 0.108111 0.004398
0.324617 0.107633 0.003706
0.367532 0.107139 0.002986
0.411711 0.106632 0.002243
0.456795 0.106117 0.001484
0.502387 0.105597 0.000714
0.548078 0.105078 0.000000
0.593451 0.104564 0.000000
0.638103 0.104060 0.000000
0.681654 0.103569 0.000000
0.723765 0.103097 0.000000
0.764141 0.102646 0.000000
0.802545 0.102217 0.000000
0.838792 0.101814 0.000000
0.872757 0.101438 0.000000
0.904369 0.101088 0.000000
0.933605 0.100765 0.000000
0.960487 0.100469 0.000000
0.985071 0.100199 0.000000
1.000000 0.099953 0.000000
1.000000 0.099731 0.000000
1.000000 0.099605 0.000000
1.000000 0.099605 0.000000
0.000000 0.139460 0.007670
0.008284 0.139234 0.007350
0.029655 0.138984 0.006995
0.053190 0.138709 0.006604
0.078985 0.138408 0.006175
0.107112 0.138080 0.005707
0.137611 0.137726 0.005198
0.170479 0.137345 0.004649
0.205670 0.136938 0.004061
0.243082 0.136507 0.003434
0.282562 0.136053 0.002771
0.323895 0.135579 0.002076
0.366812 0.135088 0.001352
0.410996 0.134585 0.000606
0.456082 0.134073 0.000000
0.501679 0.133556 0.000000
0.547373 0.133041 0.000000
0.592750 0.132530 0.000000
0.637405 0.132030 0.000000
0.680959 0.131543 0.000000
0.723073 0.131074 0.000000
0.763453 0.130626 0.000000
0.801860 0.130201 0.000000
0.838110 0.129800 0.000000
0.872078 0.129426 0.000000
0.903692 0.129079 0.000000
0.932931 0.128759 0.000000
0.959814 0.128465 0.000000
0.984400 0.128196 0.000000
1.000000 0.127953 0.000000
1.000000 0.127732 0.000000
1.000000 0.127607 0.000000
1.000000 0.127607 0.000000
0.000000 0.169512 0.005936
0.007487 0.169287 0.005614
0.028861 0.169039 0.005258
0.052397 0.168766 0.004865
0.078195 0.168467 0.004434
0.106325 0.168142 0.003963
0.136826 0.167790 0.003452
0.169697 0.167412 0.002900
0.204890 0.167008 0.002308
0.242306 0.166580 0.001678
0.281789 0.166130 0.001012
0.323125 0.165659 0.000313
0.366047 0.165172 0.000000
0.410234 0.164672 0.000000
0.455324 0.164164 0.000000
0.500925 0.163652 0.000000
0.546623 0.163140 0.000000
0.592003 0.162634 0.000000
0.636662 0.162137 0.000000
0.680221 0.161654 0.000000
0.722338 0.161189 0.000000
0.762722 0.160744 0.000000
0.801131 0.160322 0.000000
0.837385 0.159925 0.000000
0.871356 0.159553 0.000000
0.902973 0.159209 0.000000
0.932214 0.158891 0.000000
0.959099 0.158599 0.000000
0.983687 0.158333 0.000000
1.000000 0.158091 0.000000
1.000000 0.157872 0.000000
1.000000 0.157749 0.000000
1.000000 0.157749 0.000000
0.000000 0.201668 0.004071
0.006646 0.201445 0.003747
0.028021 0.201198 0.003389
0.051560 0.200927 0.002994
0.077360 0.200631 0.002560
0.105492 0.200309 0.002087
0.135996 0.199960 0.001573
0.168870 0.199585 0.001018
0.204067 0.199184 0.000423
0.241486 0.198759 0.000000
0.280972 0.198312 0.000000
0.322312 0.197846 0.000000
0.365238 0.197362 0.000000
0.409429 0.196867 0.000000
0.454524 0.196363 0.000000
0.500128 0.195854 0.000000
0.545830 0.195347 0.000000
0.591215 0.194845 0.000000
0.635878 0.194352 0.000000
0.679440 0.193873 0.000000
0.721562 0.193411 0.000000
0.761949 0.192970 0.000000
0.800362 0.192552 0.000000
0.836618 0.192158 0.000000
0.870593 0.191790 0.000000
0.902213 0.191448 0.000000
0.931456 0.191133 0.000000
0.958344 0.190844 0.000000
0.982935 0.190580 0.000000
1.000000 0.190340 0.000000
1.000000 0.190123 0.000000
1.000000 0.190000 0.000000
1.000000 0.190000 0.000000
0.000000 0.235857 0.002078
0.005762 0.235636 0.001752
0.027140 0.235391 0.001392
0.050681 0.235123 0.000994
0.076483 0.234829 0.000558
0.104618 0.234509 0.000082
0.135125 0.234163 0.000000
0.168002 0.233791 0.000000
0.203202 0.233394 0.000000
0.240625 0.232973 0.000000
0.280115 0.232530 0.000000
0.321460 0.232067 0.000000
0.364389 0.231588 0.000000
0.408584 0.231097 0.000000
0.453683 0.230597 0.000000
0.499292 0.230093 0.000000
0.544999 0.229590 0.000000
0.590388 0.229092 0.000000
0.635055 0.228604 0.000000
0.678622 0.228129 0.000000
0.720748 0.227672 0.000000
0.761139 0.227234 0.000000
0.799555 0.226820 0.000000
0.835815 0.226429 0.000000
0.869793 0.226064 0.000000
0.901416 0.225726 0.000000
0.930662 0.225413 0.000000
0.957553 0.225127 0.000000
0.982146 0.224865 0.000000
1.000000 0.224627 0.000000
1.000000 0.224413 0.000000
1.000000 0.224291 0.000000
1.000000 0.224291 0.000000
0.000000 0.271963 0.000000
0.004842 0.271743 0.000000
0.026221 0.271501 0.000000
0.049765 0.271235 0.000000
0.075570 0.270944 0.000000
0.103708 0.270627 0.000000
0.134218 0.270284 0.000000
0.167098 0.269916 0.000000
0.202302 0.269522 0.000000
0.239729 0.269105 0.000000
0.279223 0.268666 0.000000
0.320572 0.268207 0.000000
0.363506 0.267733 0.000000
0.407705 0.267246 0.000000
0.452809 0.266751 0.000000
0.498423 0.266252 0.000000
0.544134 0.265753 0.000000
0.589528 0.265260 0.000000
0.634200 0.264776 0.000000
0.677771 0.264306 0.000000
0.719900 0.263853 0.000000
0.760296 0.263419 0.000000
0.798716 0.263009 0.000000
0.834980 0.262622 0.000000
0.868961 0.262261 0.000000
0.900587 0.261925 0.000000
0.929837 0.261616 0.000000
0.956730 0.261332 0.000000
0.981325 0.261073 0.000000
1.000000 0.260838 0.000000
1.000000 0.260625 0.000000
1.000000 0.260504 0.000000
1.000000 0.260504 0.000000
0.000000 0.309822 0.000000
0.003891 0.309605 0.000000
0.025273 0.309365 0.000000
0.048819 0.309101 0.000000
0.074627 0.308813 0.000000
0.102768 0.308499 0.000000
0.133281 0.308159 0.000000
0.166165 0.307794 0.000000
0.201373 0.307405 0.000000
0.238804 0.306991 0.000000
0.278302 0.306556 0.000000
0.319655 0.306102 0.000000
0.362593 0.305632 0.000000
0.406798 0.305150 0.000000
0.451906 0.304660 0.000000
0.497525 0.304166 0.000000
0.543241 0.303672 0.000000
0.588640 0.303184 0.000000
0.633316 0.302705 0.000000
0.676892 0.302239 0.000000
0.719026 0.301790 0.000000
0.759426 0.301362 0.000000
0.797851 0.300955 0.000000
0.834118 0.300572 0.000000
0.868103 0.300215 0.000000
0.899733 0.299883 0.000000
0.928985 0.299576 0.000000
0.955882 0.299295 0.000000
0.980479 0.299039 0.000000
1.000000 0.298806 0.000000
1.000000 0.298595 0.000000
1.000000 0.298476 0.000000
1.000000 0.298476 0.000000
0.000000 0.349223 0.000000
0.002917 0.349008 0.000000
0.024301 0.348771 0.000000
0.047850 0.348510 0.000000
0.073661 0.348224 0.000000
0.101805 0.347914 0.000000
0.132321 0.347577 0.000000
0.165209 0.347216 0.000000
0.200420 0.346830 0.000000
0.237856 0.346421 0.000000
0.277358 0.345990 0.000000
0.318716 0.345541 0.000000
0.361659 0.345076 0.000000
0.405869 0.344599 0.000000
0.450982 0.344113 0.000000
0.496606 0.343624 0.000000
0.542327 0.343136 0.000000
0.587731 0.342652 0.000000
0.632412 0.342178 0.000000
0.675993 0.341718 0.000000
0.718132 0.341274 0.000000
0.758536 0.340849 0.000000
0.796965 0.340447 0.000000
0.833237 0.340068 0.000000
0.867225 0.339714 0.000000
0.898858 0.339386 0.000000
0.928114 0.339083 0.000000
0.955014 0.338805 0.000000
0.979614 0.338551 0.000000
1.000000 0.338321 0.000000
1.000000 0.338112 0.000000
1.000000 0.337994 0.000000
1.000000 0.337994 0.000000
0.000000 0.389911 0.000000
0.001927 0.389699 0.000000
0.023314 0.389464 0.000000
0.046866 0.389205 0.000000
0.072679 0.388923 0.000000
0.100826 0.388615 0.000000
0.131346 0.388283 0.000000
0.164238 0.387925 0.000000
0.199454 0.387543 0.000000
0.236893 0.387138 0.000000
0.276400 0.386713 0.000000
0.317763 0.386268 0.000000
0.360711 0.385808 0.000000
0.404925 0.385336 0.000000
0.450044 0.384855 0.000000
0.495673 0.384372 0.000000
0.541400 0.383888 0.000000
0.586809 0.383410 0.000000
0.631495 0.382941 0.000000
0.675081 0.382486 0.000000
0.717225 0.382047 0.000000
0.757633 0.381627 0.000000
0.796067 0.381229 0.000000
0.832343 0.380854 0.000000
0.866335 0.380504 0.000000
0.897972 0.380180 0.000000
0.927231 0.379880 0.000000
0.954134 0.379605 0.000000
0.978737 0.379354 0.000000
1.000000 0.379126 0.000000
1.000000 0.378920 0.000000
1.000000 0.378804 0.000000
1.000000 0.378804 0.000000
0.000000 0.431592 0.000000
0.000931 0.431382 0.000000
0.022320 0.431149 0.000000
0.045874 0.430894 0.000000
0.071691 0.430614 0.000000
0.099842 0.430310 0.000000
0.130365 0.429981 0.000000
0.163261 0.429628 0.000000
0.198480 0.429250 0.000000
0.235924 0.428849 0.000000
0.275436 0.428428 0.000000
0.316803 0.427988 0.000000
0.359757 0.427533 0.000000
0.403976 0.427066 0.000000
0.449100 0.426591 0.000000
0.494735 0.426113 0.000000
0.540467 0.425635 0.000000
0.585881 0.425162 0.000000
0.630573 0.424699 0.000000
0.674164 0.424248 0.000000
0.716313 0.423814 0.000000
0.756726 0.423399 0.000000
0.795164 0.423006 0.000000
0.831444 0.422635 0.000000
0.865440 0.422290 0.000000
0.897081 0.421968 0.000000
0.926344 0.421672 0.000000
0.953249 0.421400 0.000000
0.977856 0.421152 0.000000
1.000000 0.420927 0.000000
1.000000 0.420723 0.000000
1.000000 0.420608 0.000000
1.000000 0.420608 0.000000
0.000000 0.473940 0.000000
0.000000 0.473731 0.000000
0.021328 0.473502 0.000000
0.044885 0.473249 0.000000
0.070705 0.472973 0.000000
0.098859 0.472672 0.000000
0.129386 0.472346 0.000000
0.162286 0.471997 0.000000
0.197510 0.471623 0.000000
0.234958 0.471227 0.000000
0.274475 0.470811 0.000000
0.315847 0.470376 0.000000
0.358805 0.469926 0.000000
0.403030 0.469464 0.000000
0.448160 0.468995 0.000000
0.493799 0.468522 0.000000
0.539537 0.468049 0.000000
0.584956 0.467582 0.000000
0.629654 0.467124 0.000000
0.673250 0.466678 0.000000
0.715404 0.466249 0.000000
0.755822 0.465839 0.000000
0.794265 0.465450 0.000000
0.830549 0.465085 0.000000
0.864549 0.464743 0.000000
0.896194 0.464425 0.000000
0.925460 0.464133 0.000000
0.952369 0.463864 0.000000
0.976978 0.463619 0.000000
0.999373 0.463396 0.000000
1.000000 0.463195 0.000000
1.000000 0.463081 0.000000
1.000000 0.463081 0.000000
0.000000 0.516606 0.000000
0.000000 0.516400 0.000000
0.020347 0.516173 0.000000
0.043907 0.515923 0.000000
0.069730 0.515650 0.000000
0.097887 0.515352 0.000000
0.128418 0.515031 0.000000
0.161321 0.514685 0.000000
0.196549 0.514315 0.000000
0.234002 0.513924 0.000000
0.273524 0.513512 0.000000
0.314901 0.513082 0.000000
0.357864 0.512638 0.000000
0.402095 0.512181 0.000000
0.447230 0.511717 0.000000
0.492875 0.511250 0.000000
0.538618 0.510783 0.000000
0.584043 0.510321 0.000000
0.628746 0.509868 0.000000
0.672347 0.509428 0.000000
0.714506 0.509004 0.000000
0.754929 0.508599 0.000000
0.793376 0.508215 0.000000
0.829665 0.507853 0.000000
0.863670 0.507515 0.000000
0.895318 0.507202 0.000000
0.924588 0.506913 0.000000
0.951500 0.506647 0.000000
0.976112 0.506405 0.000000
0.998510 0.506185 0.000000
1.000000 0.505986 0.000000
1.000000 0.505874 0.000000
1.000000 0.505874 0.000000
0.000000 0.559232 0.000000
0.000000 0.559029 0.000000
0.019385 0.558804 0.000000
0.042947 0.558557 0.000000
0.068773 0.558287 0.000000
0.096934 0.557993 0.000000
0.127469 0.557675 0.000000
0.160376 0.557333 0.000000
0.195609 0.556968 0.000000
0.233066 0.556581 0.000000
0.272592 0.556174 0.000000
0.313974 0.555749 0.000000
0.356943 0.555309 0.000000
0.401179 0.554858 0.000000
0.446319 0.554400 0.000000
0.491970 0.553938 0.000000
0.537718 0.553476 0.000000
0.583149 0.553020 0.000000
0.627857 0.552573 0.000000
0.671463 0.552138 0.000000
0.713627 0.551719 0.000000
0.754055 0.551318 0.000000
0.792507 0.550939 0.000000
0.828801 0.550582 0.000000
0.862809 0.550248 0.000000
0.894461 0.549938 0.000000
0.923734 0.549653 0.000000
0.950650 0.549391 0.000000
0.975265 0.549151 0.000000
0.997665 0.548934 0.000000
1.000000 0.548738 0.000000
1.000000 0.548627 0.000000
1.000000 0.548627 0.000000
0.000000 0.601461 0.000000
0.000000 0.601260 0.000000
0.018449 0.601038 0.000000
0.042015 0.600794 0.000000
0.067844 0.600527 0.000000
0.096008 0.600236 0.000000
0.126546 0.599922 0.000000
0.159458 0.599584 0.000000
0.194694 0.599223 0.000000
0.232156 0.598841 0.000000
0.271687 0.598438 0.000000
0.313074 0.598018 0.000000
0.356048 0.597584 0.000000
0.400289 0.597138 0.000000
0.445435 0.596685 0.000000
0.491091 0.596228 0.000000
0.536845 0.595773 0.000000
0.582281 0.595322 0.000000
0.626994 0.594879 0.000000
0.670606 0.594450 0.000000
0.712775 0.594036 0.000000
0.753208 0.593640 0.000000
0.791664 0.593265 0.000000
0.827962 0.592912 0.000000
0.861974 0.592583 0.000000
0.893630 0.592277 0.000000
0.922907 0.591995 0.000000
0.949825 0.591736 0.000000
0.974443 0.591500 0.000000
0.996847 0.591285 0.000000
1.000000 0.591091 0.000000
1.000000 0.590981 0.000000
1.000000 0.590981 0.000000
0.000000 0.642950 0.000000
0.000000 0.642751 0.000000
0.017548 0.642531 0.000000
0.041116 0.642290 0.000000
0.066948 0.642026 0.000000
0.095116 0.641739 0.000000
0.125657 0.641428 0.000000
0.158573 0.641094 0.000000
0.193813 0.640737 0.000000
0.231279 0.640359 0.000000
0.270815 0.639961 0.000000
0.312207 0.639546 0.000000
0.355186 0.639117 0.000000
0.399432 0.638676 0.000000
0.444583 0.638228 0.000000
0.490244 0.637777 0.000000
0.536004 0.637327 0.000000
0.581445 0.636881 0.000000
0.626164 0.636444 0.000000
0.669781 0.636019 0.000000
0.711955 0.635610 0.000000
0.752392 0.635220 0.000000
0.790853 0.634849 0.000000
0.827155 0.634500 0.000000
0.861171 0.634175 0.000000
0.892831 0.633873 0.000000
0.922111 0.633594 0.000000
0.949033 0.633338 0.000000
0.973654 0.633105 0.000000
0.996060 0.632893 0.000000
1.000000 0.632701 0.000000
1.000000 0.632593 0.000000
1.000000 0.632593 0.000000
0.000000 0.683378 0.000000
0.000000 0.683181 0.000000
0.016686 0.682964 0.000000
0.040257 0.682725 0.000000
0.066092 0.682464 0.000000
0.094262 0.682180 0.000000
0.124808 0.681873 0.000000
0.157727 0.681542 0.000000
0.192971 0.681190 0.000000
0.230442 0.680816 0.000000
0.269982 0.680423 0.000000
0.311378 0.680012 0.000000
0.354362 0.679588 0.000000
0.398614 0.679152 0.000000
0.443770 0.678710 0.000000
0.489436 0.678263 0.000000
0.535201 0.677818 0.000000
0.580647 0.677378 0.000000
0.625371 0.676946 0.000000
0.668993 0.676526 0.000000
0.711172 0.676122 0.000000
0.751614 0.675736 0.000000
0.790079 0.675370 0.000000
0.826385 0.675025 0.000000
0.860405 0.674704 0.000000
0.892069 0.674405 0.000000
0.921352 0.674130 0.000000
0.948277 0.673877 0.000000
0.972901 0.673646 0.000000
0.995309 0.673437 0.000000
1.000000 0.673248 0.000000
1.000000 0.673141 0.000000
1.000000 0.673141 0.000000
0.000000 0.722459 0.000000
0.000000 0.722264 0.000000
0.015868 0.722049 0.000000
0.039442 0.721813 0.000000
0.065279 0.721555 0.000000
0.093453 0.721274 0.000000
0.124002 0.720970 0.000000
0.156925 0.720643 0.000000
0.192173 0.720295 0.000000
0.229648 0.719925 0.000000
0.269192 0.719536 0.000000
0.310593 0.719130 0.000000
0.353582 0.718710 0.000000
0.397838 0.718280 0.000000
0.442999 0.717842 0.000000
0.488671 0.717401 0.000000
0.534440 0.716961 0.000000
0.579892 0.716525 0.000000
0.624620 0.716098 0.000000
0.668247 0.715684 0.000000
0.710430 0.715284 0.000000
0.750877 0.714902 0.000000
0.789347 0.714540 0.000000
0.825657 0.714200 0.000000
0.859681 0.713882 0.000000
0.891347 0.713587 0.000000
0.920634 0.713315 0.000000
0.947562 0.713065 0.000000
0.972188 0.712837 0.000000
0.994599 0.712630 0.000000
1.000000 0.712443 0.000000
1.000000 0.712337 0.000000
1.000000 0.712337 0.000000
0.000000 0.759947 0.000000
0.000000 0.759754 0.000000
0.015098 0.759542 0.000000
0.038674 0.759308 0.000000
0.064515 0.759053 0.000000
0.092691 0.758775 0.000000
0.123243 0.758474 0.000000
0.156169 0.758151 0.000000
0.191422 0.757806 0.000000
0.228900 0.757440 0.000000
0.268449 0.757055 0.000000
0.309854 0.756654 0.000000
0.352847 0.756238 0.000000
0.397108 0.755812 0.000000
0.442274 0.755379 0.000000
0.487950 0.754943 0.000000
0.533725 0.754508 0.000000
0.579181 0.754077 0.000000
0.623914 0.753655 0.000000
0.667546 0.753245 0.000000
0.709734 0.752850 0.000000
0.750184 0.752472 0.000000
0.788658 0.752114 0.000000
0.824972 0.751778 0.000000
0.859000 0.751463 0.000000
0.890669 0.751172 0.000000
0.919959 0.750902 0.000000
0.946890 0.750656 0.000000
0.971519 0.750430 0.000000
0.993932 0.750226 0.000000
1.000000 0.750041 0.000000
1.000000 0.749936 0.000000
1.000000 0.749936 0.000000
0.000000 0.795642 0.000000
0.000000 0.795451 0.000000
0.014378 0.795241 0.000000
0.037956 0.795009 0.000000
0.063799 0.794756 0.000000
0.091979 0.794481 0.000000
0.122534 0.794184 0.000000
0.155463 0.793864 0.000000
0.190719 0.793522 0.000000
0.228201 0.793160 0.000000
0.267754 0.792779 0.000000
0.309163 0.792382 0.000000
0.352161 0.791971 0.000000
0.396426 0.791550 0.000000
0.441596 0.791121 0.000000
0.487278 0.790690 0.000000
0.533057 0.790259 0.000000
0.578517 0.789833 0.000000
0.623255 0.789415 0.000000
0.666891 0.789009 0.000000
0.709083 0.788618 0.000000
0.749538 0.788245 0.000000
0.788015 0.787891 0.000000
0.824333 0.787558 0.000000
0.858364 0.787247 0.000000
0.890037 0.786958 0.000000
0.919330 0.786692 0.000000
0.946263 0.786448 0.000000
0.970895 0.786225 0.000000
0.993310 0.786023 0.000000
1.000000 0.785840 0.000000
1.000000 0.785737 0.000000
1.000000 0.785737 0.000000
0.000000 0.829390 0.000000
0.000000 0.829201 0.000000
0.013708 0.828992 0.000000
0.037289 0.828763 0.000000
0.063134 0.828513 0.000000
0.091317 0.828240 0.000000
0.121875 0.827946 0.000000
0.154807 0.827629 0.000000
0.190066 0.827291 0.000000
0.227552 0.826932 0.000000
0.267108 0.826555 0.000000
0.308522 0.826162 0.000000
0.351523 0.825755 0.000000
0.395793 0.825338 0.000000
0.440968 0.824914 0.000000
0.486653 0.824486 0.000000
0.532436 0.824060 0.000000
0.577902 0.823638 0.000000
0.622644 0.823225 0.000000
0.666283 0.822823 0.000000
0.708480 0.822436 0.000000
0.748938 0.822066 0.000000
0.787420 0.821716 0.000000
0.823740 0.821387 0.000000
0.857775 0.821079 0.000000
0.889451 0.820793 0.000000
0.918746 0.820530 0.000000
0.945682 0.820288 0.000000
0.970316 0.820068 0.000000
0.992734 0.819868 0.000000
1.000000 0.819687 0.000000
1.000000 0.819584 0.000000
1.000000 0.819584 0.000000
0.000000 0.861085 0.000000
0.000000 0.860898 0.000000
0.013090 0.860691 0.000000
0.036673 0.860464 0.000000
0.062520 0.860216 0.000000
0.090705 0.859946 0.000000
0.121266 0.859654 0.000000
0.154201 0.859340 0.000000
0.189464 0.859005 0.000000
0.226953 0.858650 0.000000
0.266513 0.858277 0.000000
0.307930 0.857887 0.000000
0.350935 0.857484 0.000000
0.395209 0.857071 0.000000
0.440387 0.856651 0.000000
0.486077 0.856227 0.000000
0.531864 0.855805 0.000000
0.577334 0.855387 0.000000
0.622080 0.854978 0.000000
0.665723 0.854580 0.000000
0.707923 0.854197 0.000000
0.748385 0.853831 0.000000
0.786870 0.853484 0.000000
0.823194 0.853158 0.000000
0.857232 0.852853 0.000000
0.888910 0.852570 0.000000
0.918209 0.852309 0.000000
0.945147 0.852070 0.000000
0.969783 0.851852 0.000000
0.992203 0.851654 0.000000
1.000000 0.851475 0.000000
1.000000 0.851373 0.000000
1.000000 0.851373 0.000000
0.000000 0.890666 0.000000
0.000000 0.890481 0.000000
0.012522 0.890276 0.000000
0.036106 0.890051 0.000000
0.061956 0.889805 0.000000
0.090143 0.889538 0.000000
0.120707 0.889248 0.000000
0.153645 0.888937 0.000000
0.188910 0.888605 0.000000
0.226402 0.888253 0.000000
0.265966 0.887883 0.000000
0.307386 0.887497 0.000000
0.350395 0.887097 0.000000
0.394672 0.886687 0.000000
0.439855 0.886271 0.000000
0.485548 0.885852 0.000000
0.531339 0.885433 0.000000
0.576812 0.885019 0.000000
0.621562 0.884613 0.000000
0.665209 0.884219 0.000000
0.707413 0.883840 0.000000
0.747878 0.883477 0.000000
0.786366 0.883133 0.000000
0.822693 0.882810 0.000000
0.856734 0.882508 0.000000
