LUTs/08_Portrait_Premium.cube
TITLE "Portrait Premium"
# Nikon D5500 + Sigma 17-50 - subtle creative look (apply ~20-40%)
LUT_3D_SIZE 9
DOMAIN_MIN 0.0 0.0 0.0
DOMAIN_MAX 1.0 1.0 1.0
0.000000 0.002650 0.015459
0.082697 0.001562 0.013999
0.209333 0.000044 0.011934
0.370413 0.000000 0.009288
0.550904 0.000000 0.006298
0.726536 0.000000 0.003364
0.875482 0.000000 0.000857
0.987761 0.000000 0.000000
1.000000 0.000000 0.000000
0.000000 0.085747 0.010749
0.080420 0.084681 0.009268
0.207085 0.083192 0.007173
0.368203 0.081317 0.004489
0.548737 0.079242 0.001457
0.724410 0.077249 0.000000
0.873392 0.075578 0.000000
0.985697 0.074331 0.000000
1.000000 0.073734 0.000000
0.000000 0.201668 0.004071
0.077360 0.200631 0.002560
0.204067 0.199184 0.000423
0.365238 0.197362 0.000000
0.545830 0.195347 0.000000
0.721562 0.193411 0.000000
0.870593 0.191790 0.000000
0.982935 0.190580 0.000000
1.000000 0.190000 0.000000
0.000000 0.349223 0.000000
0.073661 0.348224 0.000000
0.200420 0.346830 0.000000
0.361659 0.345076 0.000000
0.542327 0.343136 0.000000
0.718132 0.341274 0.000000
0.867225 0.339714 0.000000
0.979614 0.338551 0.000000
1.000000 0.337994 0.000000
0.000000 0.516606 0.000000
0.069730 0.515650 0.000000
0.196549 0.514315 0.000000
0.357864 0.512638 0.000000
0.538618 0.510783 0.000000
0.714506 0.509004 0.000000
0.863670 0.507515 0.000000
0.976112 0.506405 0.000000
1.000000 0.505874 0.000000
0.000000 0.683378 0.000000
0.066092 0.682464 0.000000
0.192971 0.681190 0.000000
0.354362 0.679588 0.000000
0.535201 0.677818 0.000000
0.711172 0.676122 0.000000
0.860405 0.674704 0.000000
0.972901 0.673646 0.000000
1.000000 0.673141 0.000000
0.000000 0.829390 0.000000
0.063134 0.828513 0.000000
0.190066 0.827291 0.000000
0.351523 0.825755 0.000000
0.532436 0.824060 0.000000
0.708480 0.822436 0.000000
0.857775 0.821079 0.000000
0.970316 0.820068 0.000000
1.000000 0.819584 0.000000
0.000000 0.943443 0.000000
0.060972 0.942595 0.000000
0.187944 0.941414 0.000000
0.349453 0.939930 0.000000
0.530424 0.938293 0.000000
0.706524 0.936725 0.000000
0.855867 0.935416 0.000000
0.968444 0.934441 0.000000
1.000000 0.933975 0.000000
0.000000 1.000000 0.000000
0.059554 1.000000 0.000000
0.186554 1.000000 0.000000
0.348099 1.000000 0.000000
0.529110 1.000000 0.000000
0.705249 1.000000 0.000000
0.854625 1.000000 0.000000
0.967227 1.000000 0.000000
1.000000 1.000000 0.000000
0.000000 0.002304 0.099726
0.082469 0.001219 0.098264
0.209108 0.000000 0.096196
0.370192 0.000000 0.093546
0.550686 0.000000 0.090553
0.726323 0.000000 0.087615
0.875273 0.000000 0.085103
0.987554 0.000000 0.083199
1.000000 0.000000 0.082277
0.000000 0.085408 0.095010
0.080199 0.084344 0.093526
0.206867 0.082858 0.091428
0.367989 0.080987 0.088740
0.548526 0.078916 0.085704
0.724204 0.076927 0.082725
0.873189 0.075260 0.080178
0.985497 0.074016 0.078247
1.000000 0.073420 0.077313
0.000000 0.201338 0.088322
0.077148 0.200304 0.086809
0.203858 0.198860 0.084670
0.365033 0.197042 0.081929
0.545629 0.195030 0.078833
0.721365 0.193099 0.075796
0.870399 0.191481 0.073201
0.982744 0.190273 0.071233
1.000000 0.189695 0.070281
0.000000 0.348905 0.079630
0.073461 0.347909 0.078080
0.200223 0.346518 0.075887
0.361466 0.344767 0.073079
0.542138 0.342831 0.069908
0.717947 0.340973 0.066797
0.867044 0.339417 0.064139
0.979435 0.338257 0.062124
1.000000 0.337701 0.061149
0.000000 0.516302 0.069526
0.069543 0.515348 0.067933
0.196366 0.514016 0.065680
0.357685 0.512342 0.062796
0.538442 0.510492 0.059539
0.714335 0.508717 0.056345
0.863502 0.507232 0.053617
0.975946 0.506124 0.051549
1.000000 0.505594 0.050549
0.000000 0.683087 0.059203
0.065919 0.682176 0.057568
0.192801 0.680904 0.055255
0.354196 0.679306 0.052295
0.535039 0.677541 0.048953
0.711014 0.675849 0.045677
0.860251 0.674434 0.042878
0.972749 0.673379 0.040757
1.000000 0.672875 0.039731
0.000000 0.829111 0.049957
0.062973 0.828236 0.048284
0.189908 0.827017 0.045919
0.351369 0.825485 0.042893
0.532286 0.823794 0.039477
0.708333 0.822174 0.036127
0.857632 0.820821 0.033268
0.970176 0.819812 0.031101
1.000000 0.819330 0.030052
0.000000 0.943174 0.042599
0.060819 0.942328 0.040897
0.187795 0.941149 0.038492
0.349308 0.939669 0.035413
0.530283 0.938036 0.031939
0.706387 0.936473 0.028534
0.855733 0.935167 0.025626
0.968313 0.934195 0.023423
1.000000 0.933730 0.022357
0.000000 1.000000 0.037451
0.059408 1.000000 0.035730
0.186412 1.000000 0.033296
0.347960 1.000000 0.030182
0.528975 1.000000 0.026668
0.705118 1.000000 0.023224
0.854497 1.000000 0.020283
0.967102 1.000000 0.018055
1.000000 1.000000 0.016978
0.000000 0.001828 0.215939
0.082156 0.000746 0.214474
0.208798 0.000000 0.212402
0.369887 0.000000 0.209747
0.550388 0.000000 0.206748
0.726030 0.000000 0.203804
0.874985 0.000000 0.201288
0.987270 0.000000 0.199380
1.000000 0.000000 0.198457
0.000000 0.084941 0.211213
0.079894 0.083880 0.209727
0.206567 0.082399 0.207625
0.367694 0.080533 0.204932
0.548237 0.078468 0.201890
0.723920 0.076484 0.198905
0.872910 0.074822 0.196354
0.985222 0.073581 0.194419
1.000000 0.072987 0.193483
0.000000 0.200885 0.204513
0.076856 0.199853 0.202997
0.203570 0.198413 0.200853
0.364751 0.196601 0.198108
0.545353 0.194595 0.195006
0.721094 0.192669 0.191963
0.870133 0.191056 0.189363
0.982482 0.189852 0.187391
1.000000 0.189276 0.186438
0.000000 0.348469 0.195804
0.073186 0.347475 0.194251
0.199953 0.346088 0.192054
0.361200 0.344342 0.189241
0.541878 0.342412 0.186064
0.717693 0.340560 0.182947
0.866794 0.339009 0.180285
0.979190 0.337852 0.178266
1.000000 0.337298 0.177290
0.000000 0.515884 0.185682
0.069287 0.514932 0.184086
0.196114 0.513605 0.181829
0.357438 0.511936 0.178940
0.538201 0.510092 0.175677
0.714099 0.508323 0.172477
0.863271 0.506842 0.169745
0.975719 0.505738 0.167673
1.000000 0.505210 0.166671
0.000000 0.682688 0.175341
0.065681 0.681779 0.173702
0.192568 0.680512 0.171385
0.353968 0.678919 0.168420
0.534816 0.677159 0.165073
0.710797 0.675473 0.161790
0.860039 0.674062 0.158987
0.972540 0.673011 0.156862
1.000000 0.672509 0.155835
0.000000 0.828727 0.166078
0.062752 0.827856 0.164402
0.189691 0.826641 0.162033
0.351157 0.825114 0.159001
0.532080 0.823429 0.155580
0.708133 0.821815 0.152225
0.857436 0.820466 0.149360
0.969984 0.819461 0.147189
1.000000 0.818981 0.146140
0.000000 0.942803 0.158707
0.060611 0.941960 0.157002
0.187590 0.940786 0.154593
0.349108 0.939311 0.151509
0.530089 0.937684 0.148029
0.706199 0.936126 0.144618
0.855550 0.934825 0.141706
0.968133 0.933856 0.139499
1.000000 0.933393 0.138432
0.000000 1.000000 0.153551
0.059208 1.000000 0.151827
0.186216 1.000000 0.149389
0.347769 1.000000 0.146270
0.528790 1.000000 0.142750
0.704939 1.000000 0.139300
0.854323 1.000000 0.136354
0.966931 1.000000 0.134123
1.000000 1.000000 0.133043
0.000000 0.001229 0.362945
0.081761 0.000150 0.361476
0.208409 0.000000 0.359399
0.369504 0.000000 0.356738
0.550012 0.000000 0.353731
0.725661 0.000000 0.350780
0.874622 0.000000 0.348258
0.986912 0.000000 0.346345
1.000000 0.000000 0.345420
0.000000 0.084353 0.358207
0.079511 0.083296 0.356717
0.206189 0.081819 0.354610
0.367323 0.079960 0.351911
0.547873 0.077903 0.348861
0.723564 0.075926 0.345869
0.872560 0.074270 0.343312
0.984876 0.073034 0.341372
1.000000 0.072442 0.340434
0.000000 0.200313 0.351491
0.076490 0.199286 0.349971
0.203209 0.197851 0.347822
0.364396 0.196044 0.345070
0.545006 0.194046 0.341961
0.720754 0.192128 0.338911
0.869799 0.190520 0.336305
0.982152 0.189321 0.334329
1.000000 0.188747 0.333373
0.000000 0.347918 0.342761
0.072840 0.346928 0.341204
0.199612 0.345546 0.339002
0.360866 0.343807 0.336182
0.541552 0.341884 0.332998
0.717373 0.340039 0.329874
0.866481 0.338494 0.327206
0.978881 0.337342 0.325183
1.000000 0.336790 0.324204
0.000000 0.515356 0.332615
0.068965 0.514409 0.331015
0.195797 0.513087 0.328753
0.357127 0.511425 0.325857
0.537898 0.509587 0.322588
0.713803 0.507825 0.319381
0.862981 0.506351 0.316642
0.975434 0.505252 0.314565
1.000000 0.504726 0.313561
0.000000 0.682184 0.322250
0.065383 0.681279 0.320608
0.192274 0.680017 0.318286
0.353681 0.678430 0.315314
0.534537 0.676678 0.311959
0.710524 0.674999 0.308670
0.859773 0.673595 0.305861
0.972278 0.672548 0.303731
1.000000 0.672048 0.302702
0.000000 0.828244 0.312967
0.062474 0.827376 0.311287
0.189418 0.826166 0.308913
0.350890 0.824646 0.305875
0.531821 0.822968 0.302446
0.707881 0.821361 0.299084
0.857190 0.820018 0.296214
0.969742 0.819018 0.294038
1.000000 0.818540 0.292986
0.000000 0.942336 0.305580
0.060349 0.941497 0.303872
0.187333 0.940327 0.301457
0.348858 0.938859 0.298367
0.529846 0.937239 0.294880
0.705963 0.935689 0.291462
0.855320 0.934394 0.288543
0.967908 0.933430 0.286332
1.000000 0.932969 0.285262
0.000000 1.000000 0.300413
0.058957 1.000000 0.298685
0.185970 1.000000 0.296242
0.347530 1.000000 0.293116
0.528558 1.000000 0.289589
0.704714 1.000000 0.286132
0.854104 1.000000 0.283181
0.966717 1.000000 0.280944
1.000000 1.000000 0.279863
0.000000 0.000550 0.529853
0.081315 0.000000 0.528380
0.207969 0.000000 0.526297
0.369072 0.000000 0.523628
0.549588 0.000000 0.520613
0.725245 0.000000 0.517654
0.874213 0.000000 0.515125
0.986508 0.000000 0.513207
1.000000 0.000000 0.512279
0.000000 0.083688 0.525102
0.079079 0.082635 0.523608
0.205762 0.081164 0.521495
0.366904 0.079313 0.518788
0.547462 0.077263 0.515730
0.723161 0.075295 0.512730
0.872164 0.073646 0.510166
0.984485 0.072415 0.508221
1.000000 0.071825 0.507280
0.000000 0.199667 0.518367
0.076076 0.198643 0.516843
0.202801 0.197214 0.514688
0.363995 0.195415 0.511928
0.544614 0.193425 0.508811
0.720370 0.191515 0.505753
0.869422 0.189915 0.503140
0.981780 0.188720 0.501159
1.000000 0.188149 0.500200
0.000000 0.347295 0.509614
0.072450 0.346309 0.508052
0.199228 0.344933 0.505844
0.360490 0.343202 0.503017
0.541183 0.341287 0.499825
0.717013 0.339450 0.496693
0.866127 0.337912 0.494018
0.978532 0.336765 0.491989
1.000000 0.336216 0.491008
0.000000 0.514760 0.499441
0.068602 0.513817 0.497837
0.195440 0.512501 0.495569
0.356777 0.510846 0.492665
0.537557 0.509017 0.489387
0.713470 0.507263 0.486172
0.862655 0.505796 0.483427
0.975113 0.504702 0.481345
1.000000 0.504178 0.480338
0.000000 0.681615 0.489049
0.065046 0.680714 0.487403
0.191944 0.679457 0.485075
0.353357 0.677878 0.482096
0.534222 0.676134 0.478733
0.710218 0.674463 0.475435
0.859473 0.673066 0.472619
0.971984 0.672025 0.470484
1.000000 0.671527 0.469452
0.000000 0.827698 0.479742
0.062160 0.826834 0.478059
0.189110 0.825630 0.475679
0.350590 0.824117 0.472633
0.531529 0.822448 0.469196
0.707597 0.820849 0.465826
0.856914 0.819513 0.462948
0.969471 0.818518 0.460768
1.000000 0.818042 0.459713
0.000000 0.941808 0.472337
0.060054 0.940973 0.470625
0.187044 0.939809 0.468205
0.348576 0.938348 0.465107
0.529573 0.936737 0.461612
0.705697 0.935195 0.458185
0.855061 0.933906 0.455260
0.967655 0.932948 0.453043
1.000000 0.932489 0.451971
0.000000 1.000000 0.467158
0.058674 1.000000 0.465426
0.185693 1.000000 0.462977
0.347261 1.000000 0.459844
0.528297 1.000000 0.456308
0.704461 1.000000 0.452843
0.853858 1.000000 0.449885
0.966476 1.000000 0.447643
1.000000 1.000000 0.446559
0.000000 0.000000 0.697618
0.080870 0.000000 0.696141
0.207529 0.000000 0.694052
0.368640 0.000000 0.691376
0.549165 0.000000 0.688352
0.724830 0.000000 0.685385
0.873805 0.000000 0.682849
0.986105 0.000000 0.680926
1.000000 0.000000 0.679995
0.000000 0.083022 0.692853
0.078647 0.081973 0.691355
0.205336 0.080509 0.689236
0.366485 0.078664 0.686522
0.547052 0.076623 0.683456
0.722759 0.074663 0.680447
0.871769 0.073021 0.677876
0.984095 0.071795 0.675926
1.000000 0.071208 0.674983
0.000000 0.199020 0.686100
0.075663 0.198000 0.684572
0.202394 0.196577 0.682411
0.363595 0.194786 0.679644
0.544222 0.192804 0.676518
0.719987 0.190902 0.673452
0.869046 0.189308 0.670832
0.981409 0.188119 0.668845
1.000000 0.187550 0.667884
0.000000 0.346672 0.677323
0.072061 0.345690 0.675757
0.198844 0.344320 0.673543
0.360113 0.342596 0.670709
0.540816 0.340690 0.667508
0.716654 0.338861 0.664368
0.865775 0.337330 0.661686
0.978185 0.336188 0.659652
1.000000 0.335641 0.658668
0.000000 0.514164 0.667123
0.068239 0.513225 0.665515
0.195083 0.511914 0.663241
0.356428 0.510267 0.660330
0.537216 0.508446 0.657044
0.713137 0.506701 0.653820
0.862329 0.505240 0.651068
0.974792 0.504151 0.648981
1.000000 0.503630 0.647972
0.000000 0.681045 0.656704
0.064710 0.680148 0.655054
0.191614 0.678898 0.652720
0.353035 0.677326 0.649734
0.533908 0.675591 0.646362
0.709912 0.673928 0.643056
0.859174 0.672537 0.640233
0.971690 0.671501 0.638094
1.000000 0.671006 0.637059
0.000000 0.827152 0.647374
0.061848 0.826292 0.645687
0.188804 0.825094 0.643301
0.350292 0.823589 0.640248
0.531239 0.821928 0.636802
0.707315 0.820337 0.633424
0.856638 0.819008 0.630539
0.969201 0.818018 0.628353
1.000000 0.817545 0.627296
0.000000 0.941280 0.639951
0.059759 0.940449 0.638235
0.186756 0.939291 0.635808
0.348295 0.937838 0.632703
0.529300 0.936235 0.629199
0.705433 0.934701 0.625765
0.854804 0.933419 0.622833
0.967403 0.932466 0.620611
1.000000 0.932010 0.619536
0.000000 1.000000 0.634759
0.058393 1.000000 0.633023
0.185418 1.000000 0.630568
0.346993 1.000000 0.627427
0.528038 1.000000 0.623883
0.704209 1.000000 0.620410
0.853613 1.000000 0.617445
0.966237 1.000000 0.615198
1.000000 1.000000 0.614112
0.000000 0.000000 0.846812
0.080476 0.000000 0.845331
0.207141 0.000000 0.843237
0.368258 0.000000 0.840554
0.548790 0.000000 0.837523
0.724463 0.000000 0.834549
0.873444 0.000000 0.832007
0.985748 0.000000 0.830079
1.000000 0.000000 0.829146
0.000000 0.082432 0.842035
0.078265 0.081387 0.840534
0.204960 0.079927 0.838409
0.366115 0.078090 0.835688
0.546690 0.076056 0.832615
0.722404 0.074104 0.829599
0.871420 0.072467 0.827022
0.983751 0.071246 0.825067
1.000000 0.070661 0.824122
0.000000 0.198446 0.835265
0.075298 0.197430 0.833734
0.202034 0.196013 0.831567
0.363242 0.194228 0.828794
0.543876 0.192254 0.825661
0.719648 0.190359 0.822587
0.868713 0.188772 0.819961
0.981081 0.187587 0.817969
1.000000 0.187020 0.817006
0.000000 0.346119 0.826467
0.071716 0.345141 0.824898
0.198506 0.343776 0.822679
0.359781 0.342059 0.819837
0.540491 0.340161 0.816629
0.716336 0.338339 0.813482
0.865463 0.336814 0.810793
0.977878 0.335677 0.808755
1.000000 0.335132 0.807769
0.000000 0.513636 0.816243
0.067919 0.512700 0.814631
0.194768 0.511395 0.812352
0.356120 0.509754 0.809435
0.536915 0.507941 0.806141
0.712844 0.506203 0.802910
0.862041 0.504748 0.800152
0.974509 0.503664 0.798060
1.000000 0.503145 0.797049
0.000000 0.680541 0.805801
0.064414 0.679648 0.804147
0.191323 0.678402 0.801808
0.352751 0.676837 0.798814
0.533631 0.675109 0.795435
0.709642 0.673454 0.792122
0.858910 0.672069 0.789293
0.971431 0.671038 0.787149
1.000000 0.670545 0.786112
0.000000 0.826668 0.796450
0.061573 0.825812 0.794759
0.188534 0.824619 0.792368
0.350028 0.823121 0.789308
0.530982 0.821467 0.785854
0.707066 0.819884 0.782469
0.856395 0.818561 0.779579
0.968962 0.817576 0.777388
1.000000 0.817105 0.776329
0.000000 0.940812 0.789010
0.059500 0.939985 0.787290
0.186502 0.938833 0.784859
0.348048 0.937386 0.781747
0.529061 0.935791 0.778236
0.705200 0.934264 0.774794
0.854578 0.932989 0.771855
0.967181 0.932039 0.769629
1.000000 0.931586 0.768552
0.000000 1.000000 0.783807
0.058145 1.000000 0.782067
0.185175 1.000000 0.779607
0.346756 1.000000 0.776460
0.527809 1.000000 0.772909
0.703988 1.000000 0.769428
0.853398 1.000000 0.766457
0.966026 1.000000 0.764205
1.000000 1.000000 0.763116
0.000000 0.000000 0.965718
0.080164 0.000000 0.964234
0.206833 0.000000 0.962135
0.367955 0.000000 0.959447
0.548493 0.000000 0.956410
0.724172 0.000000 0.953430
0.873157 0.000000 0.950883
0.985466 0.000000 0.948952
1.000000 0.000000 0.948017
0.000000 0.081964 0.960932
0.077962 0.080921 0.959427
0.204661 0.079466 0.957298
0.365822 0.077634 0.954572
0.546402 0.075606 0.951493
0.722122 0.073659 0.948471
0.871143 0.072028 0.945889
0.983478 0.070810 0.943931
1.000000 0.070227 0.942984
0.000000 0.197991 0.954148
0.075008 0.196978 0.952614
0.201748 0.195564 0.950443
0.362962 0.193785 0.947664
0.543602 0.191817 0.944525
0.719380 0.189927 0.941446
0.868450 0.188345 0.938815
0.980821 0.187164 0.936820
1.000000 0.186599 0.935855
0.000000 0.345681 0.945333
0.071444 0.344706 0.943761
0.198237 0.343345 0.941538
0.359518 0.341633 0.938691
0.540233 0.339740 0.935477
0.716084 0.337924 0.932324
0.865217 0.336404 0.929630
0.977635 0.335271 0.927588
1.000000 0.334728 0.926601
0.000000 0.513216 0.935090
0.067665 0.512284 0.933475
0.194518 0.510983 0.931192
0.355876 0.509347 0.928269
0.536677 0.507540 0.924969
0.712611 0.505807 0.921733
0.861814 0.504358 0.918969
0.974286 0.503277 0.916874
1.000000 0.502760 0.915861
0.000000 0.680140 0.924629
0.064179 0.679250 0.922972
0.191092 0.678009 0.920629
0.352525 0.676449 0.917630
0.533412 0.674727 0.914245
0.709428 0.673077 0.910926
0.858701 0.671698 0.908092
0.971226 0.670670 0.905944
1.000000 0.670179 0.904905
0.000000 0.826284 0.915261
0.061354 0.825431 0.913567
0.188320 0.824242 0.911172
0.349819 0.822749 0.908107
0.530780 0.821101 0.904647
0.706869 0.819524 0.901256
0.856203 0.818206 0.898361
0.968774 0.817224 0.896167
1.000000 0.816755 0.895106
0.000000 0.940441 0.907809
0.059295 0.939617 0.906086
0.186301 0.938469 0.903650
0.347852 0.937028 0.900533
0.528871 0.935438 0.897016
0.705017 0.933917 0.893568
0.854399 0.932647 0.890625
0.967006 0.931701 0.888395
1.000000 0.931249 0.887316
0.000000 1.000000 0.902597
0.057949 1.000000 0.900854
0.184983 1.000000 0.898390
0.346570 1.000000 0.895237
0.527628 1.000000 0.891680
0.703813 1.000000 0.888193
0.853228 1.000000 0.885217
0.965860 1.000000 0.882962
1.000000 1.000000 0.881871
0.000000 0.000000 1.000000
0.079937 0.000000 1.000000
0.206609 0.000000 1.000000
0.367735 0.000000 1.000000
0.548277 0.000000 1.000000
0.723960 0.000000 1.000000
0.872949 0.000000 1.000000
0.985260 0.000000 1.000000
1.000000 0.000000 1.000000
0.000000 0.081623 1.000000
0.077742 0.080582 1.000000
0.204444 0.079130 1.000000
0.365608 0.077302 1.000000
0.546193 0.075278 1.000000
0.721917 0.073335 1.000000
0.870942 0.071708 1.000000
0.983279 0.070493 1.000000
1.000000 0.069911 1.000000
0.000000 0.197659 1.000000
0.074798 0.196649 1.000000
0.201541 0.195238 1.000000
0.362758 0.193463 1.000000
0.543403 0.191499 1.000000
0.719185 0.189614 1.000000
0.868258 0.188035 1.000000
0.980632 0.186857 1.000000
1.000000 0.186293 1.000000
0.000000 0.345362 1.000000
0.071245 0.344389 1.000000
0.198042 0.343031 1.000000
0.359327 0.341323 1.000000
0.540047 0.339435 1.000000
0.715902 0.337623 1.000000
0.865038 0.336106 1.000000
0.977459 0.334975 1.000000
1.000000 0.334434 1.000000
0.000000 0.512911 1.000000
0.067481 0.511980 1.000000
0.194337 0.510683 1.000000
0.355698 0.509051 1.000000
0.536504 0.507248 1.000000
0.712442 0.505520 1.000000
0.861649 0.504074 1.000000
0.974123 0.502996 1.000000
1.000000 0.502480 1.000000
0.000000 0.679849 1.000000
0.064009 0.678961 1.000000
0.190925 0.677723 1.000000
0.352362 0.676167 1.000000
0.533252 0.674449 1.000000
0.709274 0.672803 0.997609
0.858550 0.671428 0.994772
0.971077 0.670403 0.992621
1.000000 0.669912 0.991581
0.000000 0.826005 1.000000
0.061196 0.825154 1.000000
0.188164 0.823968 0.997855
0.349668 0.822479 0.994786
0.530633 0.820836 0.991322
0.706726 0.819262 0.987927
0.856064 0.817948 0.985028
0.968638 0.816969 0.982831
1.000000 0.816501 0.981769
0.000000 0.940172 0.994488
0.059146 0.939350 0.992763
0.186155 0.938204 0.990324
0.347710 0.936767 0.987203
0.528733 0.935181 0.983681
0.704883 0.933665 0.980229
0.854269 0.932398 0.977283
0.966878 0.931455 0.975050
1.000000 0.931005 0.973970
0.000000 1.000000 0.989269
0.057806 1.000000 0.987524
0.184843 1.000000 0.985057
0.346434 1.000000 0.981900
0.527497 1.000000 0.978339
0.703686 1.000000 0.974848
0.853105 1.000000 0.971868
0.965739 1.000000 0.969610
1.000000 1.000000 0.968519
