LUTs/08_Portrait_Premium.cube
TITLE "Portrait Premium"
# Nikon D5500 + Sigma 17-50 - subtle creative look (apply ~20-40%)
LUT_3D_SIZE 5
DOMAIN_MIN 0.0 0.0 0.0
DOMAIN_MAX 1.0 1.0 1.0
0.000000 0.002650 0.015459
0.209333 0.000044 0.011934
0.550904 0.000000 0.006298
0.875482 0.000000 0.000857
1.000000 0.000000 0.000000
0.000000 0.201668 0.004071
0.204067 0.199184 0.000423
0.545830 0.195347 0.000000
0.870593 0.191790 0.000000
1.000000 0.190000 0.000000
0.000000 0.516606 0.000000
0.196549 0.514315 0.000000
0.538618 0.510783 0.000000
0.863670 0.507515 0.000000
1.000000 0.505874 0.000000
0.000000 0.829390 0.000000
0.190066 0.827291 0.000000
0.532436 0.824060 0.000000
0.857775 0.821079 0.000000
1.000000 0.819584 0.000000
0.000000 1.000000 0.000000
0.186554 1.000000 0.000000
0.529110 1.000000 0.000000
0.854625 1.000000 0.000000
1.000000 1.000000 0.000000
0.000000 0.001828 0.215939
0.208798 0.000000 0.212402
0.550388 0.000000 0.206748
0.874985 0.000000 0.201288
1.000000 0.000000 0.198457
0.000000 0.200885 0.204513
0.203570 0.198413 0.200853
0.545353 0.194595 0.195006
0.870133 0.191056 0.189363
1.000000 0.189276 0.186438
0.000000 0.515884 0.185682
0.196114 0.513605 0.181829
0.538201 0.510092 0.175677
0.863271 0.506842 0.169745
1.000000 0.505210 0.166671
0.000000 0.828727 0.166078
0.189691 0.826641 0.162033
0.532080 0.823429 0.155580
0.857436 0.820466 0.149360
1.000000 0.818981 0.146140
0.000000 1.000000 0.153551
0.186216 1.000000 0.149389
0.528790 1.000000 0.142750
0.854323 1.000000 0.136354
1.000000 1.000000 0.133043
0.000000 0.000550 0.529853
0.207969 0.000000 0.526297
0.549588 0.000000 0.520613
0.874213 0.000000 0.515125
1.000000 0.000000 0.512279
0.000000 0.199667 0.518367
0.202801 0.197214 0.514688
0.544614 0.193425 0.508811
0.869422 0.189915 0.503140
1.000000 0.188149 0.500200
0.000000 0.514760 0.499441
0.195440 0.512501 0.495569
0.537557 0.509017 0.489387
0.862655 0.505796 0.483427
1.000000 0.504178 0.480338
0.000000 0.827698 0.479742
0.189110 0.825630 0.475679
0.531529 0.822448 0.469196
0.856914 0.819513 0.462948
1.000000 0.818042 0.459713
0.000000 1.000000 0.467158
0.185693 1.000000 0.462977
0.528297 1.000000 0.456308
0.853858 1.000000 0.449885
1.000000 1.000000 0.446559
0.000000 0.000000 0.846812
0.207141 0.000000 0.843237
0.548790 0.000000 0.837523
0.873444 0.000000 0.832007
1.000000 0.000000 0.829146
0.000000 0.198446 0.835265
0.202034 0.196013 0.831567
0.543876 0.192254 0.825661
0.868713 0.188772 0.819961
1.000000 0.187020 0.817006
0.000000 0.513636 0.816243
0.194768 0.511395 0.812352
0.536915 0.507941 0.806141
0.862041 0.504748 0.800152
1.000000 0.503145 0.797049
0.000000 0.826668 0.796450
0.188534 0.824619 0.792368
0.530982 0.821467 0.785854
0.856395 0.818561 0.779579
1.000000 0.817105 0.776329
0.000000 1.000000 0.783807
0.185175 1.000000 0.779607
0.527809 1.000000 0.772909
0.853398 1.000000 0.766457
1.000000 1.000000 0.763116
0.000000 0.000000 1.000000
0.206609 0.000000 1.000000
0.548277 0.000000 1.000000
0.872949 0.000000 1.000000
1.000000 0.000000 1.000000
0.000000 0.197659 1.000000
0.201541 0.195238 1.000000
0.543403 0.191499 1.000000
0.868258 0.188035 1.000000
1.000000 0.186293 1.000000
0.000000 0.512911 1.000000
0.194337 0.510683 1.000000
0.536504 0.507248 1.000000
0.861649 0.504074 1.000000
1.000000 0.502480 1.000000
0.000000 0.826005 1.000000
0.188164 0.823968 0.997855
0.530633 0.820836 0.991322
0.856064 0.817948 0.985028
1.000000 0.816501 0.981769
0.000000 1.000000 0.989269
0.184843 1.000000 0.985057
0.527497 1.000000 0.978339
0.853105 1.000000 0.971868
1.000000 1.000000 0.968519
